P3
400 200
255
116 35 45
115 35 45
115 35 45
113 34 45
112 34 44
106 34 43
65 48 46
55 50 46
55 50 46
54 50 46
53 49 45
50 46 42
53 49 45
41 39 34
31 34 23
33 37 22
26 30 18
30 36 21
35 36 27
39 37 33
44 40 37
47 43 39
48 44 40
51 47 43
51 47 43
49 45 40
55 50 46
55 50 46
55 50 46
56 51 46
56 51 47
56 51 47
54 50 45
56 51 47
56 51 47
54 49 45
56 51 47
56 51 47
55 50 46
55 50 46
51 47 43
53 51 46
49 45 41
55 53 46
54 52 45
55 52 46
61 58 51
136 128 74
51 51 43
49 46 41
54 49 45
54 49 45
53 48 45
56 51 47
55 50 46
54 49 45
56 51 47
54 49 45
52 48 44
55 50 46
55 50 46
55 50 46
56 51 47
54 49 46
54 49 45
55 49 45
54 48 44
51 46 42
52 47 43
49 43 39
49 43 40
47 42 39
52 46 42
44 39 36
49 45 41
46 41 37
51 46 42
54 49 45
73 52 46
52 47 43
53 47 43
54 49 45
54 49 45
53 48 44
53 48 44
55 50 46
54 49 45
55 50 46
55 49 45
55 50 46
56 51 47
56 51 47
55 50 46
56 50 46
54 50 46
55 50 46
57 54 41
54 54 30
58 58 32
57 56 31
56 56 31
111 108 44
87 84 37
59 57 32
55 55 31
56 54 33
54 49 45
54 49 45
54 49 45
53 49 45
47 43 39
40 37 34
40 37 34
31 29 27
50 45 31
24 22 21
23 22 21
30 27 26
36 33 30
90 83 70
59 54 38
88 75 65
75 73 61
108 99 88
113 103 91
118 109 97
73 67 58
54 49 46
55 50 46
55 50 46
55 50 46
54 50 45
54 49 45
55 50 46
55 50 46
56 51 47
55 51 46
56 51 47
55 50 46
53 48 44
51 46 42
52 47 43
50 45 41
52 47 43
40 36 35
46 41 38
43 39 35
66 59 37
30 27 24
32 29 27
41 36 33
52 47 42
56 51 46
51 47 43
31 27 27
28 24 24
23 20 21
29 26 26
36 32 32
35 31 30
45 39 39
48 43 41
49 44 42
54 49 45
53 47 45
55 50 46
55 50 46
54 49 46
56 51 47
56 51 47
55 50 46
55 50 46
55 50 46
58 52 48
69 53 50
60 46 44
55 40 39
59 47 44
63 58 50
112 97 63
58 46 46
107 97 87
72 65 58
51 45 42
52 46 43
53 47 44
54 48 45
56 50 46
55 50 46
54 50 46
55 50 46
56 50 46
55 50 46
54 49 45
55 50 46
56 51 47
56 51 47
56 51 47
55 50 46
55 50 46
54 50 46
55 50 46
62 56 51
57 51 47
57 52 48
58 53 48
57 52 48
60 55 49
59 54 49
52 47 44
56 52 47
60 51 48
55 50 46
56 51 47
55 50 46
56 51 47
56 51 47
55 50 46
55 50 46
55 50 46
55 50 46
53 48 44
53 48 44
50 45 42
53 48 44
45 40 37
40 36 33
34 31 29
25 22 20
20 17 15
15 10 9
11 8 7
42 35 32
88 67 46
93 76 54
54 45 41
137 112 69
92 76 53
91 75 52
91 75 53
54 45 40
54 46 41
80 72 54
54 50 46
56 51 47
55 50 46
55 50 46
55 50 46
55 50 46
56 51 47
57 50 45
89 69 52
87 68 51
87 68 51
174 132 71
139 106 62
88 68 51
137 105 61
89 69 52
87 68 51
66 55 47
56 51 47
55 50 46
55 51 47
55 50 46
55 50 46
56 51 47
55 50 46
55 50 46
56 51 47
55 50 46
55 50 46
55 50 46
54 49 45
62 48 40
80 46 25
168 86 34
89 51 29
149 84 36
92 53 29
185 103 40
95 55 30
92 53 30
86 50 28
62 45 36
53 48 44
51 46 42
61 54 49
61 55 50
65 59 54
57 52 48
68 63 56
68 62 56
58 52 48
59 54 49
57 52 48
61 55 50
56 51 47
55 50 46
56 51 47
56 51 47
56 51 47
56 51 47
56 51 47
56 51 47
55 50 46
55 50 46
55 50 46
56 51 47
55 51 46
56 51 47
56 51 47
57 52 47
55 50 46
56 51 47
55 51 46
56 51 47
54 50 45
55 50 46
52 48 44
54 50 45
53 49 45
54 49 45
50 47 43
51 47 43
50 46 42
16 44 27
10 45 26
22 97 38
9 41 24
9 42 24
12 53 30
10 46 26
20 44 28
49 47 42
54 49 45
54 49 45
56 51 47
56 51 47
55 51 46
56 51 47
55 50 46
56 51 47
55 50 46
55 50 46
54 49 45
50 46 42
50 45 42
49 44 41
46 41 39
40 36 35
35 32 31
30 26 26
29 25 25
33 28 28
44 39 38
45 41 39
47 42 40
53 48 44
52 47 44
54 49 45
56 51 47
55 50 46
54 49 45
52 51 51
53 54 56
55 56 58
58 58 60
54 54 56
58 59 61
89 89 74
59 60 62
59 60 62
55 57 59
53 49 46
50 45 41
51 46 42
48 43 39
44 39 35
35 22 18
30 15 9
36 17 10
96 46 18
43 21 12
41 20 12
41 33 29
53 48 44
53 49 45
54 49 45
55 50 46
56 51 47
56 51 47
54 50 46
56 51 47
56 51 47
55 50 47
55 51 47
56 51 47
56 51 47
56 51 47
112 34 44
111 34 44
111 34 44
110 33 43
111 34 44
107 32 42
100 34 42
58 47 44
53 49 44
54 50 45
51 47 43
51 46 42
45 42 38
42 39 35
35 33 29
32 30 27
31 28 26
19 18 16
22 21 18
29 28 25
37 34 31
38 36 32
46 43 39
52 47 43
51 47 43
54 49 45
55 50 46
54 50 45
55 50 46
55 50 46
55 50 46
56 51 47
55 50 46
56 51 47
55 50 46
55 50 46
56 51 47
56 51 47
55 50 46
54 49 45
54 50 46
47 44 40
45 41 38
45 42 38
46 45 39
51 49 43
49 48 41
43 43 37
42 42 37
45 41 38
51 46 43
51 47 43
54 49 45
55 50 46
55 50 46
54 49 45
54 49 45
56 51 47
55 50 46
56 51 47
56 51 47
54 49 45
54 48 44
55 50 46
55 50 46
54 49 45
54 49 45
55 49 45
53 47 44
53 47 44
52 47 43
53 48 44
52 47 43
53 48 44
54 49 45
53 48 44
53 48 44
55 50 46
53 48 44
55 50 46
56 51 47
56 51 47
55 50 46
55 50 46
55 50 46
55 50 46
55 50 46
55 51 46
55 50 46
56 51 47
56 50 46
56 51 47
56 51 47
56 51 47
56 51 46
55 50 46
54 52 37
54 54 30
87 84 37
86 83 37
55 54 30
83 80 34
86 83 36
57 55 31
84 81 35
82 80 34
52 48 42
54 50 46
52 48 44
52 47 43
53 48 44
47 43 40
49 44 41
42 39 36
41 38 35
43 39 36
43 39 36
43 39 36
48 44 41
51 46 42
94 87 71
112 103 87
129 118 102
127 116 101
126 115 100
95 87 76
56 52 47
55 50 46
53 49 45
54 49 45
56 51 47
55 50 46
55 50 46
56 51 47
54 49 45
55 50 46
56 51 47
55 50 46
53 48 44
55 50 46
55 50 46
56 51 47
52 47 43
51 46 42
44 34 36
52 42 42
45 38 34
39 34 30
36 28 24
29 25 23
43 39 36
48 43 39
74 68 51
58 52 46
58 44 38
66 54 45
62 49 42
43 37 37
45 39 40
41 36 35
48 43 42
51 46 44
53 48 45
54 49 46
54 49 45
55 50 46
55 50 47
56 51 47
54 48 45
55 50 46
55 49 46
55 50 46
56 50 46
55 50 46
66 56 52
100 73 72
73 52 51
73 53 52
94 78 70
123 113 98
127 116 101
88 81 71
54 49 45
54 49 45
54 49 45
55 50 46
55 50 46
56 51 47
55 50 46
56 50 46
56 51 47
55 50 46
56 51 47
56 51 47
55 50 46
67 58 49
81 68 55
93 77 58
92 76 59
62 55 47
56 51 47
56 51 47
72 66 59
86 71 65
54 49 46
48 42 41
55 49 46
59 54 49
57 52 46
32 36 29
78 77 64
67 57 54
56 51 47
56 51 47
55 51 46
55 50 46
55 50 46
55 50 46
54 49 45
56 51 47
54 50 46
54 49 45
54 49 45
53 49 45
51 46 42
42 38 35
46 41 38
42 38 35
35 31 29
28 25 23
31 28 26
32 29 27
60 44 35
47 39 35
112 91 56
49 41 38
113 92 57
116 95 61
50 42 38
45 38 34
47 39 36
46 38 35
54 49 45
56 51 47
55 50 46
55 50 46
55 50 46
55 50 46
55 50 46
55 50 46
61 52 45
132 100 57
88 67 49
137 105 61
172 131 70
134 104 60
84 65 49
84 65 49
83 65 48
76 58 44
62 53 44
55 50 46
56 51 47
56 51 47
54 49 45
54 50 46
55 50 46
56 51 47
55 50 46
56 51 47
55 50 46
54 49 45
55 50 46
53 48 44
56 49 44
70 39 22
70 41 23
74 43 23
139 78 32
143 80 34
82 47 26
87 59 27
84 48 27
75 44 24
64 48 39
54 49 45
61 56 51
65 59 53
60 55 50
61 55 50
55 50 46
63 58 51
55 49 46
56 51 47
59 53 48
62 56 50
53 48 44
56 51 47
56 51 46
56 51 46
56 51 47
55 50 46
56 51 47
56 51 47
56 51 47
56 51 47
55 50 46
56 51 47
56 51 47
56 51 47
55 51 46
55 50 46
56 51 47
56 51 47
55 50 46
55 50 46
54 49 45
55 51 46
55 50 46
55 50 46
54 50 46
53 48 44
52 48 44
49 45 42
47 43 39
40 38 34
36 37 32
17 35 23
9 42 25
7 33 18
9 40 23
8 39 22
13 38 23
49 46 42
52 48 44
52 48 44
53 49 45
53 48 44
54 49 45
54 50 46
55 51 46
55 50 46
55 50 46
56 51 47
56 51 47
55 50 46
53 48 45
51 46 43
48 43 40
49 44 42
42 38 36
32 28 28
29 25 25
26 23 22
33 30 29
35 31 30
40 36 34
45 41 39
53 48 45
53 48 45
53 48 44
54 49 45
55 50 47
54 49 45
81 80 61
52 53 55
53 54 56
86 86 69
55 56 58
54 55 57
56 55 57
56 57 59
53 54 56
50 52 53
49 45 42
57 44 38
44 40 36
45 41 37
38 34 31
36 32 30
24 20 18
30 22 19
28 20 17
36 28 25
45 40 36
46 42 38
50 45 41
54 49 45
51 46 42
55 50 46
53 48 44
55 50 46
54 49 45
56 51 47
55 51 46
55 50 46
56 51 47
56 51 47
56 51 47
55 50 47
109 33 43
110 34 44
110 33 43
104 31 41
106 32 42
106 32 42
101 31 40
77 38 41
53 48 44
53 48 44
49 45 41
46 42 38
45 42 38
41 38 35
36 33 30
24 23 20
31 29 26
29 27 25
31 29 26
36 34 31
42 39 35
46 43 39
51 47 43
50 46 42
54 49 45
54 49 45
53 48 44
53 49 45
56 51 47
55 50 46
56 51 47
56 51 47
55 50 46
55 50 46
56 51 47
55 50 46
55 50 46
53 49 45
54 49 45
54 49 45
53 48 45
53 49 45
42 39 36
41 40 37
34 31 29
32 30 28
36 35 31
32 32 28
38 36 32
40 37 34
47 42 39
48 44 40
51 47 43
53 48 44
52 47 44
55 50 46
56 51 47
55 50 46
54 49 45
56 51 47
54 49 45
56 51 47
55 50 46
55 50 46
55 50 46
55 50 46
55 50 46
56 51 47
56 51 47
54 49 45
54 48 44
55 49 45
56 51 47
54 49 45
56 51 47
55 50 46
55 50 46
55 50 46
55 50 46
55 50 46
55 50 46
56 50 46
56 51 47
55 50 46
56 51 47
55 50 46
55 50 46
55 50 46
55 50 46
56 51 47
56 51 47
54 49 45
55 50 46
55 50 46
55 50 46
56 51 47
50 47 35
47 46 26
50 50 28
48 48 27
52 52 29
46 44 25
50 49 27
83 80 34
48 48 27
43 42 24
54 49 44
55 50 46
52 48 44
52 47 43
54 49 46
52 48 44
49 45 41
48 44 41
47 43 40
53 49 45
45 42 38
52 47 44
52 47 44
66 60 48
54 49 45
65 59 53
75 68 60
74 68 60
78 71 62
55 50 46
55 50 46
53 49 45
54 49 46
55 51 47
55 50 46
56 51 47
56 51 47
55 50 46
55 51 47
55 50 46
56 51 47
56 51 47
55 50 46
55 50 46
55 50 46
55 50 46
79 70 52
54 49 45
73 63 63
44 35 34
49 37 32
43 28 23
48 32 27
35 21 18
49 36 30
73 63 54
152 136 79
58 53 48
48 43 40
51 46 43
54 49 46
52 47 43
51 46 44
71 60 51
51 46 43
53 49 45
55 50 46
54 49 46
56 51 47
56 51 47
55 50 46
56 51 47
54 49 45
55 50 46
56 51 47
55 50 46
55 50 46
55 50 47
54 49 46
58 53 48
101 76 70
114 89 81
110 96 84
112 102 88
73 67 59
54 49 45
54 50 46
55 50 46
56 51 47
55 50 46
56 50 47
55 50 46
56 51 47
55 50 46
56 51 47
55 50 46
55 50 46
54 49 45
86 70 55
128 104 76
138 111 79
140 113 80
137 111 79
123 100 73
79 66 53
54 50 46
58 53 48
108 99 87
115 106 95
98 69 78
95 80 80
93 89 82
145 120 80
51 67 49
97 90 78
55 50 46
81 73 54
54 50 46
55 50 46
55 50 46
56 51 46
55 50 46
56 51 47
54 50 46
56 51 47
56 50 46
55 49 45
53 48 44
53 48 44
51 46 42
48 43 40
52 46 42
44 39 36
43 38 35
45 41 38
46 42 38
41 37 34
38 31 28
42 35 32
86 70 46
73 51 37
50 43 39
134 109 64
41 35 32
44 37 34
41 36 33
55 50 46
55 50 46
55 50 46
55 50 46
55 51 46
55 50 46
55 50 46
55 50 46
55 48 43
63 49 37
165 125 63
74 59 44
170 129 68
156 123 66
131 100 56
128 98 55
76 59 45
65 52 38
61 52 46
54 50 45
56 51 47
56 51 47
55 50 46
56 51 47
56 51 47
55 50 46
55 51 46
55 50 46
55 50 46
55 49 45
52 47 43
52 47 43
51 46 42
52 31 20
66 37 21
66 38 21
137 76 31
139 78 32
71 41 23
71 41 23
64 38 21
71 43 28
54 49 45
54 49 45
56 51 46
107 99 88
46 44 39
58 54 48
54 49 45
55 50 46
59 53 48
50 45 41
44 37 35
59 50 46
63 58 53
56 51 47
54 49 46
57 52 47
56 51 47
56 51 47
55 51 46
56 51 47
55 50 46
56 51 47
56 50 46
56 51 47
56 51 47
56 51 47
56 51 47
56 51 47
56 51 47
56 51 47
56 51 47
55 51 46
55 50 46
56 51 47
54 50 45
56 51 47
55 50 46
52 48 44
49 46 42
50 45 42
46 42 39
40 37 34
36 33 30
27 26 23
17 25 18
15 24 17
23 28 21
52 41 31
74 54 41
75 54 41
62 49 39
49 45 41
49 46 42
53 49 45
51 47 43
54 50 46
55 50 46
55 50 46
55 50 46
55 50 46
56 50 47
53 48 44
55 50 46
55 50 46
53 48 45
53 49 45
52 47 43
45 41 38
44 40 38
45 41 38
39 35 33
42 38 36
45 40 38
47 42 39
51 46 43
55 50 46
52 47 44
55 49 46
53 48 44
55 50 46
104 102 70
44 45 47
50 50 53
83 82 64
50 50 52
52 53 53
48 49 50
50 50 51
45 47 48
65 69 56
52 49 46
53 48 44
47 42 39
39 35 32
35 31 29
35 31 29
27 24 22
29 27 25
26 23 21
30 26 24
38 35 32
43 38 35
49 44 40
48 43 40
53 48 44
52 47 43
54 49 45
54 49 45
54 49 45
55 50 46
56 51 46
56 51 47
55 50 46
56 51 47
56 51 47
56 51 47
98 30 39
103 31 41
100 31 40
98 29 38
90 27 35
95 28 38
92 28 36
90 28 36
55 50 46
53 48 44
53 48 44
52 47 43
49 45 41
44 40 37
41 37 34
41 38 34
40 37 34
44 40 37
39 36 33
45 42 38
44 40 37
47 43 39
55 51 46
53 49 45
52 48 44
56 51 47
55 50 46
55 50 46
55 50 46
56 51 47
56 50 46
55 50 46
55 50 46
55 50 47
54 49 45
55 50 46
55 50 46
54 49 45
52 48 44
52 48 44
51 46 43
45 41 38
41 37 34
35 32 30
30 28 26
23 22 21
21 19 18
28 26 24
32 30 28
83 90 40
71 71 49
76 75 52
79 78 56
59 57 46
54 50 46
55 51 46
52 47 43
54 50 46
55 50 46
56 51 47
55 50 46
53 48 45
56 51 47
55 50 46
56 51 47
55 50 46
56 51 47
55 50 46
56 50 46
55 50 46
56 51 47
56 51 47
55 50 46
55 50 46
55 50 46
56 51 47
54 49 46
55 50 46
56 51 47
56 51 47
55 50 46
56 51 47
55 50 46
56 51 47
55 50 46
55 50 46
56 51 47
55 50 46
56 51 47
56 51 47
56 51 47
55 51 46
80 72 54
55 50 46
55 50 46
56 51 47
50 47 40
41 42 23
80 78 32
80 78 32
104 101 39
42 42 24
78 75 31
77 74 30
38 37 21
39 39 23
55 50 46
55 50 46
55 50 46
54 50 46
54 49 45
54 49 45
54 49 45
54 50 46
55 50 46
53 48 44
52 48 44
55 50 46
53 48 44
53 48 44
54 49 45
54 50 46
80 72 53
54 49 45
54 50 46
55 50 46
54 49 45
55 50 46
55 50 46
55 50 46
55 50 46
54 49 46
56 51 47
55 50 46
56 51 47
56 51 47
54 49 45
56 51 47
55 50 46
56 51 47
56 50 46
54 49 45
55 50 46
54 48 44
57 51 48
86 68 71
64 40 34
56 37 31
56 35 29
48 26 22
147 80 42
102 91 78
71 65 58
54 49 45
53 48 45
52 47 43
56 51 47
52 47 44
54 48 46
56 51 47
55 50 46
55 50 46
54 49 46
56 51 47
56 51 47
56 51 47
56 51 47
55 50 47
55 51 47
55 50 46
55 50 46
55 51 47
55 50 46
53 48 45
54 49 45
54 49 45
55 50 46
55 50 46
56 51 46
55 50 46
53 49 45
55 50 46
55 50 46
55 50 46
55 50 46
56 51 47
55 50 46
56 51 47
56 51 47
56 51 47
56 51 47
55 51 46
56 51 47
71 59 48
128 104 76
138 112 79
144 116 81
145 117 82
143 115 81
137 111 79
123 100 73
67 57 48
54 49 46
54 49 46
104 96 83
130 117 103
129 117 103
130 120 104
127 116 100
105 97 84
55 50 46
55 50 46
55 50 47
56 51 47
54 50 46
55 50 46
55 50 46
55 50 46
56 51 47
55 50 46
56 51 47
55 50 46
55 50 46
70 56 47
52 47 43
54 50 46
68 54 45
49 44 41
53 48 44
47 42 39
51 46 43
47 43 39
45 41 37
71 62 42
34 28 27
38 32 29
81 66 42
84 69 45
38 32 30
40 34 31
37 32 30
52 47 43
53 48 44
51 46 43
50 45 42
53 48 44
53 49 45
55 50 46
56 51 47
53 48 44
55 50 46
51 40 31
62 48 36
67 53 40
197 149 73
124 94 51
67 52 40
64 51 38
126 96 53
54 43 33
55 49 45
53 48 44
55 50 46
54 50 46
55 50 46
55 51 46
56 51 47
55 51 46
55 50 46
55 50 45
54 49 45
54 49 45
52 47 43
53 48 44
51 46 43
44 36 32
57 32 19
53 29 17
130 72 28
130 72 28
61 36 20
53 31 17
50 28 16
50 40 35
54 49 45
54 49 45
54 49 45
94 87 76
93 92 75
82 81 68
63 57 44
78 72 64
82 75 67
57 53 40
71 45 46
93 81 72
54 50 45
56 51 47
55 51 47
56 51 47
56 51 47
56 51 47
56 51 47
56 51 47
56 51 47
56 51 47
56 51 47
56 51 47
55 50 46
56 51 47
55 51 46
56 51 47
55 51 46
56 51 47
55 51 47
54 49 45
55 50 46
55 50 46
55 50 46
53 49 45
53 49 45
53 49 45
52 48 44
45 42 38
48 45 41
44 40 37
39 36 33
24 23 21
19 18 16
36 26 20
79 55 39
87 60 42
88 60 42
88 61 42
88 60 42
84 58 42
65 52 44
52 48 44
53 49 45
53 49 45
53 48 44
55 51 46
55 50 46
55 51 46
56 51 47
55 50 46
55 50 46
55 50 46
54 49 46
54 48 45
53 48 44
54 49 45
51 46 43
49 44 41
52 47 44
51 46 43
51 46 43
53 48 44
53 48 45
54 49 46
54 49 45
54 50 46
54 49 45
55 50 46
43 41 41
39 39 42
41 41 43
106 104 74
44 42 44
79 79 60
43 44 46
44 44 45
40 40 42
47 47 46
55 50 46
53 49 45
50 45 41
45 41 37
44 40 36
41 37 35
36 32 29
28 25 23
33 29 27
36 32 29
37 33 30
46 42 38
70 67 46
80 77 52
92 90 57
89 87 56
76 73 51
61 57 47
55 50 46
56 51 47
55 50 46
55 50 46
56 51 47
55 50 46
56 51 47
55 51 47
94 28 37
96 29 38
98 30 39
94 28 37
95 29 37
78 23 31
84 24 32
73 21 29
57 48 44
53 48 44
54 50 45
52 47 43
50 46 42
50 46 42
50 46 41
46 42 38
52 48 44
50 46 42
51 47 43
53 48 44
63 61 46
52 48 44
53 49 44
54 49 45
56 51 47
55 50 46
54 49 45
55 51 46
55 50 46
56 51 47
55 50 46
55 50 47
55 51 47
54 49 45
55 50 46
55 50 46
54 49 45
52 48 44
52 47 44
48 44 41
48 43 40
41 38 35
36 32 30
33 30 28
26 24 22
30 28 26
24 22 21
32 29 27
51 50 38
106 107 67
124 125 76
129 129 78
126 127 77
119 120 74
86 85 56
59 56 47
52 48 44
56 51 47
54 49 45
55 50 46
56 51 47
56 51 47
56 50 46
56 51 47
55 50 46
55 49 46
55 50 47
56 51 47
56 51 47
56 51 47
56 51 47
56 51 47
56 51 46
55 50 46
56 51 47
55 50 47
55 50 46
56 51 47
56 51 47
56 50 46
55 50 46
56 51 47
56 51 47
56 51 47
56 51 47
56 51 47
56 51 47
55 51 46
55 50 46
55 50 46
55 50 46
56 51 47
56 51 47
56 51 47
55 50 46
54 49 45
53 48 44
38 38 25
37 37 21
76 74 29
76 73 29
35 34 19
34 33 18
40 39 22
36 35 20
44 42 31
55 50 46
52 47 44
54 49 45
54 49 45
55 51 47
54 49 45
53 49 44
53 49 45
54 49 45
55 50 46
54 50 46
55 50 46
54 49 45
54 50 46
54 49 45
55 50 46
56 51 47
54 49 45
55 50 47
54 49 46
54 49 46
55 50 46
56 51 46
55 50 46
56 51 47
55 50 46
55 51 46
56 51 47
56 51 47
56 51 47
56 51 47
67 55 48
56 51 47
56 51 47
55 50 46
55 50 46
54 49 46
54 49 45
56 51 46
59 53 49
80 70 61
130 86 62
115 64 39
129 86 62
92 78 66
74 67 60
54 49 45
53 48 44
53 49 45
54 49 45
55 50 46
55 49 46
54 50 46
55 50 46
56 51 47
55 50 46
55 50 46
56 51 47
55 51 46
56 51 47
56 51 47
55 50 46
56 51 47
55 50 46
57 51 49
80 69 70
98 83 85
85 73 74
73 63 63
57 50 46
54 49 46
54 49 45
53 49 45
55 50 47
55 51 47
54 49 46
54 50 46
56 51 47
55 50 46
55 50 46
56 51 47
55 51 47
56 51 47
56 50 46
56 51 47
55 50 46
63 55 48
106 85 64
130 105 76
138 111 79
142 114 81
143 115 81
141 114 81
137 111 79
128 104 76
100 80 60
54 49 45
79 62 51
55 50 46
62 57 51
82 75 65
89 82 71
63 58 52
55 50 46
56 51 47
54 49 46
55 50 46
55 50 46
56 51 47
55 50 46
55 50 47
72 60 55
94 79 70
83 70 63
72 63 56
59 52 48
54 49 46
55 50 46
54 49 45
56 51 46
55 50 45
53 48 44
53 48 44
51 46 42
49 44 40
44 40 36
44 40 37
38 34 31
79 65 40
34 28 26
29 24 23
41 35 26
26 22 21
25 21 20
38 34 32
46 42 39
50 45 42
51 47 43
55 50 46
53 49 45
54 49 45
50 46 42
50 45 42
53 48 44
52 47 43
49 43 38
117 89 46
118 90 46
120 92 49
120 91 48
57 44 33
54 42 32
52 41 31
52 45 39
55 50 45
52 47 43
53 48 44
54 49 45
56 51 47
58 52 47
56 51 47
55 50 46
55 50 46
55 50 46
53 48 44
51 46 43
49 44 40
49 44 40
49 44 40
43 38 35
38 29 24
41 23 14
44 24 14
53 30 17
45 26 14
43 25 14
40 33 30
50 45 41
51 46 42
53 48 44
52 47 44
52 47 44
107 100 83
114 111 88
129 118 82
114 106 90
123 114 98
104 89 76
95 77 69
60 54 50
55 51 47
55 50 46
56 51 47
56 51 47
55 50 46
56 51 47
56 51 47
56 51 47
56 51 47
56 51 47
55 50 46
55 50 46
55 51 47
55 50 46
56 51 47
55 50 46
56 51 47
56 51 47
55 50 46
56 51 47
56 51 47
55 50 46
53 49 45
54 50 45
55 50 46
54 50 45
55 50 46
51 47 43
48 56 42
46 43 39
45 41 38
39 37 33
45 41 36
78 54 38
84 58 41
85 58 41
113 68 42
86 59 41
87 60 42
87 59 42
85 58 41
58 50 44
53 49 45
53 48 44
54 49 45
55 50 46
55 50 46
55 50 46
54 49 46
55 50 46
55 51 46
55 51 47
54 50 46
55 50 46
54 49 46
54 49 46
54 49 46
54 49 45
53 48 44
51 47 43
54 49 46
54 49 45
55 50 46
53 48 44
53 49 45
55 50 46
53 49 45
53 48 44
44 41 39
28 28 31
102 100 68
33 32 34
41 36 38
42 42 45
36 37 38
38 40 42
38 39 41
47 44 42
51 47 43
52 47 43
52 47 43
61 48 42
50 45 42
46 41 38
45 41 37
46 41 38
45 40 37
42 38 35
52 49 41
85 83 54
137 132 67
92 90 57
95 92 58
94 92 58
95 92 58
90 88 57
67 64 50
56 51 47
55 50 46
55 50 46
56 51 47
56 51 47
56 51 47
56 51 47
71 21 27
83 25 32
71 23 28
81 24 32
79 24 31
74 22 30
76 21 30
63 21 26
55 50 46
54 49 45
51 46 43
54 49 45
53 48 44
50 46 41
54 49 45
54 50 46
53 48 44
53 49 44
52 48 43
54 49 45
54 49 45
55 50 46
54 49 45
55 50 46
56 51 47
54 49 45
55 51 46
67 47 52
66 48 52
62 49 50
55 49 46
56 51 47
55 50 46
55 50 46
55 50 46
55 50 46
54 50 46
52 47 43
54 49 45
53 48 44
48 44 40
45 41 38
41 38 35
44 40 37
37 33 31
41 37 35
37 34 32
47 46 36
112 113 71
127 127 77
133 133 80
134 135 80
133 133 80
128 128 78
119 120 75
89 83 54
56 51 46
55 50 46
56 51 47
55 50 46
56 51 47
56 51 47
56 51 47
55 50 46
56 51 47
56 51 47
55 51 47
55 51 46
56 51 47
55 51 47
55 50 46
56 51 47
56 51 47
81 72 54
55 51 47
56 51 47
56 51 47
55 50 47
56 51 47
56 51 47
56 51 47
55 50 46
56 51 47
55 50 46
55 50 46
55 50 46
54 49 45
55 50 46
55 51 47
56 51 47
55 50 46
55 50 46
54 49 45
56 51 47
53 48 44
53 49 45
54 49 45
49 45 41
32 31 21
31 31 17
32 31 18
74 71 27
29 29 17
28 27 16
31 30 20
47 43 39
47 43 39
49 45 41
52 48 44
51 47 43
53 48 44
55 50 46
54 49 45
54 50 45
54 50 46
55 50 46
55 50 46
56 51 47
53 49 45
54 49 46
55 50 46
54 49 46
54 49 45
81 72 54
55 50 46
56 51 47
55 50 46
55 50 46
56 51 47
56 51 47
55 50 46
55 50 46
55 50 46
56 51 47
55 50 46
55 50 46
55 50 46
56 51 47
55 50 46
55 50 46
54 49 45
55 50 46
56 51 47
53 48 44
54 50 46
55 50 46
53 48 44
56 51 47
74 68 59
61 55 50
53 48 44
54 49 46
54 49 45
55 50 46
53 49 45
55 50 46
54 49 46
56 51 47
56 51 47
53 49 45
56 51 47
55 50 46
56 51 47
56 51 47
55 50 47
56 51 47
56 51 47
56 51 47
56 51 47
59 52 51
108 92 95
122 104 104
127 108 107
126 107 106
122 104 104
99 85 87
68 58 58
55 50 46
54 50 46
54 50 46
55 50 46
55 50 46
55 51 47
56 51 47
56 51 47
56 51 47
55 50 46
56 51 47
55 51 47
56 51 47
56 51 46
56 51 47
54 47 40
88 70 54
125 102 75
132 107 77
136 110 79
136 110 79
134 109 78
131 106 77
124 101 75
104 79 50
54 48 43
55 50 47
54 50 46
54 49 45
55 50 46
54 49 45
55 50 46
55 51 46
55 50 46
54 49 46
54 50 46
55 50 46
56 51 47
56 50 46
98 82 72
123 102 87
131 108 91
131 108 91
126 104 89
118 97 84
75 64 58
56 51 47
54 50 46
55 50 46
56 51 47
54 49 45
52 48 44
51 46 42
53 48 45
49 45 41
43 39 36
37 33 31
31 28 26
12 11 10
24 20 18
18 16 15
17 15 14
27 24 22
37 34 31
41 37 34
47 43 39
52 47 44
51 46 42
50 46 42
54 49 45
52 47 43
51 46 43
50 46 42
44 40 36
41 37 34
44 36 31
39 31 23
42 33 26
117 89 46
41 32 25
47 37 29
37 31 27
47 43 39
51 46 42
53 49 45
55 50 46
53 48 44
54 49 45
55 50 46
53 48 44
56 51 47
51 46 42
55 50 46
54 49 45
51 46 42
49 44 40
45 40 37
42 38 34
38 34 31
29 26 24
23 19 17
25 18 14
27 18 14
28 20 17
31 25 23
38 34 31
45 39 36
44 40 36
52 47 43
52 50 41
56 69 31
63 88 19
63 87 18
64 89 18
65 89 23
97 100 70
87 80 68
57 52 48
55 51 47
55 50 46
55 50 46
56 51 47
55 50 46
55 50 46
55 50 46
56 50 46
56 51 47
55 51 47
56 51 47
56 51 47
56 51 47
56 51 47
55 50 46
56 51 47
56 51 47
56 51 47
55 50 46
55 50 46
56 51 47
56 51 47
55 50 46
55 51 47
55 50 46
55 50 46
54 50 46
54 50 45
55 50 46
52 48 44
53 48 44
52 48 44
50 46 42
68 49 37
82 56 40
79 54 38
94 56 39
125 84 48
82 56 40
82 56 40
82 57 40
83 57 40
71 53 41
55 50 46
54 50 46
56 51 47
56 51 47
55 51 46
55 50 46
56 51 47
55 50 46
56 51 47
55 50 46
56 51 47
56 51 47
55 50 46
55 50 46
55 50 46
55 50 46
55 50 46
58 52 47
54 50 46
55 50 46
50 45 42
54 49 45
54 49 45
51 46 43
52 47 43
47 42 40
49 44 41
78 76 54
28 27 30
30 31 33
34 35 37
29 30 33
29 29 31
26 26 29
44 41 39
55 50 46
50 45 42
52 47 43
55 50 46
53 48 44
54 50 45
54 49 45
53 48 44
54 49 45
52 48 44
63 51 44
80 79 51
90 87 55
136 130 66
92 90 57
91 89 56
91 90 56
93 90 57
92 87 55
87 83 54
56 51 45
55 50 46
55 50 46
55 50 46
56 51 47
56 51 47
55 50 46
75 22 29
67 21 26
71 22 28
77 23 30
65 19 25
64 20 26
59 18 24
58 31 32
52 47 43
52 47 43
53 48 44
53 49 45
54 48 45
55 49 45
55 50 46
54 48 44
54 49 45
55 50 46
55 50 46
55 50 46
56 51 47
55 50 46
56 51 47
55 50 46
55 50 46
78 41 57
106 25 72
110 22 75
111 22 75
110 22 74
106 26 73
77 42 57
56 51 47
56 51 47
55 50 46
56 51 47
53 48 45
55 50 46
53 48 45
53 48 44
51 47 43
50 45 42
49 45 41
48 44 40
48 44 41
51 46 43
47 43 40
83 84 55
120 121 75
128 129 78
132 132 79
133 134 80
132 132 79
128 128 78
121 122 75
100 101 63
58 52 41
56 51 46
56 51 47
56 51 47
56 51 47
55 50 46
56 51 47
56 51 47
55 50 46
56 51 47
55 50 46
56 51 47
56 51 47
55 50 46
56 51 47
56 51 46
56 51 46
56 51 47
55 50 46
56 51 47
56 51 47
56 51 47
55 50 46
56 51 47
55 50 46
56 51 47
55 51 47
55 50 46
56 51 47
56 51 47
56 51 47
56 51 47
72 60 49
56 51 47
56 51 47
54 49 45
53 49 45
53 48 44
54 49 45
52 48 44
46 42 39
45 41 38
44 41 37
29 27 22
29 28 20
23 23 13
21 20 12
22 21 17
36 33 30
40 36 33
43 39 36
46 42 38
51 46 43
52 47 43
52 47 43
55 50 46
55 50 46
87 63 54
110 74 60
101 69 57
102 69 57
75 58 51
55 50 46
55 50 46
56 51 47
55 50 46
55 50 46
54 50 46
56 51 47
56 51 47
56 51 47
55 50 46
56 51 47
55 51 47
56 51 47
55 51 47
55 50 46
56 51 47
55 50 46
56 51 47
55 51 47
56 51 47
61 60 54
65 65 58
65 66 59
61 59 53
55 50 47
55 50 46
53 49 45
53 48 44
55 51 47
55 50 46
55 50 46
54 49 45
54 49 45
54 49 45
54 49 46
55 50 46
55 50 46
55 50 46
55 50 46
54 49 46
56 51 47
56 51 47
56 51 47
55 50 46
56 51 47
56 51 47
55 50 46
56 51 47
55 50 46
56 51 47
54 49 46
96 80 84
122 103 104
129 109 108
131 111 109
132 111 109
128 109 107
122 104 104
102 87 91
53 48 46
55 50 46
55 50 46
55 50 46
56 51 47
56 51 47
55 50 46
56 51 47
55 50 46
56 51 47
56 51 47
64 55 47
82 65 49
78 63 49
61 54 47
54 47 41
108 84 46
109 87 67
114 82 53
123 97 69
255 255 139
125 101 75
121 99 73
110 84 61
53 40 30
80 70 51
55 50 46
55 50 46
54 50 46
55 50 46
54 49 46
55 50 46
55 50 46
54 50 46
56 51 47
55 50 47
55 50 46
57 52 48
93 78 68
124 102 88
133 109 92
136 112 93
137 113 93
134 110 92
128 106 89
103 85 74
54 47 43
56 51 47
55 50 46
56 51 47
54 49 46
53 48 44
52 47 43
48 44 41
46 42 39
46 42 38
42 38 35
36 33 31
30 27 25
22 20 19
30 27 26
28 25 24
37 34 32
40 36 33
45 41 38
45 41 37
51 47 43
50 45 42
52 48 44
52 47 43
53 48 44
52 47 43
47 43 39
46 41 38
41 37 34
33 30 28
22 19 18
22 18 15
24 19 15
24 19 15
30 27 24
37 33 31
38 35 32
47 42 39
52 48 44
52 47 44
54 49 45
56 51 47
55 50 46
55 50 46
54 50 46
54 49 45
53 48 44
54 49 45
53 48 44
50 44 41
50 44 41
46 41 38
42 38 35
40 36 33
27 24 22
28 25 23
25 22 20
28 23 21
29 25 23
37 33 30
40 36 33
48 43 39
48 47 37
58 79 20
61 85 17
62 87 17
63 88 18
63 88 18
64 89 18
61 86 17
59 72 32
55 52 45
55 50 46
55 50 46
56 51 47
55 50 47
55 49 46
56 51 46
55 50 46
56 51 47
56 51 47
55 50 46
56 51 47
55 50 46
55 50 46
56 51 47
56 51 47
56 51 47
56 51 47
56 51 47
55 50 46
56 51 47
56 51 47
55 50 46
56 51 47
55 51 46
56 51 47
55 50 46
55 51 46
56 51 47
55 51 47
55 50 46
55 50 46
53 49 45
55 49 44
74 51 36
76 52 38
79 54 39
78 54 38
84 58 41
121 81 45
123 83 47
74 50 36
80 55 39
72 50 36
54 49 45
54 50 46
55 50 46
55 51 46
54 50 46
56 51 47
55 50 46
56 51 47
56 51 47
56 51 47
56 51 47
56 51 47
55 50 46
56 51 47
55 50 46
56 51 46
55 50 46
56 51 47
54 49 46
55 50 46
79 68 53
54 50 46
52 47 43
49 45 42
47 43 40
42 38 36
38 35 32
30 27 26
32 30 29
29 27 28
24 24 24
22 22 23
31 29 29
39 36 34
47 43 40
49 45 41
48 43 40
51 46 43
55 50 46
53 49 45
54 49 45
55 50 46
55 50 46
53 48 44
54 49 45
59 56 42
164 157 71
132 127 64
137 131 65
87 85 54
132 127 63
90 89 56
86 83 53
91 86 54
88 84 53
71 67 50
55 50 46
56 51 47
64 50 46
58 51 47
55 51 46
55 51 47
52 16 21
50 15 19
57 18 23
56 17 23
49 15 20
54 16 22
48 22 25
46 39 37
49 43 40
51 46 42
52 47 43
53 48 44
53 48 44
54 49 45
55 50 46
54 48 45
54 49 45
54 49 45
55 50 46
55 50 46
55 50 46
55 51 46
56 51 47
55 51 46
68 46 52
108 22 73
106 21 72
110 22 75
109 22 74
107 21 73
103 20 70
107 21 73
91 35 64
54 49 45
56 50 46
54 49 46
54 50 45
55 50 46
56 51 47
55 50 46
54 49 45
54 50 46
53 48 44
54 49 45
50 46 42
63 58 47
50 46 41
95 93 60
117 119 74
123 124 76
127 127 78
128 129 78
127 127 78
124 125 76
117 118 74
101 103 65
54 54 36
55 50 46
55 51 46
56 51 47
55 50 46
56 51 47
56 51 47
56 51 47
56 51 46
56 51 47
56 51 47
55 50 46
55 51 47
55 50 46
55 50 46
56 51 47
55 51 47
56 51 47
56 51 47
56 51 47
56 51 47
56 51 47
54 49 45
55 50 46
56 51 47
56 51 47
56 51 47
55 50 46
55 50 46
56 51 47
56 51 47
55 50 46
56 51 47
56 51 47
56 51 47
54 49 45
55 50 46
55 50 46
54 49 45
47 43 40
45 41 37
46 42 38
34 31 29
37 34 31
24 22 20
20 18 17
20 18 16
24 22 20
30 27 25
35 32 30
47 43 40
46 42 38
50 46 42
53 48 44
52 47 44
61 52 47
112 74 60
125 80 63
127 81 64
127 81 64
127 81 64
123 79 63
89 63 53
55 50 46
56 51 47
55 51 47
55 51 47
56 51 47
56 51 46
56 51 47
55 50 46
56 51 47
55 50 46
56 51 47
56 51 47
56 51 46
55 50 46
56 51 47
55 51 47
55 51 46
58 55 50
70 73 65
112 119 86
78 84 74
78 84 74
76 83 73
73 78 69
59 57 52
55 50 46
55 50 46
55 50 46
54 50 46
55 50 46
55 50 47
53 49 45
55 50 46
55 50 46
55 50 46
55 51 47
55 50 46
56 51 47
55 50 46
56 51 47
56 51 47
55 50 46
56 51 47
56 51 47
56 51 47
55 50 46
56 51 47
56 51 47
56 51 47
73 62 63
109 93 97
122 104 104
128 108 107
129 109 108
130 110 108
127 108 107
122 104 104
112 96 99
143 90 69
56 51 47
55 50 46
56 51 47
56 51 47
56 51 47
55 50 46
56 51 46
56 51 47
69 58 48
106 79 52
119 87 54
122 89 55
122 89 55
120 88 55
96 71 47
59 46 35
71 52 35
85 54 28
79 53 32
255 255 192
140 103 51
82 59 39
41 33 25
51 41 32
52 47 43
55 50 46
55 50 46
55 50 46
55 50 46
56 51 46
55 50 46
54 50 46
56 51 47
55 50 46
56 51 47
56 51 47
63 54 49
114 93 81
125 104 88
132 109 91
135 111 93
135 111 93
133 110 92
128 106 89
118 98 85
75 62 54
55 50 46
55 50 46
56 51 47
56 51 46
55 50 46
55 50 46
51 47 43
53 49 45
49 44 41
57 50 43
44 40 37
45 41 38
38 35 32
42 39 36
41 37 34
43 39 36
46 42 38
50 46 42
49 44 40
52 47 43
53 48 44
55 50 45
54 49 45
52 47 44
50 46 42
50 45 42
47 42 39
41 37 34
34 31 28
30 27 25
28 25 24
28 26 24
22 19 18
33 29 27
37 33 30
39 35 32
49 44 41
48 43 40
52 47 43
53 49 45
52 47 43
53 48 44
55 49 42
57 48 36
59 48 32
58 47 32
57 48 36
54 48 44
55 50 46
51 46 42
51 46 42
49 44 41
48 43 40
45 40 37
45 40 37
37 34 30
42 37 34
39 34 31
47 42 39
49 45 41
52 47 43
53 64 30
58 81 17
91 123 20
62 86 17
91 124 20
90 124 20
79 114 19
61 86 17
77 111 18
56 62 39
56 51 47
55 50 46
55 50 46
56 51 47
54 50 46
56 51 47
55 50 46
56 51 47
56 51 47
55 50 46
55 50 46
56 51 47
56 51 47
56 51 47
56 51 47
56 50 46
56 51 46
56 51 47
56 51 47
56 51 47
56 51 47
56 51 47
56 51 47
56 51 47
55 50 46
55 50 46
55 50 46
55 50 46
55 50 46
55 50 46
53 48 44
55 50 46
55 49 44
59 41 29
70 49 35
72 49 35
148 99 49
78 54 38
72 50 35
73 50 35
119 80 44
73 50 36
68 46 33
55 50 46
56 51 47
56 51 46
56 51 47
56 51 47
55 51 46
56 51 47
56 51 47
55 51 46
55 50 46
56 51 47
55 50 46
55 50 46
55 50 46
55 50 46
56 51 47
56 51 47
54 49 45
55 50 46
54 49 45
51 46 43
52 48 44
54 49 45
52 47 44
49 45 42
54 44 39
69 38 28
41 28 25
18 16 16
22 21 20
19 17 17
25 23 22
28 26 24
39 35 33
46 42 39
48 44 40
50 46 43
51 47 43
51 47 43
56 51 47
55 50 46
55 50 46
55 50 46
54 49 45
54 49 45
122 116 57
72 70 45
76 75 48
86 84 53
167 159 73
86 84 54
83 81 51
119 107 55
83 70 44
80 66 42
90 58 44
113 50 47
123 50 47
129 50 47
129 50 47
114 50 47
76 51 47
49 31 31
44 20 21
43 13 17
36 10 15
43 12 17
35 18 19
36 31 29
44 40 36
45 40 37
47 42 39
52 46 43
51 46 43
53 48 44
53 47 43
55 50 46
55 50 46
54 49 45
55 50 46
55 50 46
56 51 47
56 51 47
56 51 47
55 51 46
55 49 46
98 27 68
107 21 73
106 21 73
105 21 72
108 21 74
105 21 71
104 21 71
104 26 72
99 63 75
107 82 83
114 88 88
110 85 86
92 72 73
59 50 49
54 50 46
55 50 46
54 50 46
55 50 46
56 51 47
56 51 47
54 49 45
56 51 46
54 49 44
66 52 38
106 93 65
115 115 73
119 121 75
118 120 74
109 106 64
177 175 86
99 103 64
67 66 41
50 50 33
55 50 46
55 50 46
54 49 45
56 51 47
56 51 47
56 51 47
56 51 47
56 51 47
56 51 46
56 51 46
55 51 46
56 51 47
56 51 47
56 51 47
56 51 47
55 51 47
56 51 47
56 51 47
57 51 46
69 73 57
88 97 70
96 106 77
93 104 75
74 80 61
54 51 45
56 51 47
56 51 47
56 51 47
56 51 47
56 51 47
54 49 45
56 51 46
55 51 47
55 50 46
55 50 46
55 50 46
54 50 46
51 47 43
52 48 44
47 43 39
74 66 47
40 36 33
37 34 31
34 31 28
34 31 28
38 35 32
38 35 32
42 38 35
47 43 40
50 45 42
52 47 43
53 48 44
54 49 45
54 49 45
104 70 58
123 78 62
125 80 63
124 79 63
184 115 74
182 114 73
122 78 62
120 76 61
87 62 52
55 50 46
56 51 46
56 51 47
55 50 47
56 51 47
55 50 46
56 51 47
56 51 47
56 51 47
56 51 47
55 50 46
56 51 47
56 51 47
56 51 47
56 51 47
55 51 47
70 74 67
74 80 72
76 82 72
76 82 73
77 83 74
112 119 85
74 80 72
73 78 70
57 53 49
55 50 46
56 51 47
55 50 46
55 51 46
55 50 46
55 50 46
56 51 47
55 50 46
55 51 47
55 50 46
55 50 46
56 51 47
55 51 47
56 51 47
56 51 47
56 51 47
55 50 46
55 50 46
55 51 46
56 51 47
54 49 45
56 51 47
55 50 46
66 55 58
100 86 90
117 100 102
122 104 104
123 104 104
124 105 105
121 103 104
116 99 101
111 91 91
61 50 50
55 50 46
56 51 47
56 51 47
56 51 47
56 51 47
55 51 46
56 51 47
61 54 47
110 81 53
175 125 63
119 87 54
119 87 54
175 125 63
176 126 64
174 124 63
99 73 47
52 41 31
40 27 18
41 29 20
52 42 32
53 42 33
53 43 33
53 42 33
49 40 33
54 49 45
56 50 46
55 50 46
56 51 46
59 53 46
56 51 47
56 51 47
56 51 47
54 50 46
55 50 46
56 51 47
56 51 47
63 50 42
175 131 86
122 101 87
127 105 89
129 107 90
130 107 90
128 106 90
123 102 87
117 97 85
63 48 41
56 50 46
56 51 47
55 50 46
61 55 47
56 51 47
68 55 46
55 50 46
54 49 45
53 48 44
58 51 44
50 46 42
53 49 45
58 52 44
53 49 45
51 46 42
50 46 42
54 49 45
53 48 44
54 49 45
53 48 44
54 49 45
52 47 43
53 48 44
55 50 46
54 49 45
49 44 41
49 45 41
48 44 40
48 43 40
43 39 36
44 40 36
42 38 34
43 39 36
42 38 35
45 41 38
44 40 37
51 46 42
52 48 44
52 47 43
52 47 43
55 50 45
55 46 34
58 47 30
58 46 30
58 46 30
58 47 30
58 47 30
57 46 30
56 50 45
54 49 45
53 47 43
52 47 43
52 47 43
50 45 41
50 45 41
50 45 42
47 43 39
52 48 44
52 48 43
51 46 42
51 47 42
87 118 19
88 120 19
113 152 23
59 83 17
59 83 17
58 80 16
90 122 20
58 81 16
54 75 16
52 66 26
55 50 46
56 51 47
55 51 46
55 50 46
56 50 46
56 51 47
57 52 51
58 52 53
59 53 56
56 51 49
55 50 46
55 51 47
56 51 47
56 51 46
55 50 46
55 50 46
56 51 47
55 50 46
56 51 47
56 51 47
56 50 46
56 51 47
56 51 47
55 50 46
55 50 46
55 51 46
56 51 47
55 50 46
53 49 44
55 50 46
54 49 45
54 49 45
53 48 43
58 40 29
62 42 31
114 76 41
67 46 33
69 48 34
70 48 35
69 48 34
64 44 32
64 44 31
58 42 33
55 50 46
56 51 47
56 51 47
55 50 46
56 51 47
56 51 47
56 51 47
56 51 47
56 51 47
56 51 47
56 51 47
56 51 47
55 51 46
56 51 47
56 51 47
55 50 46
53 49 45
55 51 47
55 50 46
56 49 45
160 79 50
77 55 47
163 75 43
78 45 37
114 52 30
132 55 26
136 56 25
131 55 26
108 48 27
58 34 27
34 31 29
32 29 28
33 30 28
37 34 32
42 38 36
45 41 38
51 46 42
51 47 43
51 47 43
50 46 42
54 49 45
54 49 45
52 48 44
54 49 45
56 51 47
57 53 37
70 66 42
67 64 41
160 152 67
163 155 69
74 72 46
128 121 59
75 66 42
74 56 36
96 49 38
119 46 45
127 49 47
129 50 48
186 71 55
128 50 47
126 49 47
126 50 48
39 34 32
33 27 26
32 26 25
27 21 21
28 25 23
22 18 17
32 28 26
41 36 34
47 43 39
49 44 40
51 46 43
51 45 42
55 50 46
55 49 46
55 50 46
53 49 45
55 50 46
56 51 46
56 51 47
56 51 47
55 50 46
56 51 47
56 51 47
72 42 54
94 19 64
99 20 69
100 20 69
98 19 68
103 20 71
97 18 65
98 19 67
105 77 81
119 91 91
124 95 93
125 96 94
123 95 93
118 91 90
104 80 82
67 54 54
55 50 46
56 51 47
56 51 47
53 48 45
54 50 45
54 49 45
55 51 47
53 48 44
46 38 29
60 51 37
86 81 54
86 87 55
87 90 57
152 145 60
66 66 40
112 129 49
51 51 33
49 49 33
55 50 46
56 51 46
55 51 46
56 51 47
55 50 46
55 51 46
56 51 47
56 51 47
56 51 47
56 51 47
56 51 47
55 50 46
56 51 47
56 51 47
56 51 46
56 51 47
56 51 47
55 50 46
79 88 66
100 111 80
106 117 83
108 119 84
106 117 83
102 113 81
89 99 73
54 56 45
56 51 47
56 51 47
56 51 47
55 50 46
56 51 47
55 51 47
56 51 47
55 50 46
55 50 46
54 49 45
56 51 47
53 49 45
53 48 44
51 47 43
45 41 38
48 44 40
44 40 37
48 44 40
42 38 35
49 44 41
48 44 40
47 42 39
50 45 41
53 48 44
53 48 44
53 49 45
54 49 45
79 58 50
134 88 62
119 76 61
120 76 61
180 112 71
120 77 61
182 114 73
178 112 71
114 73 58
99 64 52
64 53 48
56 51 47
56 50 46
55 50 46
56 51 47
56 51 47
55 50 46
55 50 46
56 51 47
55 50 46
56 51 47
54 49 45
56 51 47
56 51 47
55 50 46
65 67 61
69 74 67
70 75 67
73 78 70
110 116 83
74 79 70
138 145 95
73 79 70
159 167 103
59 60 55
55 50 46
55 50 47
55 51 46
56 51 47
55 51 46
56 51 47
55 50 46
56 51 47
56 51 47
55 50 46
56 51 47
56 51 47
56 51 47
55 50 47
55 50 46
55 50 47
55 50 46
56 51 47
56 51 47
54 49 45
56 51 47
56 51 47
56 51 47
51 44 47
71 63 66
104 91 94
101 81 79
115 98 100
255 255 201
110 93 96
106 87 87
123 86 59
50 40 42
56 51 47
56 51 47
55 51 47
56 51 47
56 51 47
55 50 46
56 51 47
89 68 48
112 81 51
171 122 61
214 152 70
215 153 70
126 92 55
117 86 54
171 122 62
106 77 49
77 57 38
47 37 27
49 38 29
48 38 29
51 40 31
51 40 30
48 39 30
52 45 39
55 49 44
52 47 43
54 49 45
55 50 46
55 50 45
55 50 46
54 49 45
55 50 46
55 50 46
56 51 47
56 51 47
55 50 46
51 41 35
83 61 50
108 89 77
187 121 75
231 186 115
184 149 101
120 99 86
114 96 83
102 82 64
53 42 38
55 50 46
55 50 46
55 50 46
55 50 46
56 51 47
54 49 45
52 48 44
55 50 46
55 51 46
56 51 47
54 49 45
56 51 47
51 46 43
53 48 44
53 49 45
54 50 45
55 50 46
61 55 48
54 50 45
54 49 45
55 50 46
56 51 47
54 49 45
55 50 46
55 50 46
53 48 44
54 49 45
53 48 44
52 47 43
52 48 44
51 46 42
49 44 41
50 46 42
50 45 41
51 46 42
52 48 44
53 48 44
54 49 45
55 50 46
55 50 46
53 45 35
54 44 28
55 44 28
55 44 28
84 66 34
104 82 38
55 44 28
57 46 29
55 45 31
55 50 46
56 51 47
55 50 46
54 49 45
54 49 45
52 47 42
54 49 45
53 48 44
54 49 45
54 49 45
54 49 45
53 52 42
45 63 13
84 114 18
88 119 19
54 74 15
130 175 25
57 79 16
55 77 16
53 73 15
51 71 15
50 68 20
55 50 46
55 50 46
55 50 46
55 50 46
56 51 49
62 54 65
67 57 72
67 57 73
68 58 73
67 57 72
63 55 65
56 51 49
56 51 47
56 51 47
56 51 47
55 50 46
56 51 46
56 51 47
56 51 47
55 50 47
56 51 47
55 50 46
56 51 47
56 51 47
55 50 46
55 50 46
55 50 46
54 49 45
56 51 46
54 49 45
54 49 45
52 48 44
55 50 46
47 37 31
88 48 26
54 37 27
107 71 36
144 96 46
63 43 31
52 36 26
59 41 29
62 41 30
49 41 36
55 50 46
55 50 46
55 50 46
55 50 46
55 50 46
55 50 46
55 50 46
55 50 46
56 51 47
56 51 47
56 51 47
55 50 46
56 51 47
55 50 46
56 51 47
56 51 47
55 51 46
56 51 47
54 48 43
62 54 48
168 77 41
98 59 44
102 58 42
176 77 36
97 53 39
127 52 24
132 55 25
132 55 25
130 54 24
129 54 24
78 44 34
43 40 37
47 43 40
43 39 37
51 46 43
53 49 45
51 46 43
55 50 46
53 48 44
55 50 46
56 51 47
55 50 46
54 49 45
54 50 45
53 48 44
52 48 36
115 110 50
121 115 53
157 149 64
121 115 55
123 116 54
73 65 42
135 113 50
75 38 30
111 43 41
255 100 66
120 47 45
185 71 55
124 48 46
126 49 47
123 47 45
124 49 47
42 37 34
33 28 26
35 31 29
23 19 18
29 26 24
30 26 25
34 29 27
43 38 35
44 39 36
48 42 39
50 45 41
52 47 43
53 48 44
55 49 45
53 49 45
55 50 46
55 50 46
56 51 47
55 50 46
55 50 46
55 51 47
56 51 47
55 50 46
71 41 53
93 19 64
94 19 66
93 18 64
100 20 69
95 18 66
96 18 66
91 56 69
115 88 89
122 94 92
126 96 94
126 97 94
125 96 94
121 93 92
114 88 88
100 77 75
51 42 40
56 51 47
56 50 46
56 51 47
56 51 46
56 51 46
55 50 46
56 51 47
49 48 36
37 36 25
41 41 27
48 47 32
49 49 33
50 50 33
50 50 33
50 50 33
49 49 32
49 47 34
55 50 45
55 50 46
56 51 46
55 50 46
56 51 46
54 50 46
55 50 46
56 51 47
55 50 46
56 51 47
56 51 47
56 51 47
56 51 47
56 51 47
56 51 47
56 51 47
56 50 46
72 79 60
97 108 78
104 115 82
108 119 84
109 120 84
108 119 84
104 116 82
99 110 79
79 89 65
49 45 41
56 51 47
56 51 47
56 51 47
56 51 47
55 50 46
56 51 47
54 49 45
56 51 46
56 51 47
55 51 46
56 51 47
53 49 45
53 48 44
55 50 46
53 48 44
52 47 43
50 46 42
51 47 43
52 47 43
54 49 45
54 49 45
54 49 45
55 50 46
55 50 45
56 51 47
55 50 46
98 66 55
110 70 57
114 72 57
118 75 60
111 70 56
222 139 81
220 137 78
114 73 59
170 106 65
107 66 51
73 55 48
55 50 46
55 50 46
56 51 47
55 50 46
55 50 46
56 51 47
56 51 47
55 50 46
56 51 47
56 51 47
56 51 47
55 50 46
55 50 46
56 51 47
64 67 60
70 76 68
71 76 68
108 114 81
139 146 94
134 140 89
134 141 89
108 114 81
70 75 68
63 68 62
56 51 47
55 50 46
55 50 46
55 50 46
56 51 47
74 63 53
56 51 47
54 49 45
56 51 47
56 51 47
55 51 46
56 51 47
56 51 47
56 51 47
55 50 46
55 50 46
56 51 47
55 51 47
56 51 47
55 51 47
55 50 46
56 51 47
54 49 46
49 42 45
123 104 77
52 45 48
47 40 40
245 201 129
255 255 167
60 48 51
57 47 50
57 38 29
48 41 43
55 50 47
55 50 46
56 51 47
55 50 46
56 51 47
55 50 46
56 51 47
92 68 44
168 121 60
165 118 58
170 121 61
247 175 76
170 122 61
249 176 77
169 120 60
103 75 48
91 66 44
40 31 24
42 32 24
46 36 27
42 32 25
38 30 24
44 37 32
50 44 40
51 46 41
54 49 45
54 49 44
56 51 46
55 50 45
55 50 46
55 50 46
56 51 47
55 50 46
56 50 46
55 50 46
54 49 45
50 43 39
53 40 33
50 41 35
81 58 45
255 255 184
255 255 148
77 69 51
52 47 37
67 56 39
49 41 37
56 50 46
56 51 46
56 51 47
55 50 46
56 51 47
56 51 47
56 51 47
56 51 47
56 51 47
55 50 46
55 50 46
56 51 47
56 51 47
55 50 46
56 51 47
55 51 46
55 51 46
55 50 46
55 50 46
81 72 54
55 50 46
56 51 47
55 50 46
55 50 46
54 49 45
54 50 46
55 50 46
54 49 45
55 51 46
56 51 47
56 51 47
54 49 45
54 49 45
54 49 45
55 50 46
56 51 47
53 48 44
55 50 46
55 50 46
54 49 45
50 40 26
51 41 26
103 81 38
122 95 42
103 81 38
55 45 29
57 48 35
67 61 50
75 71 61
73 69 63
61 57 53
55 50 46
53 48 44
53 48 44
53 48 44
55 50 46
53 48 44
55 50 46
56 51 47
55 50 46
53 52 43
40 56 12
42 60 12
81 110 17
111 150 21
51 71 14
85 115 18
50 71 14
84 114 18
38 53 11
46 58 24
54 49 45
54 50 46
55 50 46
56 51 48
93 78 77
64 55 71
65 55 71
67 57 72
66 57 72
65 55 71
66 56 72
63 54 66
56 51 47
55 51 46
55 50 46
55 50 46
55 50 46
55 51 46
56 51 47
56 51 47
55 50 46
54 50 46
55 51 46
56 51 47
55 50 46
54 49 45
54 49 45
56 51 46
55 51 46
55 50 46
53 48 44
52 47 43
51 47 43
44 39 35
38 26 19
43 29 21
117 72 37
46 32 23
51 35 25
54 37 27
51 36 26
46 34 28
53 48 45
56 51 47
55 50 46
54 49 45
55 50 46
55 50 46
55 50 46
56 51 47
54 50 46
56 51 47
56 51 47
56 51 47
56 51 47
56 51 47
55 50 46
56 51 47
55 50 46
56 51 46
55 44 39
62 53 47
59 52 47
81 47 35
100 45 25
110 57 37
173 72 29
107 47 31
108 44 23
239 97 32
127 53 24
129 54 24
126 53 24
116 51 26
56 46 41
53 49 45
53 48 44
54 49 45
51 46 43
54 49 45
53 48 45
52 48 44
55 50 46
51 47 43
54 49 45
54 49 45
50 46 42
55 50 46
112 106 52
56 53 34
63 59 34
55 54 35
60 59 38
60 55 35
59 53 34
56 40 25
98 38 36
114 44 42
225 86 59
120 47 45
118 46 44
121 48 46
121 48 46
120 47 46
118 46 44
44 61 37
41 50 34
37 32 30
41 35 33
43 38 35
42 37 35
45 40 37
51 45 42
50 44 41
53 48 44
52 47 43
54 49 45
54 49 45
55 49 45
54 49 45
56 51 47
56 51 47
56 51 47
56 51 47
56 51 47
53 48 44
55 50 46
55 50 46
62 40 48
84 17 60
82 17 57
90 18 63
91 18 63
86 17 60
79 14 55
102 74 79
114 88 88
119 92 91
122 94 92
123 94 93
121 93 92
118 90 90
112 86 88
106 85 79
61 49 42
56 50 47
54 49 45
56 51 46
55 50 46
55 50 46
56 51 47
55 50 46
54 50 44
48 47 32
47 47 30
47 47 31
48 49 32
67 70 35
49 49 32
46 47 30
44 45 28
51 47 42
51 47 42
53 49 44
55 50 46
54 50 45
54 50 45
55 51 46
55 51 46
56 51 47
55 50 46
56 51 47
56 51 47
56 51 47
56 51 47
56 51 47
56 51 47
56 51 47
53 50 45
79 91 63
97 108 78
102 114 81
105 117 82
106 117 83
105 116 82
102 114 81
97 108 79
87 96 71
41 42 33
55 50 46
55 50 46
55 51 46
56 51 47
56 51 47
56 51 47
55 50 46
56 51 47
56 51 47
54 49 45
55 50 46
53 48 44
56 51 47
56 51 47
55 50 46
55 50 46
54 49 45
54 49 45
54 49 45
55 50 46
56 51 47
54 49 45
54 49 45
55 50 46
57 52 47
55 50 46
81 58 49
103 65 53
170 107 67
173 108 68
111 71 56
172 108 67
99 63 50
170 107 67
168 106 66
165 104 64
77 56 49
54 49 45
55 50 46
56 51 47
54 49 45
55 50 46
56 51 47
55 50 46
56 51 47
56 51 47
56 51 47
56 51 47
56 51 47
56 51 47
55 50 46
61 66 60
62 67 61
66 72 65
102 108 75
105 111 77
105 111 77
107 113 80
104 110 76
100 105 71
102 96 71
54 51 47
55 50 46
56 51 47
56 51 47
55 50 46
55 51 46
56 51 47
56 51 47
55 50 47
56 51 47
55 50 46
56 51 47
56 51 47
56 51 47
55 51 47
56 51 47
56 51 47
55 50 46
55 51 47
55 50 47
55 50 46
56 51 47
55 50 46
50 44 44
48 41 44
49 41 45
49 41 45
48 41 44
49 41 45
48 41 44
46 39 42
44 37 40
49 44 43
53 48 45
54 49 46
55 50 46
56 51 47
55 50 46
55 50 46
57 51 46
95 69 44
100 73 46
103 75 47
247 175 76
246 174 75
212 151 67
166 119 59
163 116 57
98 72 46
88 65 42
30 26 23
22 19 17
17 14 12
31 24 17
27 23 21
41 34 29
45 39 35
49 44 39
50 45 41
55 50 45
54 49 45
54 49 45
55 50 46
54 49 45
56 50 46
55 50 46
55 50 46
54 49 45
54 49 45
51 45 41
52 41 37
50 41 38
50 41 38
51 42 38
150 120 69
51 42 38
50 41 38
50 41 38
50 43 40
58 50 47
56 51 47
55 50 46
55 50 46
54 49 45
55 50 46
56 51 47
55 50 46
55 50 46
56 51 47
56 51 47
61 55 48
56 51 47
55 50 46
56 51 47
56 51 47
56 51 47
56 51 47
55 50 46
56 51 47
55 50 46
56 57 48
58 69 52
59 67 52
57 59 49
56 51 47
55 50 46
55 50 46
55 51 46
54 49 45
54 49 45
55 50 46
55 50 46
56 51 46
52 48 43
55 50 46
56 51 47
55 50 46
56 51 47
53 46 40
76 61 30
79 62 31
80 63 32
81 63 32
129 97 42
85 77 56
109 108 99
120 118 107
123 121 109
121 119 108
110 109 100
75 72 66
54 49 46
56 51 46
55 50 46
55 50 46
54 50 46
53 49 44
53 48 44
52 47 43
53 49 44
76 101 18
40 56 12
41 57 12
87 127 17
46 64 13
82 111 17
41 57 12
42 59 13
39 54 11
45 45 34
56 51 47
55 50 46
55 51 46
57 49 59
61 52 66
95 79 81
64 55 70
65 55 70
65 55 70
66 56 72
62 53 68
63 53 69
57 50 54
56 51 47
56 51 47
56 51 47
56 51 47
55 50 46
56 51 47
56 51 47
56 51 47
56 51 47
55 50 46
55 50 46
55 50 46
56 51 47
55 50 46
54 49 45
53 48 44
53 48 44
48 44 40
47 42 39
47 43 39
41 37 34
39 32 28
28 19 15
40 27 20
103 68 33
40 27 20
40 26 19
38 28 22
47 42 39
53 48 44
51 47 43
52 47 43
54 50 46
55 50 46
55 50 46
55 51 47
54 50 46
55 50 46
56 51 47
56 51 47
56 51 46
56 51 47
55 50 46
56 51 47
55 50 46
55 50 46
55 50 45
54 45 40
58 49 45
62 52 47
92 43 26
165 67 22
94 43 24
99 45 24
97 41 26
155 42 26
189 77 28
189 77 28
122 51 23
127 52 23
122 51 23
75 48 40
55 50 46
53 48 45
55 50 46
54 50 45
54 49 45
53 48 44
54 50 46
52 48 44
51 46 42
53 49 45
53 48 44
52 47 44
46 42 38
49 45 41
41 37 29
42 40 26
109 103 43
44 42 27
44 42 27
45 41 25
45 29 20
104 40 39
172 66 49
219 84 56
178 68 51
114 46 43
180 70 53
113 45 43
116 45 44
107 42 40
33 103 30
33 103 30
34 92 30
47 65 39
47 41 38
50 44 40
52 47 43
53 47 43
54 49 45
52 47 43
56 51 47
55 49 45
54 49 45
55 50 46
55 51 46
56 51 47
56 51 47
55 50 46
56 51 47
55 50 46
55 50 46
56 50 46
56 51 47
57 50 47
79 17 55
80 16 56
82 16 57
79 16 55
71 14 50
68 16 48
80 64 63
109 84 86
113 87 88
115 89 89
116 89 90
114 88 88
110 84 85
104 82 84
80 64 64
42 34 30
55 50 46
55 50 46
54 49 45
55 50 46
54 50 46
53 49 45
52 49 43
54 50 44
47 44 37
44 44 30
41 42 27
43 44 27
41 43 26
38 39 24
38 39 25
39 37 30
44 41 36
50 46 41
52 48 43
51 47 43
54 50 44
54 50 45
54 50 45
56 51 47
56 51 47
56 51 47
56 51 47
56 51 47
56 51 47
56 51 46
55 50 46
55 51 46
56 51 47
50 47 42
63 70 47
92 103 76
97 108 78
99 111 80
99 110 79
99 109 78
97 108 78
92 102 75
80 86 63
42 46 35
55 50 46
56 51 47
56 51 47
55 50 46
55 50 46
56 51 47
55 51 46
64 53 45
79 59 43
90 63 41
98 66 39
108 70 36
109 71 35
111 72 35
110 71 34
112 72 35
109 71 35
106 69 36
108 70 35
91 63 39
82 60 42
71 55 43
65 53 45
56 51 47
56 51 47
55 51 46
68 51 44
91 58 47
90 57 47
164 102 61
160 99 58
93 60 48
91 58 47
162 101 60
253 157 84
159 100 60
66 50 44
54 49 45
54 49 45
56 51 47
56 51 47
56 51 47
55 50 46
55 51 46
56 51 47
55 50 46
54 49 45
55 50 46
55 50 46
56 51 47
56 51 47
52 55 50
51 56 51
54 58 52
159 169 99
60 65 57
129 136 84
100 106 72
101 106 72
98 104 70
99 104 71
53 49 45
55 50 46
56 51 47
55 50 46
55 50 46
56 51 47
57 52 47
54 50 46
56 51 47
55 50 46
56 51 47
56 51 47
56 50 46
55 50 46
56 51 47
55 50 47
56 51 47
55 50 46
55 50 47
55 50 46
55 50 46
54 49 45
55 49 46
52 47 44
65 53 50
45 38 42
47 40 44
47 39 43
47 39 43
46 39 43
44 37 41
44 37 40
51 46 43
52 47 44
53 47 44
52 47 43
53 48 45
54 49 46
55 49 45
55 50 46
140 95 50
94 68 43
160 114 55
211 148 67
243 172 72
161 115 56
163 116 57
163 117 57
92 66 42
200 142 62
47 39 33
40 33 26
34 30 27
68 54 35
69 56 36
72 59 41
49 44 40
50 45 41
77 64 46
54 48 44
55 49 45
55 50 46
55 50 45
55 50 46
55 50 46
56 51 47
56 51 47
53 47 44
53 48 44
53 48 44
45 37 35
47 38 35
50 41 37
48 39 36
49 40 37
50 41 37
50 41 37
48 39 36
50 46 42
53 48 44
55 50 45
54 49 45
55 50 46
54 49 45
55 50 46
56 51 47
56 51 47
55 50 46
56 51 47
56 51 47
55 51 47
55 50 46
56 51 47
56 51 47
56 51 46
55 50 46
55 50 46
56 51 47
57 63 50
64 95 61
66 103 64
67 105 65
68 105 65
67 103 64
60 79 55
56 51 47
56 51 47
56 51 47
56 51 47
56 51 47
54 49 45
56 51 47
56 51 46
56 51 47
56 51 46
56 51 47
55 50 46
55 50 46
48 42 35
88 64 28
42 34 22
118 91 39
112 84 37
92 82 62
111 110 101
122 120 108
127 125 111
129 127 112
128 126 111
123 122 109
113 113 103
77 77 70
54 49 45
55 51 46
54 49 45
54 49 45
56 51 47
52 48 43
53 48 44
51 47 42
43 44 33
26 37 8
76 103 15
36 50 10
78 106 16
39 53 11
34 47 10
36 51 11
26 33 15
51 48 42
53 49 44
55 50 46
54 49 46
90 75 74
93 77 79
94 78 80
59 50 65
95 79 81
61 52 67
65 55 70
60 51 66
61 52 67
58 50 62
55 50 47
56 51 47
56 51 47
56 51 47
55 51 47
56 51 47
56 51 47
55 50 46
56 51 47
55 51 46
55 50 46
56 51 47
55 50 46
55 50 46
56 51 47
53 49 45
53 48 44
49 45 41
45 40 37
45 40 37
41 37 34
33 29 27
26 23 22
21 17 15
18 13 10
25 20 16
35 31 29
36 32 30
41 37 34
46 42 39
51 46 43
55 50 46
55 50 46
54 50 46
55 50 46
55 50 46
55 50 46
56 51 47
60 56 49
55 50 46
55 50 46
56 51 47
56 51 47
56 51 47
55 50 45
55 50 46
59 47 42
52 44 40
57 49 45
59 52 47
171 71 28
174 76 36
94 45 28
170 71 28
103 40 18
84 37 27
164 64 24
178 73 26
118 49 23
180 74 26
115 48 22
79 48 38
55 50 46
56 51 47
55 50 46
54 49 45
55 50 46
55 49 45
52 48 44
53 49 44
52 48 44
54 50 45
51 46 42
48 44 41
46 42 39
41 37 34
36 33 30
32 31 24
137 126 50
109 104 44
35 34 22
35 33 23
42 28 24
79 30 30
97 38 37
217 83 55
95 38 36
173 67 49
107 43 41
108 43 42
107 42 41
96 38 37
33 102 30
33 102 30
31 99 29
30 95 28
41 73 35
54 49 45
54 49 45
54 49 45
54 49 45
55 50 46
56 51 47
55 50 46
56 51 47
56 51 47
56 51 46
56 51 47
55 50 46
55 50 46
55 50 46
56 51 47
54 49 46
55 50 46
56 51 47
55 49 46
61 37 46
63 13 45
62 12 43
66 13 45
71 14 49
56 14 40
38 31 31
69 50 50
102 79 81
106 81 84
101 79 81
73 52 50
193 142 89
58 45 47
44 34 37
38 30 31
55 50 46
54 49 45
56 50 46
54 49 45
52 47 43
52 47 43
52 48 43
50 47 41
45 41 36
46 43 37
33 32 25
25 25 17
25 25 18
27 26 20
31 29 25
36 34 29
43 40 35
49 45 40
51 47 42
51 47 42
53 49 44
53 49 44
56 50 46
55 51 46
56 51 47
56 51 47
56 51 47
56 51 47
55 50 46
55 50 46
56 51 47
56 51 47
56 51 47
53 49 44
39 42 33
66 74 54
86 97 72
85 96 70
85 92 67
200 213 92
255 255 197
63 73 56
44 45 34
40 44 34
55 50 46
55 51 46
55 50 46
55 51 47
66 54 45
87 62 42
104 68 37
112 72 35
112 72 35
113 73 35
111 72 35
112 72 35
113 73 35
112 72 35
112 72 35
112 72 35
112 72 35
111 72 35
112 72 35
112 72 35
112 72 35
111 71 34
111 72 35
101 67 38
86 61 41
63 52 45
59 49 44
83 54 44
76 48 39
88 56 45
78 50 41
72 47 38
85 53 42
79 50 41
155 96 55
152 95 54
52 47 43
55 50 46
54 49 45
54 49 45
55 50 46
54 49 45
56 51 47
55 50 46
56 51 47
55 50 46
54 50 46
55 50 46
56 51 47
54 49 45
55 50 46
52 53 49
53 58 53
57 61 56
128 135 83
50 55 50
96 101 66
130 136 80
100 105 68
47 51 47
50 53 49
54 49 45
53 48 45
55 50 46
55 51 47
54 49 45
55 50 46
54 50 46
55 50 46
56 51 47
56 51 47
55 50 46
55 50 47
56 51 47
56 51 47
55 50 46
57 52 47
56 51 47
55 50 46
55 50 46
54 49 46
55 50 46
52 47 44
51 46 43
52 46 44
45 40 39
58 46 43
36 30 34
36 30 34
58 46 44
59 47 44
37 31 34
44 39 38
46 41 40
48 44 41
52 47 44
54 48 46
55 50 46
54 48 45
54 49 46
56 51 46
66 51 36
148 105 48
153 109 51
201 143 61
75 54 35
155 109 51
200 141 61
239 169 70
91 67 43
62 48 36
46 40 35
48 43 39
46 41 37
48 43 39
52 44 39
49 44 39
55 49 44
52 46 42
55 49 44
79 67 50
55 50 46
79 67 50
55 50 46
56 50 46
56 51 47
55 50 46
55 50 45
53 47 44
51 45 42
46 41 38
70 58 43
37 30 28
40 32 29
64 49 36
42 34 32
41 33 31
39 32 30
42 36 34
50 45 41
50 44 41
55 50 46
54 49 45
55 50 46
55 50 46
55 50 46
56 51 47
56 51 47
56 51 47
55 50 46
56 51 47
55 50 46
56 51 47
55 50 46
56 51 47
55 50 46
55 51 47
56 51 47
57 59 48
63 97 61
66 102 64
67 104 64
121 183 85
66 103 64
67 104 65
65 102 63
59 80 55
56 51 47
56 51 47
59 52 46
55 50 46
54 49 45
55 50 46
53 49 45
55 50 46
55 50 46
54 49 45
54 49 45
54 49 45
48 43 38
72 57 26
41 33 21
78 63 28
117 92 40
89 89 83
115 114 105
122 120 108
126 124 111
128 126 112
127 125 111
124 123 110
117 116 106
95 99 87
53 50 44
55 50 46
54 49 45
54 50 45
55 50 46
52 47 43
51 46 42
51 47 43
44 41 37
29 32 19
74 99 14
32 45 9
31 44 9
43 56 11
73 99 13
31 40 16
45 43 37
54 50 45
50 46 42
51 47 43
52 47 48
104 80 73
114 94 85
115 95 87
58 49 64
128 101 89
116 96 89
60 52 66
59 50 64
59 50 65
54 46 59
55 50 46
55 50 47
56 51 47
55 50 46
56 51 47
55 50 46
55 51 47
56 51 47
56 51 46
55 50 46
55 50 46
56 51 47
56 51 47
54 49 46
55 50 46
54 49 45
50 45 41
53 48 44
62 52 44
47 43 39
43 39 36
36 32 30
30 28 25
25 22 21
22 20 18
26 24 22
34 31 29
32 28 26
44 39 36
48 44 40
50 45 42
52 47 43
55 50 46
54 49 45
54 49 45
55 50 46
54 49 45
56 51 47
55 50 46
56 51 47
55 50 46
55 51 46
55 50 46
54 49 45
56 50 46
55 50 46
78 50 41
55 47 43
59 49 46
58 50 46
77 39 27
167 74 37
100 42 19
173 73 32
168 72 33
86 26 11
175 71 24
110 46 21
100 43 19
107 45 21
107 45 21
68 46 39
55 50 46
55 50 46
54 49 45
55 50 46
55 50 46
55 50 46
54 49 45
53 48 44
66 61 47
53 47 43
50 45 41
44 40 36
45 41 37
37 34 31
30 27 24
28 26 24
25 23 21
25 23 20
27 25 22
32 29 26
50 51 40
84 86 66
90 102 78
95 110 84
95 106 81
88 72 58
87 44 39
96 38 36
94 37 36
89 35 35
31 97 28
32 100 29
30 95 28
29 91 27
29 91 27
51 64 43
55 50 45
54 49 45
55 50 46
54 49 45
56 51 46
55 51 46
56 51 47
55 51 46
55 50 46
54 49 45
56 51 47
56 50 46
56 50 46
55 50 46
56 51 47
54 48 45
55 50 46
53 48 44
54 48 45
56 26 42
53 10 38
59 11 42
59 11 41
46 9 32
42 32 35
44 34 36
45 34 37
45 34 35
47 37 38
42 33 36
46 35 38
47 36 39
45 34 37
42 33 35
55 50 46
53 48 44
53 48 43
53 48 43
54 49 45
51 47 42
51 47 42
51 46 41
45 42 37
37 34 29
30 28 24
24 23 19
26 26 20
60 58 30
33 31 26
42 39 34
42 39 33
51 47 42
52 48 42
51 47 42
53 49 43
55 51 46
56 51 47
56 51 46
55 50 46
56 51 47
55 50 46
55 50 46
56 51 47
55 50 46
56 51 47
56 51 47
55 51 46
55 50 46
38 42 33
39 44 33
43 47 37
62 67 50
49 50 39
34 41 27
34 38 30
38 43 33
40 44 34
42 44 35
55 50 46
55 51 46
82 60 42
101 67 37
112 72 35
112 72 35
113 72 35
111 71 35
112 72 35
113 73 35
112 72 35
113 73 35
112 72 35
112 72 35
112 72 35
113 73 35
113 72 35
111 72 35
112 72 35
111 71 35
111 71 35
111 72 35
110 71 34
110 71 34
109 70 34
109 70 35
104 68 36
78 52 37
62 39 32
69 44 37
60 37 31
65 38 30
69 43 36
152 95 54
148 92 51
57 41 36
47 42 39
55 49 45
52 47 43
54 49 45
55 49 45
55 50 46
54 49 45
55 50 46
56 51 47
56 51 47
55 50 46
54 50 46
54 49 45
55 50 46
53 49 45
52 49 46
40 44 41
93 98 63
92 97 62
51 55 50
93 98 63
45 48 43
94 99 63
40 44 40
50 47 43
49 45 41
51 46 43
54 49 45
53 49 45
55 50 46
54 49 45
57 52 47
53 48 45
55 51 47
55 50 46
55 50 46
55 50 46
56 51 47
55 50 46
56 51 47
56 51 47
56 51 46
56 51 47
54 49 45
54 49 46
55 50 46
53 48 45
51 46 43
46 41 40
41 37 36
34 30 31
25 21 23
18 15 17
47 36 29
24 21 22
31 27 27
41 37 35
71 60 48
48 42 41
53 48 44
52 47 43
51 46 43
53 48 45
51 46 42
51 46 42
55 45 39
62 45 29
68 50 32
233 165 66
255 190 75
148 105 48
147 104 47
198 140 59
66 48 32
50 43 38
51 46 42
52 46 42
51 45 41
51 45 41
53 48 43
56 50 46
54 49 44
56 50 46
55 50 46
55 50 46
56 51 47
55 50 46
56 51 47
54 49 45
55 50 46
54 49 45
55 50 46
54 49 45
48 43 40
71 60 45
36 31 29
31 27 25
22 18 17
21 17 16
21 17 16
22 19 18
29 25 24
44 39 36
47 42 39
49 44 40
52 47 44
55 50 46
54 49 45
54 49 46
56 50 46
55 50 46
56 51 47
55 50 46
56 51 47
56 51 47
55 50 46
55 50 46
56 51 47
56 51 47
56 51 47
55 50 46
55 51 46
63 96 61
96 146 73
118 179 81
63 98 61
96 146 74
96 146 73
120 181 84
64 100 63
62 96 61
57 69 51
54 50 46
55 50 46
56 51 47
54 50 46
54 50 46
53 48 44
54 50 45
55 50 46
54 49 45
50 46 42
53 48 44
52 47 43
58 26 20
72 55 25
38 30 20
114 90 43
90 88 83
112 112 103
117 116 106
122 121 108
123 122 109
123 121 109
120 118 107
114 113 104
93 93 88
48 48 39
54 49 45
54 49 45
52 48 44
52 48 44
47 44 39
46 43 37
36 34 30
36 33 29
28 26 23
22 25 15
23 29 12
20 27 6
18 24 8
23 26 15
36 34 29
39 35 32
43 39 36
47 44 39
48 45 40
50 45 45
48 41 53
87 73 69
88 73 72
88 73 71
89 74 73
133 111 95
88 73 72
88 73 71
53 45 57
50 43 54
56 51 47
55 50 46
55 50 46
55 51 47
56 51 47
55 50 46
56 51 46
55 51 46
56 51 47
56 51 47
55 50 46
56 51 47
55 50 46
55 51 46
56 51 46
55 50 46
56 51 47
54 49 45
49 47 41
77 73 62
71 66 55
47 45 39
40 37 34
41 37 34
42 38 35
41 37 34
37 33 30
45 41 37
49 44 40
53 48 44
47 43 39
51 46 43
54 49 45
53 48 44
56 51 47
52 48 44
55 50 46
56 51 47
56 51 47
55 50 45
55 50 46
55 51 46
56 51 47
55 50 46
55 50 46
56 51 46
58 44 38
73 66 59
51 46 42
55 47 44
77 37 24
167 69 25
165 69 26
218 89 28
94 39 21
76 20 9
86 36 16
173 70 24
91 39 18
97 41 19
93 39 18
61 48 42
55 50 46
55 50 46
56 51 47
55 50 46
56 51 47
56 51 47
54 49 45
54 50 45
55 50 46
54 50 45
49 45 41
50 46 42
45 41 37
43 39 36
35 32 29
27 25 22
21 20 18
22 20 19
14 12 10
47 57 45
94 111 85
101 119 90
106 124 92
108 126 93
106 125 93
102 120 90
92 100 78
81 38 35
82 32 31
66 27 25
30 93 27
30 92 27
29 90 27
29 90 27
29 89 26
41 63 35
55 50 46
54 49 45
54 49 45
55 50 46
55 49 45
56 51 47
56 50 46
55 50 46
56 51 47
56 51 47
55 50 46
56 51 47
55 50 46
55 50 46
55 50 46
54 47 45
53 48 44
48 43 40
49 44 41
48 43 40
44 35 36
40 15 30
43 8 30
35 7 26
37 22 29
45 34 38
46 35 38
47 36 39
46 35 38
46 35 38
46 35 38
62 43 42
43 32 35
45 39 37
52 46 43
52 47 43
52 47 43
52 47 44
53 48 44
52 47 43
52 48 43
49 45 40
50 46 42
48 44 40
41 38 33
42 39 34
39 36 31
43 40 34
48 45 39
52 48 43
49 45 40
54 49 45
54 50 44
54 50 45
55 50 46
56 51 46
55 51 46
55 50 46
55 51 46
56 51 47
55 50 46
55 50 46
56 51 47
56 51 47
56 51 47
55 50 46
56 51 47
55 50 46
44 44 37
40 44 34
39 44 34
39 44 34
39 44 34
40 44 34
40 44 34
39 44 34
38 42 33
50 46 40
82 59 40
104 68 36
111 72 35
112 72 35
111 72 35
111 72 35
112 72 35
111 72 35
113 72 35
113 72 35
112 72 35
112 72 35
111 72 35
112 72 35
112 72 35
112 72 35
112 72 35
113 72 35
111 72 35
111 72 35
111 72 35
110 71 34
112 72 35
110 71 34
110 71 34
111 71 34
109 70 34
110 71 34
105 68 34
90 58 33
54 35 30
53 34 28
50 31 27
50 31 27
38 28 24
44 39 36
46 41 37
49 44 40
53 47 44
52 47 43
53 48 44
80 71 53
56 51 47
55 50 46
55 50 46
55 50 46
54 50 46
56 51 47
53 48 44
51 47 43
51 47 43
47 43 40
47 43 40
40 43 40
28 31 29
36 39 36
37 41 37
37 40 37
32 34 32
27 26 25
46 42 39
49 45 41
49 45 41
51 47 43
54 49 45
54 49 45
55 50 46
55 51 46
56 51 47
56 51 47
56 51 47
55 50 46
56 51 46
56 51 47
55 50 46
55 50 47
56 51 47
55 50 46
55 50 46
56 51 47
54 49 46
54 49 46
55 50 46
53 48 45
49 44 42
47 43 41
67 57 46
65 54 43
32 29 29
36 32 31
35 31 30
63 53 42
44 39 38
50 45 42
51 46 43
50 45 42
55 50 46
52 47 43
53 48 44
53 48 44
48 43 39
44 40 36
50 40 31
140 100 43
140 99 42
57 40 26
49 35 24
193 137 56
50 37 25
45 38 31
47 42 39
45 40 37
53 48 44
53 47 43
56 51 46
55 50 46
55 49 45
56 50 46
56 51 46
56 51 47
56 51 47
56 50 46
56 51 47
56 51 47
56 51 46
81 72 54
55 49 45
54 48 45
51 46 42
73 62 47
48 43 39
46 41 38
38 34 31
34 29 28
35 31 29
30 27 25
34 29 28
43 39 36
47 42 39
50 45 41
53 48 44
53 48 44
54 49 45
55 50 46
54 49 45
55 50 46
55 51 46
56 51 47
56 51 47
55 51 46
56 51 47
56 51 46
56 51 47
56 51 47
56 51 47
55 50 46
55 50 46
54 56 47
55 85 54
116 175 78
92 140 69
60 93 58
94 143 71
119 179 82
67 95 59
93 141 70
61 95 60
54 73 50
55 50 46
56 51 47
55 50 46
56 51 47
55 50 46
56 51 47
54 49 45
56 51 47
98 87 58
51 47 43
50 45 41
48 43 40
42 38 34
23 19 12
67 52 23
68 57 34
51 56 49
90 94 82
107 105 96
174 168 123
115 114 105
114 113 104
112 111 103
103 105 95
68 66 67
44 43 38
54 49 45
54 49 45
54 49 45
52 48 44
52 48 43
49 46 41
44 40 37
41 37 34
33 31 27
28 26 23
19 18 16
18 17 16
14 14 11
20 19 16
34 32 29
38 35 31
42 39 35
46 42 39
48 44 41
49 45 44
72 63 60
109 90 77
44 37 48
85 71 67
46 39 51
45 40 51
111 92 81
48 42 54
41 35 46
47 42 45
54 49 45
56 51 47
54 49 45
61 51 47
56 51 47
56 51 47
56 51 47
56 51 47
55 51 47
55 50 46
55 50 46
54 49 45
54 50 45
55 50 46
56 51 47
55 50 46
60 56 50
94 123 77
127 121 98
134 127 101
134 127 101
123 117 95
92 87 72
52 46 42
50 45 41
48 43 39
52 47 43
51 46 42
53 48 44
53 48 44
52 47 43
53 48 44
54 49 45
55 50 46
56 51 47
54 49 45
55 50 46
56 51 47
56 51 47
55 50 46
56 51 46
54 49 45
54 48 44
56 51 47
53 48 44
55 49 45
54 49 45
102 85 74
64 55 50
33 30 29
67 38 30
87 37 19
70 30 16
164 67 24
86 30 14
78 21 9
77 32 15
199 79 23
78 32 15
72 30 14
69 43 34
53 48 44
53 49 45
54 49 45
53 48 44
55 51 47
54 49 45
55 50 46
56 51 47
55 50 46
51 46 42
54 49 45
54 50 45
52 48 44
63 58 44
46 42 38
41 37 34
45 41 37
40 36 33
34 30 27
39 43 36
88 104 81
98 116 88
105 123 92
108 127 94
109 128 94
109 127 94
106 124 92
100 118 89
80 88 68
69 28 27
53 32 31
29 91 27
29 92 27
27 83 25
28 89 26
23 74 22
35 74 30
55 50 46
56 51 47
55 50 46
54 50 45
55 50 46
56 51 47
56 51 47
56 51 47
55 50 46
56 51 47
55 50 46
56 51 47
54 49 46
55 50 46
53 48 45
53 48 45
51 45 42
52 47 44
47 42 39
40 35 34
40 36 34
31 27 26
19 16 16
19 17 16
18 14 15
31 23 26
40 30 34
44 33 36
45 34 37
44 33 36
41 31 34
38 29 32
38 31 32
44 39 36
49 44 41
52 47 43
51 45 42
52 47 43
53 48 44
53 48 45
53 48 43
52 48 43
52 47 43
51 47 42
51 47 41
51 47 42
53 49 43
51 47 42
53 49 43
55 50 45
53 49 44
52 49 43
53 49 44
56 51 47
55 51 46
55 50 46
54 50 45
56 51 46
55 51 47
56 51 47
56 51 47
56 51 47
54 50 45
56 51 47
55 51 46
55 50 46
53 49 44
55 51 46
52 48 44
39 41 33
35 40 30
37 42 32
38 42 32
39 43 33
35 40 30
34 39 29
62 47 29
99 66 36
111 72 35
111 72 35
111 72 35
111 72 35
112 72 35
112 72 35
113 73 35
112 72 35
112 72 35
112 72 35
112 72 35
113 72 35
112 72 35
112 72 35
112 72 35
112 72 35
112 72 35
113 72 35
112 72 35
112 72 35
111 72 35
112 72 35
113 72 35
110 71 34
111 72 35
111 72 35
111 71 34
110 71 34
108 70 34
108 70 34
100 65 32
66 42 26
30 21 18
21 17 16
32 28 26
35 31 28
67 49 38
50 45 41
50 45 41
49 45 41
53 48 44
55 50 46
55 50 46
55 50 46
55 50 46
55 50 46
55 51 47
53 48 44
51 46 43
51 46 43
54 49 45
44 41 37
39 36 33
31 29 27
27 28 27
18 20 20
22 24 23
19 20 19
24 23 22
36 33 31
35 32 30
46 42 39
48 44 41
53 48 44
51 47 43
80 71 53
55 51 46
54 49 45
54 50 46
55 50 46
56 51 47
56 51 47
56 51 47
55 50 46
55 50 46
56 51 47
56 51 47
56 51 47
56 51 47
56 51 47
53 49 45
55 50 46
55 50 46
54 49 46
53 48 45
49 44 42
49 44 42
50 45 43
69 59 48
45 40 38
49 44 41
51 46 43
51 46 44
54 49 46
54 49 45
53 48 45
54 49 45
54 49 45
54 48 45
49 44 40
45 41 37
43 39 36
39 35 32
38 33 29
40 29 20
40 29 19
38 28 19
98 86 32
33 28 24
35 31 27
41 37 33
47 42 38
50 45 41
52 47 43
52 47 43
55 50 45
55 50 46
54 49 45
79 66 49
80 72 54
56 51 47
55 50 46
56 51 47
55 50 46
55 50 46
55 50 46
56 51 47
54 49 46
54 49 45
53 48 44
53 48 44
74 63 49
73 62 47
49 43 40
46 41 38
74 62 48
46 42 38
49 44 40
50 46 42
52 47 43
53 48 44
54 49 45
56 51 47
54 49 45
55 50 46
55 50 46
55 51 46
55 51 46
56 51 46
56 51 47
55 50 46
55 51 46
55 50 46
55 50 46
56 51 47
55 50 46
56 51 47
78 90 51
51 79 50
52 79 50
147 212 87
93 140 69
117 177 80
92 140 69
60 93 58
57 88 55
57 90 57
50 68 47
55 50 46
56 51 47
54 49 45
55 51 46
54 50 45
56 51 47
55 50 46
74 69 53
52 47 43
53 48 45
47 43 40
41 37 34
44 40 37
25 22 20
19 16 12
36 35 33
39 42 38
49 51 46
59 57 55
255 255 208
155 148 97
146 136 100
81 81 75
61 63 58
43 43 42
48 45 42
55 50 46
53 49 45
54 50 46
51 47 43
51 47 43
48 44 40
50 46 42
50 46 42
44 40 37
41 38 34
35 33 29
35 33 29
33 31 28
41 46 26
41 38 34
44 40 36
47 43 40
46 43 39
46 42 39
43 40 36
39 35 39
80 66 60
80 65 59
83 69 65
40 35 44
40 35 44
81 67 61
38 32 43
39 33 43
50 45 43
55 50 46
55 50 46
55 50 46
56 51 47
56 51 47
55 50 46
56 51 47
55 50 46
56 51 47
56 51 47
56 51 47
55 50 46
56 51 47
56 51 47
55 50 46
55 50 46
109 104 85
131 125 100
139 132 104
142 135 105
143 135 106
140 132 104
133 126 101
98 93 78
52 47 43
54 49 45
54 50 46
53 48 44
56 51 47
55 50 46
52 47 43
54 49 44
55 50 46
56 51 47
56 51 47
55 50 46
55 50 46
56 51 47
56 50 46
55 50 45
55 50 46
55 50 46
55 49 45
54 49 45
53 49 45
54 47 43
53 49 45
67 51 44
111 100 87
58 54 54
69 52 46
164 67 24
85 37 19
81 34 17
169 65 23
66 20 9
63 26 12
154 62 19
57 24 11
63 35 26
54 49 45
54 49 45
54 50 46
54 48 45
56 51 47
55 50 46
55 49 45
55 50 46
55 50 46
55 50 46
56 51 46
55 49 45
55 50 46
54 49 45
53 48 44
54 49 45
52 47 43
49 45 41
44 40 36
44 41 37
43 51 39
89 102 74
98 116 88
103 121 91
106 124 92
107 125 93
107 125 93
105 123 92
100 117 89
88 104 81
49 35 32
51 45 41
26 79 24
25 77 23
28 87 26
25 78 23
23 69 21
26 59 23
54 49 45
56 51 46
56 51 47
55 50 46
54 50 45
55 50 46
55 49 46
55 50 46
54 50 45
55 50 46
55 50 46
54 49 45
54 50 46
53 48 45
54 48 45
53 48 44
49 45 42
49 43 41
45 40 38
46 41 39
35 31 30
36 30 30
36 31 30
26 21 22
24 20 20
26 22 22
25 19 21
31 23 26
30 23 25
30 22 25
32 24 27
29 24 25
38 34 32
39 35 33
48 43 40
52 47 44
49 43 41
54 49 45
53 49 44
53 48 44
55 50 45
55 50 46
54 49 45
55 50 45
55 50 45
55 50 46
54 49 45
55 51 46
54 49 44
55 51 46
53 49 44
55 50 46
56 51 47
56 51 46
55 50 46
56 51 47
55 51 46
55 50 46
56 51 47
56 51 47
55 50 46
58 53 48
58 51 47
56 51 47
54 49 45
53 49 44
55 50 46
53 49 45
48 44 40
48 45 40
36 37 31
28 31 24
28 33 24
24 28 21
37 31 20
82 55 29
109 71 34
110 71 34
110 71 34
111 71 35
109 70 34
111 72 35
111 71 34
111 72 35
112 72 35
112 72 35
112 72 35
112 72 35
112 72 35
111 72 35
112 72 35
112 72 35
111 72 35
112 72 35
112 72 35
111 71 35
113 73 35
112 72 35
113 73 35
112 72 35
112 72 35
109 70 34
160 101 40
110 71 34
110 71 34
110 71 34
110 71 34
109 70 34
159 100 39
108 70 34
81 54 30
34 26 21
34 29 27
67 49 37
45 40 37
50 45 41
54 49 45
53 48 44
55 50 46
55 50 45
55 50 46
55 50 46
55 50 46
55 50 46
54 50 45
55 50 46
53 49 45
50 46 42
47 44 40
44 40 37
36 33 31
42 44 35
29 27 25
21 19 19
22 20 19
21 20 19
32 29 27
39 36 34
42 38 35
47 43 39
50 46 42
52 48 44
48 45 41
54 49 45
56 51 47
55 50 46
56 51 47
56 51 47
55 50 46
55 50 46
56 51 47
56 51 47
55 50 47
55 50 47
55 50 47
56 51 47
56 51 47
55 50 46
55 50 46
55 50 46
55 50 46
54 49 46
54 49 46
53 48 45
53 48 45
52 47 44
52 47 44
54 49 45
53 48 45
54 49 46
54 49 46
54 49 46
73 60 47
75 65 52
55 50 46
52 47 43
52 47 44
52 47 43
48 44 40
45 41 37
43 37 33
32 28 26
23 21 19
24 21 20
20 18 16
25 22 20
29 26 23
36 32 29
45 40 37
48 44 40
50 45 41
53 48 44
54 49 45
56 50 46
55 50 46
55 50 45
56 51 47
56 51 47
55 50 46
56 50 46
56 51 47
56 51 47
56 51 47
56 51 46
56 50 46
55 50 46
54 49 45
55 50 46
54 49 45
54 49 45
53 48 45
54 48 45
55 49 45
55 49 45
55 50 46
54 48 45
55 50 46
55 50 46
55 50 46
55 50 46
56 51 47
56 51 47
56 51 47
54 50 46
55 51 47
56 51 47
55 50 46
56 51 47
81 72 54
55 50 46
56 51 47
56 51 47
56 51 47
55 51 46
55 50 46
50 57 44
132 199 82
87 131 62
168 252 101
135 203 85
152 228 92
89 134 64
54 82 52
87 132 63
77 112 55
49 65 45
55 50 46
54 50 46
55 50 46
54 50 45
55 50 46
55 50 46
55 50 46
52 47 43
53 48 44
50 46 42
52 47 43
42 39 35
37 34 31
30 27 25
23 21 20
25 24 23
44 43 42
48 47 46
47 46 45
46 45 44
46 45 44
47 47 46
46 46 45
46 45 44
48 47 46
52 48 44
52 48 44
54 49 45
55 51 46
54 49 45
60 61 46
52 48 44
50 46 42
49 45 41
51 47 42
45 41 37
45 41 37
50 46 41
48 44 40
46 43 38
49 44 41
48 44 40
50 46 42
48 44 40
45 42 38
47 43 40
39 36 34
80 67 58
31 25 34
30 25 34
31 25 34
77 64 55
62 57 48
100 92 74
89 92 73
96 99 76
91 95 73
78 80 64
54 52 46
55 50 46
56 51 46
55 50 46
56 51 47
55 51 47
55 51 46
66 56 48
56 51 47
55 50 47
55 50 46
55 50 46
55 50 46
74 64 57
125 119 97
134 127 102
140 132 104
143 135 106
143 135 106
142 134 105
135 128 102
123 117 96
70 66 57
54 50 46
55 50 46
55 50 46
54 49 45
56 51 47
54 49 45
54 49 45
55 51 46
55 51 46
55 49 45
56 51 47
56 51 46
55 50 46
54 48 44
55 50 46
55 49 45
54 47 43
53 48 44
55 49 45
54 48 44
54 48 45
54 49 45
53 48 44
77 65 56
120 107 92
126 114 99
82 34 16
80 35 20
166 66 22
57 14 6
151 60 18
61 25 12
52 23 14
48 34 29
47 41 37
49 42 39
53 47 43
53 48 44
67 61 47
56 51 47
54 49 45
56 50 46
54 49 45
56 51 46
56 51 47
54 49 45
55 50 46
54 49 45
55 51 46
54 49 45
53 49 44
54 48 45
51 46 42
53 48 44
60 56 41
44 41 31
75 78 58
93 110 84
98 116 88
100 118 89
102 121 90
101 120 90
99 117 89
96 113 87
72 91 71
41 44 37
45 40 37
23 70 21
20 63 19
24 73 22
21 66 20
20 67 19
36 57 31
53 48 44
55 50 46
54 49 45
54 50 46
56 50 46
55 50 46
55 50 46
54 49 45
56 51 47
55 50 46
55 50 46
56 50 47
56 50 46
52 47 44
53 48 44
55 49 46
55 49 46
49 43 41
49 44 41
43 38 36
44 39 37
45 40 37
41 36 34
36 31 30
37 33 31
30 26 26
31 26 26
25 21 22
25 21 22
23 20 20
19 16 16
29 26 25
37 33 31
43 38 36
46 41 39
51 46 42
47 42 39
54 49 45
54 49 45
54 49 45
54 49 45
54 49 45
56 51 47
55 50 45
55 50 46
56 51 46
55 50 46
55 50 46
55 50 46
55 50 45
54 50 46
56 51 47
56 51 46
56 51 47
55 51 46
56 51 47
56 51 47
55 51 46
56 51 47
63 56 51
67 61 55
60 54 49
64 58 52
69 63 56
61 56 51
60 57 49
52 49 44
51 48 43
47 44 39
39 38 33
35 33 30
28 27 24
24 24 21
39 27 15
91 59 30
111 71 35
111 71 34
111 71 34
111 71 35
112 72 35
110 71 34
112 72 35
112 72 35
110 71 34
112 72 35
111 72 35
111 71 35
113 72 35
111 72 35
112 72 35
112 72 35
112 72 35
112 72 35
112 72 35
112 72 35
111 71 35
110 71 34
111 72 35
111 72 35
111 71 34
111 71 34
112 72 35
162 102 40
111 72 35
110 71 34
111 71 35
110 71 34
110 71 34
109 70 34
109 70 34
160 101 40
101 65 33
51 44 38
50 45 42
52 47 43
52 47 43
74 57 46
62 62 58
72 77 71
74 79 73
57 56 51
54 50 46
56 51 47
56 51 47
54 49 45
54 49 45
54 49 45
53 48 44
53 49 45
49 45 41
49 45 41
45 41 38
72 65 45
37 34 31
42 36 30
52 51 40
46 42 39
44 40 38
49 45 41
49 45 41
53 49 45
55 50 46
56 51 47
56 51 47
56 51 47
54 50 46
54 49 45
56 51 47
56 51 47
55 51 47
56 51 47
56 51 47
56 51 47
56 51 47
56 51 47
56 51 47
56 51 47
55 50 46
55 50 46
55 50 46
56 51 47
55 50 47
55 50 46
55 50 46
81 72 54
56 51 47
55 50 46
55 50 46
52 48 44
55 50 46
55 50 46
55 50 46
55 50 46
55 50 46
54 49 45
54 49 45
52 47 43
54 49 45
51 47 43
50 45 41
45 40 36
45 39 35
80 60 37
40 36 33
42 36 32
44 39 32
45 41 37
47 42 38
47 42 38
51 46 42
53 47 43
56 51 46
55 50 46
55 50 46
56 51 46
55 50 46
56 51 47
56 51 47
56 51 47
55 50 46
56 51 47
56 51 47
56 51 47
55 50 46
56 51 47
56 51 47
55 50 46
55 50 46
77 66 52
55 50 46
56 51 47
55 50 46
56 51 46
54 49 45
63 57 51
68 62 56
73 66 60
61 55 50
55 50 46
55 50 46
56 51 47
55 50 46
56 51 47
56 51 47
56 51 46
55 51 47
55 50 46
56 51 47
56 51 47
55 50 46
54 50 46
55 50 46
55 50 46
54 50 46
54 50 46
50 51 44
39 61 39
112 168 73
110 166 70
106 155 69
88 134 64
110 166 70
99 160 67
87 131 62
43 66 42
49 56 44
55 50 46
55 50 46
56 51 47
55 50 46
54 49 46
54 49 45
52 47 43
52 48 44
53 49 44
50 46 42
55 48 42
46 42 39
47 43 39
39 34 27
25 23 21
23 21 19
36 36 35
45 45 44
47 46 45
48 47 46
47 46 45
47 47 46
47 47 46
45 45 44
44 42 40
51 47 44
52 48 44
53 48 44
53 49 45
53 49 45
54 50 45
54 49 45
55 50 46
54 49 45
53 48 44
56 51 47
52 48 44
54 49 45
52 48 44
52 48 44
49 45 41
48 44 40
51 46 42
52 47 43
42 38 36
42 39 35
39 36 33
30 27 26
23 20 24
22 18 25
22 19 26
32 33 28
85 88 69
101 105 80
107 110 82
109 112 83
108 111 83
104 107 81
87 92 71
62 60 51
54 49 45
56 51 47
56 51 47
55 50 46
55 50 47
55 50 46
55 51 46
55 50 46
55 51 46
56 51 47
51 47 42
73 67 61
121 115 95
131 124 100
136 129 102
139 131 104
139 131 104
137 130 103
131 125 100
123 118 97
78 64 54
56 51 47
55 50 46
56 51 47
55 51 46
55 50 46
55 50 46
56 51 47
56 51 47
55 50 47
55 50 45
55 51 47
55 50 46
55 50 46
55 49 45
55 50 45
55 50 46
53 48 44
55 49 45
55 50 46
55 50 46
52 46 42
53 48 44
74 47 39
51 45 41
57 49 44
87 75 65
66 36 27
163 65 24
30 17 14
21 17 16
21 17 16
25 22 20
33 29 27
32 26 24
41 36 33
47 42 38
53 47 43
52 46 42
51 45 41
55 49 45
55 50 46
52 46 42
55 50 46
55 50 46
55 51 46
53 48 44
54 49 45
55 50 46
54 50 46
55 50 46
54 49 45
54 50 45
54 49 44
53 48 44
48 46 41
39 41 32
45 49 39
55 66 48
206 236 117
87 105 80
94 112 86
94 111 86
88 105 81
81 96 75
54 68 52
37 39 33
45 40 37
19 60 18
20 63 19
21 63 20
19 58 17
17 54 17
46 50 39
50 46 42
52 47 43
53 49 44
54 50 45
53 49 44
55 51 46
54 50 45
56 50 47
54 49 46
56 51 47
54 48 45
56 51 47
56 51 47
54 49 45
53 48 44
55 50 46
53 47 44
54 49 45
53 48 45
51 46 43
48 41 40
50 45 42
49 44 41
42 37 35
47 42 39
44 38 37
38 33 32
37 32 31
33 28 28
32 28 28
33 29 28
63 50 40
42 37 35
46 41 38
47 41 40
54 49 45
53 48 44
54 49 45
55 50 46
53 48 44
56 51 47
56 51 47
56 51 47
56 51 47
54 49 45
56 51 46
55 50 46
55 50 46
56 51 46
56 51 47
56 51 47
56 51 47
56 51 47
56 51 47
56 51 47
55 50 46
55 51 46
56 51 47
63 58 52
60 52 48
56 49 45
62 56 50
63 57 51
59 54 48
83 74 55
72 67 59
55 51 46
47 44 39
52 48 43
42 40 36
36 35 31
34 33 29
61 44 29
107 69 34
109 70 34
110 71 34
111 71 35
111 72 35
110 71 34
110 71 34
111 71 34
112 72 35
111 72 35
111 72 35
112 72 35
112 72 35
111 72 35
111 72 35
111 72 35
111 72 35
111 72 35
111 71 35
111 72 35
112 72 35
112 72 35
112 72 35
111 71 35
112 72 35
110 71 34
112 72 35
111 71 34
112 72 35
109 70 34
111 71 35
111 71 35
110 71 34
109 70 34
161 102 40
107 69 34
108 70 34
107 69 34
107 69 34
103 67 34
79 58 41
54 49 45
57 53 49
92 98 90
105 116 106
110 122 110
109 121 109
104 116 106
79 86 80
55 54 50
56 51 46
55 50 46
56 51 47
53 48 45
54 50 46
61 58 48
54 49 45
52 48 44
53 48 45
51 46 43
48 44 41
44 41 37
48 44 41
54 49 45
50 46 42
51 46 43
52 48 44
53 48 44
54 50 46
55 50 46
61 56 50
87 77 59
60 54 50
59 54 50
56 51 47
56 51 47
55 50 47
55 50 46
55 50 46
56 51 47
56 51 47
56 51 47
56 51 47
56 51 47
56 51 47
56 51 47
56 51 47
55 50 47
56 51 47
56 51 47
56 51 47
56 51 47
55 50 47
55 50 46
55 50 46
54 49 45
55 50 46
56 51 47
81 73 55
55 50 46
55 50 46
55 50 46
90 76 54
54 49 45
55 50 46
53 48 43
52 47 43
53 48 44
73 59 45
46 41 37
70 56 42
70 57 43
51 46 41
54 49 44
53 48 44
52 48 43
52 47 43
69 57 47
56 51 47
54 50 45
55 50 46
55 50 46
57 52 47
56 51 47
56 51 47
55 50 46
56 51 47
56 51 47
55 50 46
56 51 46
56 51 47
56 51 47
56 51 47
56 51 47
56 51 47
55 50 46
56 51 47
81 73 54
56 51 47
56 52 47
70 64 58
85 77 59
60 55 50
224 198 106
166 147 86
95 81 59
56 51 47
56 51 47
56 51 47
56 51 47
56 51 47
56 51 47
56 51 47
55 51 46
55 51 46
56 51 47
54 49 45
56 51 47
55 50 46
53 49 45
54 50 46
51 48 43
49 45 41
39 50 36
36 56 36
41 64 41
46 72 46
82 123 55
37 58 37
109 164 69
40 63 41
40 56 38
51 49 43
53 48 44
51 47 43
54 49 46
54 50 46
55 50 46
53 49 45
54 49 45
54 49 45
52 48 44
52 48 44
52 47 43
55 49 43
41 38 35
48 45 42
39 36 34
37 34 32
32 30 29
38 38 38
40 40 40
60 60 49
43 42 42
42 42 41
41 41 42
41 40 38
46 43 40
50 46 43
52 47 44
54 50 45
53 48 45
55 50 46
53 49 45
54 49 45
55 51 46
61 62 46
55 50 46
56 51 47
55 50 46
60 61 45
59 60 44
52 48 43
54 49 45
60 53 48
53 48 45
49 45 42
47 43 40
51 46 41
33 31 29
29 27 25
20 19 18
23 21 20
14 13 12
63 69 50
99 102 78
106 109 81
110 112 83
111 114 84
111 114 84
108 111 83
102 105 80
81 83 64
54 49 46
55 50 46
55 50 46
56 51 47
55 50 46
56 51 47
56 51 47
56 50 46
55 51 46
56 51 47
52 49 43
52 53 37
105 106 81
118 110 89
125 115 94
125 115 93
130 122 98
129 123 99
125 119 97
110 107 87
59 51 41
66 56 48
55 50 46
55 50 46
56 51 47
56 51 46
56 51 46
55 50 46
55 50 46
55 50 46
55 51 47
56 51 47
55 50 45
55 50 46
56 51 47
55 50 45
55 49 45
55 49 45
55 49 45
53 47 43
54 48 45
54 49 45
52 47 44
53 47 43
52 46 42
48 41 38
49 41 37
44 37 34
35 27 25
35 26 24
30 21 19
27 22 20
37 32 29
43 42 34
69 73 52
75 82 55
71 76 53
67 70 51
58 56 47
54 49 45
52 47 43
55 49 45
56 51 47
55 50 46
56 51 46
56 51 47
55 50 46
55 50 46
54 49 45
55 50 46
53 49 45
55 50 46
55 51 46
54 49 45
53 49 44
50 47 42
39 46 37
40 47 38
36 44 34
112 131 61
36 50 38
49 53 46
57 69 50
38 45 33
43 50 40
39 46 37
44 41 37
45 40 36
19 58 18
17 51 16
16 50 15
14 42 13
34 42 29
43 40 36
50 46 42
48 44 41
50 46 42
53 48 44
52 48 43
54 50 45
54 49 45
56 51 47
55 50 46
55 50 46
55 50 46
55 50 46
56 51 47
55 50 46
55 50 46
54 48 45
54 49 45
55 50 46
54 49 45
52 47 44
52 47 43
53 47 44
51 46 43
49 43 41
51 46 43
48 43 40
48 42 41
45 40 38
40 35 33
49 44 41
46 40 38
71 58 48
52 47 44
52 47 43
53 48 45
54 48 45
55 50 46
54 49 45
54 50 46
56 51 47
55 50 46
56 51 47
56 51 47
56 51 47
55 50 46
55 50 46
56 51 47
56 51 47
56 51 47
56 51 47
56 51 47
56 51 47
56 51 47
56 51 47
56 51 47
55 51 47
56 51 47
53 49 45
71 64 57
63 57 52
60 52 48
63 56 50
67 61 54
60 54 48
61 56 50
67 62 55
57 52 47
51 48 43
49 45 41
47 44 40
46 43 39
65 49 35
102 66 34
108 70 34
107 69 33
109 70 34
109 70 34
108 70 34
110 71 34
111 72 35
110 71 34
111 71 35
111 71 35
112 72 35
110 71 34
111 71 35
111 72 35
111 72 35
110 71 34
111 71 34
112 72 35
112 72 35
112 72 35
112 72 35
111 71 35
112 72 35
110 71 34
110 71 34
111 72 35
111 71 34
111 71 34
110 71 34
110 71 34
111 71 35
109 70 34
161 102 40
160 101 40
108 70 34
161 102 40
110 71 34
109 70 34
108 69 34
107 69 34
105 68 33
81 59 41
85 94 87
107 119 108
114 126 112
116 128 113
115 128 113
113 125 111
106 118 107
84 95 89
51 48 45
54 49 45
56 51 47
55 50 46
55 50 46
55 50 46
53 49 45
55 50 46
53 48 44
53 48 44
55 50 46
54 50 46
51 47 43
55 50 46
54 49 45
55 50 46
55 50 46
54 50 46
63 59 53
58 53 48
62 57 51
69 61 56
61 56 50
66 60 54
58 52 48
56 51 47
56 51 47
56 51 47
55 51 47
56 51 47
56 51 47
55 50 46
56 51 47
56 51 47
56 51 47
56 51 47
55 50 46
56 51 47
56 51 47
56 51 47
56 51 47
56 51 47
55 50 47
56 51 47
56 51 47
56 51 47
56 51 47
55 50 46
56 51 47
56 51 47
55 50 46
55 50 46
55 50 46
81 72 54
54 49 45
56 51 47
54 49 45
79 70 52
54 49 45
73 59 46
54 49 45
55 50 46
54 49 45
55 50 46
55 50 46
55 50 46
55 50 46
56 51 47
55 50 46
56 51 47
56 51 46
56 51 47
55 50 46
56 51 46
55 50 46
56 51 47
56 51 47
55 50 46
56 51 47
56 51 47
56 51 46
54 49 45
56 51 47
55 51 47
56 51 47
56 51 47
56 51 46
56 51 47
60 54 49
71 65 58
63 58 52
87 78 60
85 75 56
62 57 51
55 50 46
61 56 51
225 199 107
56 51 47
55 50 46
56 51 47
55 50 46
54 50 46
54 50 46
55 50 46
81 73 54
55 50 46
55 51 46
54 50 46
54 50 46
53 49 45
54 49 45
51 47 43
45 42 38
43 42 37
31 43 31
105 157 62
77 116 49
30 44 29
32 48 32
107 159 64
35 54 35
44 45 38
48 44 40
51 46 43
52 47 43
53 48 44
53 48 44
54 50 45
54 50 46
54 49 45
54 49 45
54 49 45
52 48 44
52 48 44
52 48 44
50 46 43
69 64 48
47 44 41
40 37 35
35 33 31
29 28 27
23 23 23
20 21 21
25 25 25
53 54 41
32 30 29
39 37 35
44 40 38
52 47 44
52 49 45
54 49 46
53 49 45
56 51 47
56 51 47
55 50 46
55 50 46
56 51 46
55 50 46
55 50 46
54 50 46
56 51 47
54 49 45
53 49 45
54 49 45
52 47 43
55 50 46
51 46 43
50 46 42
47 43 40
46 42 39
40 37 34
41 37 34
29 26 25
34 32 28
82 85 66
98 102 78
104 107 81
107 110 82
109 112 83
109 112 83
106 109 82
101 104 79
92 96 74
54 53 44
55 50 46
55 50 46
55 50 46
55 51 46
56 51 47
55 51 47
55 50 46
56 51 47
56 51 47
52 49 43
72 49 45
99 58 54
107 56 55
106 55 55
107 56 55
106 70 63
104 98 81
93 90 75
59 62 49
50 48 41
56 51 47
56 51 47
55 50 46
56 51 47
56 51 47
55 51 47
56 51 47
56 51 47
55 51 46
55 51 46
55 50 46
56 51 47
54 50 46
55 50 46
55 50 46
54 49 45
55 50 46
54 48 44
55 50 46
54 48 44
54 48 44
54 48 44
53 47 44
53 48 44
51 45 41
76 50 41
49 44 40
48 42 38
46 39 35
45 39 36
40 35 32
55 56 42
79 86 58
80 88 59
81 89 60
82 89 60
81 89 60
81 89 60
72 76 55
55 50 46
56 51 47
54 49 45
56 51 47
55 50 45
55 50 45
55 51 46
54 49 45
56 51 47
55 50 46
53 49 45
55 50 46
52 48 44
51 47 43
54 49 45
50 46 42
39 43 36
40 47 38
39 46 37
38 45 37
38 44 36
40 48 39
39 46 37
39 47 38
40 47 38
40 44 36
50 46 42
50 45 42
14 41 13
11 35 11
16 33 14
22 28 19
35 33 29
32 32 27
42 39 36
43 41 36
48 45 40
54 50 45
51 48 43
53 49 44
53 49 45
53 50 45
56 51 47
55 50 46
55 50 46
56 51 47
55 50 46
56 51 46
55 50 46
53 48 45
55 50 46
55 49 46
53 48 45
54 49 45
55 50 46
54 49 45
56 51 46
55 50 46
52 46 43
52 47 44
52 47 44
51 45 42
51 46 43
52 47 44
53 49 45
52 46 43
54 49 45
54 49 45
54 49 45
53 48 45
55 50 46
55 50 46
56 51 47
56 51 47
56 51 47
56 51 47
55 50 46
55 50 46
55 51 46
56 51 47
56 51 47
56 51 47
56 51 47
56 51 47
56 51 47
56 51 47
56 51 47
56 51 47
55 51 47
56 50 46
56 51 47
57 51 46
56 49 44
62 56 50
60 53 48
56 51 47
58 53 48
67 61 54
67 62 55
74 68 61
71 64 58
58 53 49
53 49 45
52 48 44
72 55 41
107 69 35
107 69 34
108 70 34
108 70 34
109 70 34
110 71 34
110 71 34
109 70 34
111 72 35
110 71 34
111 71 34
110 71 34
111 71 34
112 72 35
111 72 35
112 72 35
111 72 35
111 72 35
111 72 35
111 72 35
112 72 35
111 72 35
111 72 35
111 71 35
112 72 35
111 71 35
110 71 34
110 71 34
110 71 34
161 102 40
110 71 34
110 71 34
109 70 34
160 101 40
109 70 34
109 71 34
109 70 34
108 70 34
108 70 34
106 68 33
105 67 33
159 101 40
158 100 39
106 70 36
105 100 85
110 122 109
114 127 112
116 128 113
116 128 113
113 126 112
108 120 108
100 112 104
63 66 63
55 50 46
56 51 47
56 51 47
55 50 46
56 51 47
55 50 46
55 50 46
56 51 47
54 49 45
55 50 46
55 51 46
55 50 46
55 50 46
55 50 46
55 50 46
80 72 54
65 60 54
56 51 47
70 64 57
69 63 56
63 57 52
85 76 58
83 74 56
57 52 48
62 57 52
56 51 47
56 51 47
56 51 47
56 51 47
56 51 47
55 50 46
55 50 46
55 50 46
56 51 47
56 51 47
81 73 54
56 51 47
56 51 47
56 51 47
56 51 47
56 51 47
56 51 47
56 51 47
55 51 47
56 51 47
56 51 47
55 50 46
56 51 47
56 51 47
55 50 46
56 51 47
56 51 47
55 50 46
74 61 48
56 51 46
55 50 46
55 50 46
55 51 46
56 51 47
56 51 47
55 50 46
54 49 45
55 49 45
56 51 47
56 51 47
55 50 46
55 50 46
55 50 46
56 51 47
56 51 47
55 50 46
56 51 47
56 51 47
56 51 47
55 51 46
55 50 46
56 51 47
56 51 47
56 51 47
56 51 47
55 50 46
56 51 47
56 51 47
56 51 47
55 50 46
56 51 47
56 51 47
61 54 50
55 50 46
70 64 57
83 74 56
96 87 67
174 154 87
233 206 111
77 70 62
61 56 51
55 54 47
56 51 46
56 51 47
56 51 47
54 49 46
55 51 46
54 50 46
56 51 47
56 51 47
56 51 46
54 50 46
55 50 46
54 49 45
50 46 42
48 44 40
47 43 40
33 32 28
28 28 24
75 112 45
29 51 28
25 37 25
26 41 26
27 35 25
35 34 31
41 39 35
47 44 40
47 44 40
54 49 45
51 48 43
54 49 45
54 49 45
55 50 46
56 51 47
54 49 45
55 51 47
54 49 45
54 49 45
52 48 44
53 49 45
53 48 45
48 45 41
48 45 42
43 41 39
42 40 36
30 28 27
27 26 25
27 26 25
27 26 25
39 37 35
42 40 36
42 39 37
71 66 51
52 48 44
52 48 44
54 49 46
55 50 46
55 50 46
54 50 46
54 50 46
56 51 47
55 51 47
55 50 46
55 51 46
56 51 47
55 50 46
54 49 46
56 51 46
56 51 47
53 48 44
52 48 44
56 51 46
51 46 42
50 45 42
57 51 46
45 41 38
53 47 42
39 39 33
76 83 65
94 98 76
99 102 78
102 105 80
104 107 81
104 107 81
102 105 80
97 100 77
87 86 66
51 51 42
55 50 46
55 50 46
55 51 47
55 50 46
55 50 46
56 51 47
55 50 46
55 50 46
54 49 45
82 51 49
151 78 62
153 79 63
106 56 55
105 55 54
106 55 54
103 54 54
100 54 53
61 51 45
51 48 42
51 48 42
54 49 45
55 51 46
55 50 46
56 51 47
55 50 46
56 51 47
56 51 47
56 51 47
55 50 46
56 51 47
56 51 47
56 51 47
56 51 47
56 51 47
55 50 46
54 49 45
55 50 45
56 51 47
55 50 46
55 49 45
56 51 47
55 50 46
55 49 45
54 48 44
77 54 45
54 49 45
53 47 43
74 50 42
53 47 43
52 47 43
59 60 46
115 123 67
77 84 57
117 126 69
117 126 69
79 87 58
81 89 60
79 87 59
77 85 58
66 69 52
55 50 46
55 50 46
55 50 46
55 51 47
56 51 46
54 49 46
55 50 46
56 51 47
54 50 46
42 52 43
41 56 45
33 59 46
42 55 45
47 44 40
46 43 39
42 41 36
29 35 28
38 45 36
37 45 36
39 46 37
39 46 37
40 47 38
38 46 37
38 44 36
50 47 42
53 48 44
52 47 43
25 24 21
19 18 15
16 15 13
17 17 14
31 29 26
35 33 29
46 42 39
45 43 38
49 46 41
51 47 43
51 47 43
56 51 47
55 50 46
53 49 44
55 50 46
54 49 45
55 50 46
55 50 46
56 50 47
54 50 45
56 51 47
56 51 47
70 69 52
82 83 56
86 87 58
85 86 58
81 81 55
67 65 50
56 52 46
54 49 46
52 46 44
54 49 45
55 50 46
55 50 46
55 50 46
55 50 46
55 49 46
56 51 46
56 51 47
55 50 46
56 51 47
55 50 46
55 50 46
55 50 46
56 51 47
56 51 47
55 51 46
55 50 46
55 51 46
55 50 46
56 51 47
56 51 47
55 50 46
56 51 47
55 50 46
55 50 46
56 51 47
55 50 46
56 51 46
56 51 47
56 51 47
56 51 47
55 50 46
56 50 45
63 57 51
56 51 47
59 54 48
57 51 46
66 60 54
58 53 48
69 63 57
58 53 48
60 55 50
60 55 50
55 50 46
70 55 44
106 69 35
105 68 33
110 71 34
107 69 33
107 69 34
109 70 34
111 71 34
110 71 34
109 70 34
110 71 34
111 71 34
109 71 34
110 71 34
111 71 35
110 71 34
110 71 34
111 71 35
110 71 34
110 71 34
111 71 34
110 71 34
109 70 34
111 71 35
110 71 34
111 71 35
110 71 34
110 71 34
110 71 34
110 71 34
111 71 35
111 71 35
110 71 34
112 72 35
109 70 34
108 70 34
108 70 34
161 102 40
161 102 40
159 101 39
108 69 34
108 69 34
108 70 34
105 68 33
106 68 33
133 70 33
103 68 36
107 106 90
111 123 110
112 124 111
112 124 111
110 122 110
106 118 107
99 111 103
68 73 69
53 49 45
56 51 47
81 73 55
56 51 47
55 51 46
55 51 46
56 51 47
55 50 46
54 49 45
56 51 47
56 51 47
55 50 46
56 51 47
54 50 45
55 50 46
55 51 46
66 60 55
58 54 48
86 78 58
61 56 50
69 63 56
91 81 62
59 53 48
84 75 55
67 59 51
53 49 45
55 50 46
55 50 46
55 50 46
56 51 47
56 51 47
55 50 46
81 72 54
57 52 47
55 50 46
56 51 47
56 51 47
56 51 47
55 51 47
56 51 47
56 51 47
56 51 47
56 51 47
56 51 47
56 51 47
56 51 47
56 51 47
56 51 47
56 50 46
56 51 47
56 51 47
56 51 47
56 51 47
56 51 47
56 51 47
55 50 46
55 50 46
55 50 46
81 72 54
56 51 47
56 51 47
56 51 47
56 51 47
56 51 47
56 51 47
56 51 47
55 50 46
56 51 46
55 50 46
56 51 47
56 51 47
55 50 46
55 50 46
56 51 47
56 51 47
55 51 46
55 50 46
56 51 47
56 51 47
56 51 47
56 51 47
55 50 46
56 51 47
56 51 47
56 51 47
55 51 46
58 52 48
61 55 50
60 54 50
84 76 58
62 56 51
70 57 50
66 60 54
176 156 90
71 65 58
71 65 58
54 51 45
56 51 47
55 51 46
56 51 47
56 51 47
55 50 46
56 51 47
79 71 53
55 50 46
55 50 46
53 49 45
54 50 46
52 48 44
53 48 44
47 44 40
49 45 41
69 62 41
31 29 26
22 21 19
24 23 20
15 15 13
20 19 17
27 25 23
31 30 27
41 38 34
43 42 36
46 43 39
50 46 42
52 48 43
55 50 46
54 50 46
56 51 47
55 50 46
56 51 47
55 50 46
54 50 46
55 50 46
54 49 45
53 49 45
53 49 45
72 68 52
52 48 45
49 45 42
48 44 42
47 44 41
43 40 38
44 41 39
43 40 39
46 42 39
47 44 41
50 46 43
54 49 46
55 50 46
74 69 53
56 51 47
55 51 47
55 50 46
56 51 47
56 51 47
56 51 47
55 50 46
55 50 46
55 50 46
55 51 46
55 51 46
55 50 46
54 49 45
55 51 47
56 51 47
55 51 46
54 50 46
53 48 44
49 44 41
52 47 44
51 47 43
51 47 43
43 43 36
43 45 36
64 57 42
255 255 161
255 255 166
96 99 76
96 99 77
93 96 75
117 92 67
51 34 29
43 42 35
55 51 46
55 50 46
54 49 45
55 50 46
55 50 46
54 50 46
53 49 44
54 49 45
173 93 65
148 76 60
188 96 70
101 53 52
152 78 62
105 55 54
105 55 54
104 54 54
102 53 53
92 52 50
50 48 41
51 47 43
54 50 46
55 50 46
55 50 46
56 51 47
56 51 47
56 51 47
56 51 47
55 50 46
56 51 47
55 50 46
56 51 47
56 51 47
56 51 47
56 51 47
55 50 46
56 51 47
56 51 47
54 49 45
56 51 47
55 50 46
56 51 47
55 50 46
56 51 47
55 50 46
55 49 45
54 49 45
55 50 46
55 50 46
53 48 45
54 49 44
110 119 63
112 121 65
75 82 55
74 81 55
78 85 58
77 84 57
78 86 58
116 125 68
75 82 56
73 80 55
54 50 45
67 62 48
55 50 46
55 50 46
55 50 46
55 51 47
55 51 46
48 52 45
28 59 46
8 63 46
8 63 46
8 64 46
8 64 46
8 63 46
33 51 41
40 38 34
33 33 30
24 29 24
29 35 29
31 38 30
31 38 30
32 38 31
34 40 32
46 44 40
50 47 43
50 46 42
53 49 45
23 23 20
25 25 22
32 31 27
31 30 26
37 35 31
43 41 36
49 45 41
53 49 45
52 48 44
51 46 43
53 48 44
54 50 46
55 51 46
56 51 47
55 50 46
56 51 47
55 51 46
56 51 47
56 51 47
56 51 47
56 51 47
77 78 54
86 87 58
85 86 58
86 87 58
86 86 58
85 86 58
83 84 57
76 75 52
54 50 45
55 50 46
54 49 46
55 50 46
56 51 46
54 49 45
55 50 46
56 51 47
56 51 47
55 50 46
55 50 47
56 51 47
56 51 47
56 51 47
56 51 47
81 72 54
55 50 46
55 50 46
56 51 47
56 51 47
56 51 47
56 51 47
55 50 46
55 51 47
55 50 46
56 51 47
56 51 47
55 50 46
56 51 47
56 51 47
55 50 46
55 50 46
56 51 47
56 51 47
56 50 44
57 52 46
63 58 53
63 57 52
64 58 52
58 53 48
62 56 50
63 57 52
59 54 49
59 53 49
75 69 60
58 52 46
99 66 36
106 68 33
104 67 33
109 70 34
109 71 34
107 69 34
108 70 34
110 71 34
109 70 34
109 70 34
110 71 34
110 71 34
110 71 34
110 71 34
111 72 35
112 72 35
112 72 35
111 71 35
109 70 34
111 71 35
110 71 34
109 71 34
110 71 34
110 71 34
111 71 34
110 71 34
109 70 34
108 70 34
108 70 34
110 71 34
110 71 34
110 71 34
160 101 40
161 102 40
109 70 34
161 102 40
108 70 34
199 125 45
110 71 34
159 101 40
160 101 40
107 69 34
160 101 40
161 102 40
107 69 34
106 69 34
102 66 32
100 65 32
102 105 92
93 97 83
104 115 104
157 171 124
98 110 102
77 85 80
44 48 46
52 50 47
54 50 46
56 51 47
56 51 47
56 51 47
56 51 47
55 50 46
55 50 46
63 60 50
55 51 47
55 50 46
55 51 47
56 51 47
56 51 47
55 51 46
54 50 45
56 52 47
58 53 48
65 60 53
62 57 49
54 50 46
59 53 49
55 50 46
63 57 51
57 50 45
80 72 53
56 51 47
56 51 47
56 51 47
55 50 46
56 51 46
57 52 48
59 54 49
69 63 57
61 56 50
74 67 61
59 54 50
56 51 47
56 51 47
56 51 47
56 51 47
55 51 46
56 51 47
55 50 46
55 50 46
56 51 47
56 51 47
57 52 47
56 51 47
56 51 47
56 51 47
56 51 47
56 51 47
55 50 46
56 51 47
55 50 46
74 61 48
56 51 47
56 51 46
56 51 47
56 51 47
55 50 46
56 51 47
55 50 46
56 51 47
56 51 47
56 51 47
56 51 47
56 51 47
56 51 47
56 51 47
56 51 47
56 51 47
56 51 47
56 51 47
56 51 46
56 51 47
56 51 47
56 51 47
56 51 47
81 73 55
56 51 47
56 51 47
56 51 47
56 51 47
55 50 46
55 51 47
60 55 50
62 57 52
85 77 59
61 56 50
63 58 52
65 59 53
64 58 53
61 55 50
58 52 48
84 75 57
55 50 46
56 51 47
56 51 47
56 51 47
56 51 47
56 51 47
56 51 46
55 51 46
56 51 47
55 50 46
53 49 45
56 51 47
51 47 43
51 47 43
49 45 41
45 42 38
41 38 35
36 35 31
39 37 33
35 33 29
36 34 31
49 56 38
42 39 35
51 58 40
47 44 40
50 46 42
52 48 44
54 50 46
56 51 47
55 50 46
53 49 45
55 50 46
55 51 47
56 51 47
55 51 47
55 50 46
54 49 45
56 51 47
54 50 46
54 50 46
55 50 46
54 50 46
52 48 45
51 47 44
52 48 45
49 46 43
54 50 46
53 49 46
54 50 46
54 50 46
53 49 45
55 51 47
55 51 47
55 50 46
55 51 47
56 51 47
56 51 47
55 51 47
55 50 46
55 50 46
56 51 47
54 50 46
55 50 46
55 50 46
55 51 46
54 49 45
55 50 46
55 50 46
54 49 45
55 50 46
54 49 45
53 49 45
52 48 44
55 50 46
55 50 46
43 42 36
41 42 34
40 41 33
120 119 59
65 69 51
55 58 44
55 56 46
51 53 43
40 35 29
34 27 23
48 45 40
55 50 46
55 50 46
55 50 46
55 50 46
55 50 46
54 49 46
55 50 46
79 72 53
142 75 58
186 95 68
148 76 60
190 97 71
151 78 62
151 78 62
149 76 60
98 51 52
97 51 51
88 46 47
56 47 43
54 49 45
56 51 47
55 50 46
56 51 47
56 51 47
56 51 47
56 51 47
56 51 47
56 51 47
55 51 46
55 51 47
56 51 47
56 51 47
56 51 47
56 51 47
56 51 47
56 51 47
56 51 47
56 51 47
56 51 47
56 51 47
56 51 47
55 50 46
56 51 47
55 50 46
55 50 46
55 50 46
54 49 45
55 50 46
54 50 46
58 57 46
108 116 62
70 77 52
70 77 53
112 121 65
112 120 65
114 123 67
74 81 56
73 80 55
74 81 56
72 80 54
58 59 47
54 50 45
55 50 46
55 50 46
56 51 47
55 50 46
49 51 45
19 59 43
8 60 44
8 63 46
8 64 46
8 63 46
8 63 46
8 63 46
8 62 45
27 48 38
29 29 26
26 25 22
23 22 20
23 25 21
24 28 24
37 35 31
39 38 34
47 50 42
49 46 41
50 47 43
54 49 45
36 35 30
44 41 37
42 40 36
45 42 38
45 42 38
47 44 39
52 47 43
49 46 41
53 49 44
53 48 44
54 50 45
55 50 46
55 50 46
56 51 47
56 51 46
56 51 47
56 51 47
56 51 47
56 51 47
55 50 46
72 70 52
82 83 56
83 84 57
82 83 56
83 84 56
82 82 55
80 81 54
82 82 55
78 79 54
66 66 48
56 51 47
55 49 46
55 50 46
56 51 47
55 51 46
56 51 47
56 51 47
56 51 47
55 51 47
55 50 46
56 51 47
56 51 47
56 51 47
56 51 47
56 51 47
56 51 47
56 51 46
55 50 46
55 51 46
56 51 47
56 51 47
56 51 47
56 51 47
56 51 47
55 50 46
56 51 47
56 51 47
56 51 47
56 51 47
56 51 47
56 51 47
56 51 46
55 50 46
58 51 47
54 49 43
49 46 41
54 49 45
58 53 48
57 52 48
61 56 50
63 57 51
63 58 51
73 68 59
84 74 67
91 62 36
106 68 33
108 70 34
109 70 34
106 69 33
109 70 34
108 70 34
109 70 34
109 70 34
108 70 34
108 70 34
110 71 34
109 70 34
109 70 34
110 71 34
110 71 34
111 71 35
109 70 34
110 71 34
109 70 34
111 71 35
110 71 34
112 72 35
110 71 34
109 70 34
110 71 34
110 71 34
110 71 34
110 71 34
109 70 34
161 102 40
109 70 34
200 126 45
106 68 33
110 71 34
108 70 34
158 100 39
107 69 34
159 101 39
107 69 34
199 125 45
109 70 34
158 100 39
105 68 33
198 125 45
106 69 33
103 67 33
101 65 32
195 122 43
106 69 32
47 38 22
212 231 129
255 255 196
68 112 65
74 83 76
45 49 48
52 50 47
55 51 47
56 51 47
56 51 47
55 50 46
56 51 47
55 50 46
56 51 47
56 51 47
55 50 46
55 50 46
55 51 47
56 51 47
56 51 47
54 49 45
60 55 50
60 56 51
64 59 53
84 75 57
55 50 46
64 58 52
70 64 57
58 53 48
60 54 50
56 50 46
56 52 46
55 52 45
56 51 46
56 51 47
56 51 47
56 51 47
67 61 55
57 52 47
68 62 55
90 81 62
83 74 56
109 97 70
74 65 52
56 51 47
56 51 47
56 51 47
56 51 47
55 50 46
56 51 47
56 51 47
56 51 47
55 50 46
56 51 47
56 51 47
81 72 54
81 73 54
54 50 46
56 51 47
55 51 47
56 51 47
55 51 47
56 51 47
56 51 47
56 51 47
55 51 47
56 51 47
56 51 47
56 51 47
56 51 46
56 51 47
55 51 47
56 51 47
56 51 46
56 51 47
56 51 47
56 51 47
56 51 47
56 51 47
56 51 47
55 51 47
56 51 47
56 51 47
55 51 47
56 51 47
56 51 47
56 51 47
56 51 46
56 51 47
55 50 46
55 51 47
55 50 46
91 120 61
60 56 50
63 57 52
61 55 50
60 55 49
61 56 51
64 58 52
55 50 46
68 62 56
63 57 52
57 52 48
81 72 54
55 50 46
55 50 46
54 49 45
56 51 47
58 53 49
57 53 49
55 50 46
54 50 46
55 50 46
56 51 47
53 49 45
53 49 44
52 48 44
49 46 41
61 65 48
50 46 42
47 43 39
46 43 39
47 43 39
47 43 39
46 43 39
50 47 42
47 44 40
51 47 43
60 64 47
53 49 44
53 49 44
56 51 47
55 51 46
55 50 46
55 50 46
56 51 47
55 50 46
56 51 47
55 50 46
56 51 47
55 50 46
55 51 47
55 50 46
55 50 46
55 50 46
54 50 46
54 50 46
55 50 46
55 50 46
53 49 45
54 49 46
55 50 46
55 51 46
55 50 46
55 50 46
54 49 45
54 50 46
56 51 47
56 51 47
56 51 47
56 51 47
56 51 47
56 51 47
55 50 46
56 51 47
56 51 47
56 51 47
56 51 47
56 51 47
56 51 46
56 51 47
54 50 46
56 51 46
54 49 45
56 51 47
52 48 44
53 49 45
53 49 44
47 45 40
39 40 32
41 42 34
40 41 34
36 37 30
39 40 33
41 43 35
41 42 34
36 37 30
39 40 33
51 47 42
55 50 46
53 49 44
55 51 46
55 50 46
54 50 45
54 50 45
55 50 45
58 46 43
120 54 45
182 93 66
144 74 58
185 95 68
97 51 51
186 95 69
133 66 54
96 50 51
93 49 49
94 49 48
62 44 42
53 49 45
50 46 42
54 50 46
54 49 45
55 50 46
55 50 46
56 51 47
56 50 46
56 51 47
55 50 46
56 51 47
56 51 46
55 50 46
55 51 46
56 51 47
56 51 47
55 50 46
56 51 47
55 51 46
56 51 47
55 51 47
54 49 45
56 51 47
56 51 47
55 50 46
56 51 47
55 50 46
55 50 46
54 49 45
54 49 45
100 103 54
160 170 76
93 79 52
140 150 73
66 73 50
64 71 49
64 74 48
141 151 74
74 81 55
68 76 52
64 72 49
54 56 44
54 49 45
55 50 46
55 50 46
56 51 47
55 52 47
19 53 39
8 57 42
8 61 44
12 88 51
8 62 45
8 61 45
8 61 44
8 61 45
8 61 44
11 58 43
36 36 32
33 31 29
27 26 24
22 23 20
29 28 26
36 35 32
41 40 36
48 45 41
47 44 40
50 47 43
54 50 46
50 46 42
50 46 42
53 49 45
52 47 43
51 47 43
53 49 44
51 48 43
53 49 45
55 51 46
54 50 46
55 50 46
55 50 46
55 51 46
56 51 47
54 49 45
56 51 47
55 51 46
55 50 46
55 50 46
57 52 47
77 76 53
82 83 56
82 82 56
81 82 56
81 81 55
80 81 54
80 80 54
76 76 51
76 76 51
72 73 49
59 57 46
56 51 47
56 51 47
55 50 46
55 51 46
56 51 47
56 51 47
56 51 47
56 51 47
56 51 47
56 51 47
56 51 47
56 51 47
56 51 47
56 51 47
57 52 47
56 51 47
56 51 47
55 50 47
56 51 47
55 50 46
55 50 46
56 51 47
56 51 47
55 50 46
56 51 47
55 50 46
56 51 47
55 50 46
56 51 47
54 50 46
56 51 47
55 51 47
62 56 51
69 67 57
50 49 41
54 49 44
63 57 51
57 52 47
75 69 62
69 63 55
72 72 49
115 107 90
93 76 61
105 68 33
104 67 33
107 69 34
107 69 34
107 69 34
105 68 33
109 70 34
108 69 34
110 71 34
109 70 34
106 69 34
107 69 34
109 71 34
107 69 34
108 70 34
111 71 34
110 71 34
109 70 34
109 70 34
109 71 34
111 71 35
110 71 34
111 71 34
111 71 35
109 70 34
110 71 34
108 70 34
110 71 34
110 71 34
110 71 34
108 70 34
109 70 34
110 71 34
108 70 34
161 102 40
106 68 33
161 102 40
110 71 34
108 69 34
160 101 40
109 71 34
158 100 39
199 125 45
198 125 45
198 124 45
107 69 34
156 99 38
197 124 44
158 100 39
155 98 38
75 51 28
14 31 20
55 64 45
63 68 55
42 47 45
42 48 47
53 49 45
54 50 46
53 49 46
54 50 46
55 50 47
55 50 46
56 51 47
55 51 47
54 49 45
56 51 47
63 60 50
55 50 46
55 50 46
56 51 47
55 50 46
60 53 47
55 50 46
58 53 48
61 56 51
57 52 48
61 55 50
58 54 48
62 57 51
57 54 46
56 61 37
55 67 33
55 68 31
54 67 31
55 66 34
57 59 43
255 242 126
84 76 57
233 206 111
175 155 88
62 56 50
95 86 66
84 76 57
60 54 50
55 50 45
55 51 47
56 51 47
56 51 47
81 72 54
56 51 47
56 51 47
56 51 47
56 51 47
56 51 47
56 51 47
56 51 47
56 51 47
56 51 47
56 51 47
56 51 46
56 51 47
56 51 47
55 50 46
55 50 46
56 51 47
56 51 47
55 50 46
56 51 47
56 50 46
56 51 47
56 51 47
56 51 47
56 51 47
56 51 47
55 50 46
55 50 46
56 51 47
55 50 47
55 50 46
56 51 47
56 51 47
56 51 47
56 51 47
55 50 46
56 51 47
56 51 47
55 50 46
55 50 46
55 50 47
55 50 46
55 50 46
55 50 46
57 53 48
70 68 57
58 53 48
61 56 51
62 56 51
58 53 49
61 55 50
58 53 48
61 55 50
71 64 57
85 75 65
55 50 46
55 50 46
58 54 50
92 84 63
64 60 56
65 61 57
65 61 57
64 60 56
57 52 48
55 50 46
55 50 46
55 50 46
54 50 45
55 50 46
54 50 46
55 50 46
53 48 44
54 50 46
53 49 45
54 49 45
60 64 47
55 50 46
53 49 45
53 49 45
54 50 46
55 50 46
54 49 45
53 49 45
53 48 44
54 50 46
54 50 46
54 50 46
55 51 47
55 50 46
56 51 47
56 51 47
55 50 46
61 50 46
67 49 44
68 49 44
56 51 47
54 49 45
55 50 47
55 51 46
56 51 47
55 51 47
56 51 47
55 51 47
55 50 46
55 50 46
56 51 47
56 51 47
55 50 46
55 50 46
56 51 47
56 51 47
56 51 47
56 51 47
55 50 46
56 51 47
56 51 47
55 50 46
56 51 47
55 50 46
55 51 46
56 51 47
55 50 46
55 50 46
55 51 47
56 51 47
55 51 46
54 49 45
53 48 44
52 48 44
49 45 41
47 44 40
38 38 32
37 39 31
38 39 32
40 41 33
39 40 33
40 41 33
38 40 32
39 40 32
45 43 38
50 46 42
53 49 45
55 50 46
62 52 46
54 50 45
54 50 45
54 49 45
54 50 45
125 72 53
75 39 39
242 123 81
144 74 58
141 73 56
87 45 46
141 72 56
88 46 47
91 47 48
90 47 47
85 44 45
64 43 41
51 46 42
50 46 42
55 51 46
53 48 44
53 49 45
55 50 46
55 51 46
55 50 46
55 50 46
56 51 47
56 51 47
56 51 47
56 51 46
55 50 46
55 50 46
56 51 47
56 51 47
56 51 47
56 51 47
55 50 46
55 50 46
56 51 47
55 50 46
56 50 46
56 51 47
55 50 46
56 50 46
55 50 46
54 50 45
54 50 45
102 106 57
59 63 44
105 113 59
107 115 61
62 68 47
60 66 46
62 68 47
64 71 49
95 99 54
59 66 45
60 68 46
52 48 43
55 50 46
54 50 46
55 50 46
54 50 46
46 49 42
6 53 36
10 64 40
15 109 58
12 88 51
8 59 43
12 86 50
8 58 42
8 58 43
8 60 44
8 58 43
38 47 40
45 43 39
41 39 36
41 39 36
47 44 40
43 41 37
43 42 38
47 44 40
48 46 42
52 48 44
53 49 45
52 48 43
53 49 44
52 48 44
54 49 45
52 48 44
53 49 45
54 49 45
55 50 46
55 50 46
74 58 59
92 66 73
92 67 73
91 66 73
61 52 50
56 51 47
56 51 47
55 50 46
56 51 47
55 50 46
64 60 49
77 74 53
79 77 54
77 78 54
78 78 54
79 80 55
78 79 53
73 72 49
73 73 49
74 76 51
68 70 48
61 61 45
55 50 46
55 50 46
55 50 46
56 51 47
55 50 46
56 51 47
56 51 47
56 51 47
55 51 46
54 49 45
68 66 60
74 75 67
75 77 68
60 59 53
57 52 47
56 51 47
56 51 47
55 51 46
56 51 47
56 51 47
55 50 46
55 51 47
56 51 47
55 51 47
55 50 46
56 51 47
56 51 46
55 50 46
55 50 46
54 50 46
55 50 46
55 50 46
81 72 54
78 73 64
87 90 69
96 94 76
110 97 85
108 88 80
124 115 101
114 106 91
127 120 97
99 89 76
103 67 35
107 69 34
105 68 33
102 66 32
107 69 33
108 70 34
107 69 34
107 69 34
109 70 34
108 70 34
108 70 34
108 70 34
109 70 34
108 69 34
109 70 34
108 70 34
110 71 34
110 71 34
108 70 34
111 71 35
110 71 34
107 69 34
109 70 34
110 71 34
110 71 34
108 70 34
106 68 33
109 71 34
110 71 34
107 69 34
110 71 34
108 70 34
109 70 34
108 70 34
108 70 34
199 125 45
161 102 40
159 101 40
108 70 34
108 70 34
230 145 49
160 101 40
108 70 34
157 99 39
158 100 39
105 68 33
196 123 44
160 101 40
255 161 53
227 142 48
104 67 33
101 64 32
61 49 38
40 45 44
42 47 46
41 46 45
44 47 46
51 47 44
52 49 46
52 48 44
54 49 46
54 50 46
55 50 46
55 51 47
55 51 47
55 50 46
56 51 47
56 51 47
54 50 46
55 50 46
55 51 46
56 51 46
70 64 57
61 54 50
58 52 48
56 51 46
59 53 49
61 56 50
99 88 60
55 51 45
53 62 33
54 66 30
55 68 31
55 68 31
55 67 31
81 97 36
80 96 36
51 57 34
163 144 82
167 148 86
226 200 109
63 58 52
90 81 61
82 74 55
53 49 44
59 51 46
53 48 45
55 50 46
55 50 46
55 50 46
56 51 47
56 51 47
56 51 47
56 51 47
56 51 47
56 51 47
56 51 47
56 51 47
56 51 47
55 50 46
56 51 46
56 51 47
56 51 47
56 51 47
56 51 47
56 51 47
56 51 47
56 51 47
56 51 47
56 51 47
56 51 46
55 50 46
56 51 47
56 51 47
56 51 47
56 51 47
56 51 47
56 51 47
56 51 47
56 51 47
56 51 47
56 51 47
56 51 47
81 73 55
55 50 46
55 50 46
56 51 47
81 73 54
54 50 46
56 51 47
54 49 45
55 50 47
55 50 47
53 49 45
91 84 74
152 129 94
65 60 53
135 94 55
64 57 51
50 44 40
74 68 59
92 83 73
104 89 72
74 68 61
55 50 46
56 52 48
93 85 65
62 58 54
63 59 55
117 106 74
64 60 56
64 60 56
63 58 55
58 54 50
56 51 47
55 50 46
55 51 46
55 50 46
56 51 47
56 51 47
54 50 46
55 50 46
56 51 47
54 50 45
61 65 48
56 51 47
54 49 45
54 50 45
55 51 46
55 51 46
55 50 46
56 51 47
55 50 46
56 51 47
55 51 46
56 51 47
56 51 47
56 51 46
56 51 47
79 46 39
100 38 27
106 36 23
106 36 23
106 36 23
97 40 30
68 47 42
56 51 47
55 51 46
55 50 46
56 51 47
56 51 47
55 51 47
55 51 47
55 51 47
55 50 46
56 51 47
56 51 47
55 51 47
56 51 47
55 50 47
55 50 46
56 51 47
56 51 47
55 51 47
56 51 47
56 51 47
55 50 46
56 51 47
56 51 47
55 50 46
55 51 46
55 50 46
56 51 47
55 51 46
55 50 46
53 48 44
63 59 52
73 70 60
81 77 66
64 63 53
45 42 38
30 31 26
28 30 24
32 33 27
30 32 26
34 36 29
34 36 29
40 39 34
48 44 41
47 43 39
49 45 41
54 50 45
53 48 44
53 49 44
52 48 44
53 48 44
52 47 43
53 48 44
135 69 52
137 70 53
178 90 63
210 107 71
179 91 64
177 90 62
93 48 46
82 42 43
78 40 41
76 40 41
53 44 41
50 46 42
52 48 43
51 47 43
53 49 45
56 51 47
56 51 46
56 51 47
54 50 46
55 51 46
55 50 46
56 51 47
55 50 46
56 51 47
56 51 47
55 50 46
56 51 47
55 50 46
54 50 46
55 50 46
55 50 46
55 50 46
55 50 46
56 51 47
56 51 47
56 51 46
54 49 45
53 49 45
53 48 44
54 49 45
51 47 43
52 47 42
99 105 52
157 167 73
51 56 39
51 55 39
57 61 43
60 66 46
103 111 57
58 63 44
61 67 46
55 60 43
54 49 44
55 50 46
53 49 45
55 49 45
55 50 46
42 45 39
11 80 44
11 83 45
7 53 39
12 86 49
12 85 48
7 55 40
15 108 56
7 55 40
7 55 41
7 53 40
38 50 41
51 47 43
46 43 39
47 45 40
49 46 42
47 45 41
49 46 42
51 48 43
53 48 44
53 49 45
54 50 46
54 49 45
54 49 45
54 50 46
55 50 46
56 51 47
56 51 47
55 51 46
66 54 54
119 82 92
135 91 102
138 94 104
138 94 104
135 92 102
127 86 98
85 58 67
55 49 46
55 50 46
56 51 47
56 50 46
57 51 46
76 68 51
74 70 51
76 77 53
73 73 51
72 73 50
71 72 49
69 69 47
65 66 44
64 65 44
66 66 45
57 56 43
56 51 47
55 50 46
54 49 45
54 49 45
54 49 46
56 51 47
56 51 46
56 51 47
60 57 52
86 89 78
101 106 90
103 108 91
103 108 91
99 105 89
88 94 80
56 55 49
55 50 46
55 50 46
56 51 47
56 51 47
55 50 46
56 51 47
56 51 47
55 50 46
56 51 47
55 50 46
56 51 47
56 51 47
55 50 46
55 50 46
55 50 46
55 50 46
55 50 46
54 49 45
74 67 60
98 91 78
122 112 96
130 119 103
132 121 104
117 107 92
91 83 72
85 60 40
101 65 32
104 67 33
105 67 33
103 67 33
105 68 33
107 69 34
105 68 33
106 68 33
107 69 34
106 68 33
107 69 33
109 71 34
108 70 34
108 70 34
107 69 34
109 70 34
109 70 34
106 69 33
109 71 34
109 70 34
110 71 34
108 70 34
108 70 34
110 71 34
107 69 34
107 69 34
106 69 34
108 69 34
109 70 34
111 71 34
111 71 34
109 70 34
160 101 40
160 101 40
108 69 34
160 101 40
106 68 33
160 101 40
160 101 40
255 163 54
199 125 45
159 101 40
106 69 34
200 125 45
160 101 40
115 74 34
255 162 53
197 124 44
157 99 39
157 99 39
156 99 39
99 64 32
93 61 32
42 46 43
29 57 36
44 75 45
22 62 31
31 63 35
37 58 38
49 50 44
53 49 45
53 49 45
55 50 46
55 51 47
55 50 46
56 51 47
54 49 45
55 50 46
56 51 47
80 72 54
55 50 46
55 50 46
56 51 47
100 90 83
97 79 73
81 70 60
63 56 51
66 57 51
73 66 55
50 57 32
50 61 28
53 64 29
54 66 30
55 67 31
115 137 44
98 118 40
79 95 35
76 92 33
61 59 47
64 58 52
59 53 49
83 74 56
94 85 65
60 55 50
84 75 57
56 51 47
55 50 46
56 51 47
56 51 47
56 51 47
56 51 47
56 51 46
56 51 47
56 51 47
56 51 47
56 51 47
55 51 46
56 51 47
56 51 47
55 51 47
56 51 47
56 50 46
56 51 47
56 51 47
56 51 47
56 51 47
55 50 46
56 51 47
56 51 46
56 51 47
56 51 47
56 51 47
56 51 47
56 51 47
56 51 47
56 51 47
56 51 47
56 51 47
56 51 47
56 51 47
55 50 47
56 51 47
55 50 46
55 50 47
56 51 47
56 51 47
56 51 47
56 51 47
55 51 47
56 51 47
56 51 47
56 51 47
55 50 46
55 50 46
55 50 46
99 91 80
123 113 99
116 104 90
110 97 84
101 85 73
114 101 88
123 114 99
86 79 69
53 49 45
54 49 46
57 53 50
65 60 53
92 84 63
151 137 87
94 86 66
116 105 73
62 58 54
62 57 54
58 54 51
55 50 46
56 51 47
55 50 46
56 51 47
56 51 47
55 50 46
56 51 47
55 50 46
55 50 46
56 51 47
55 50 46
56 51 47
56 51 47
55 50 46
55 51 46
81 72 54
55 51 46
56 51 47
56 51 47
55 51 47
56 51 47
55 50 46
56 51 47
56 51 47
74 42 36
103 35 23
221 74 33
106 36 23
154 51 27
107 36 23
106 36 23
105 36 23
77 45 39
56 51 47
55 50 47
56 51 47
55 50 47
55 50 46
55 50 47
56 51 47
55 50 46
56 51 47
55 50 46
56 51 47
56 51 47
56 51 47
56 51 47
56 51 47
56 51 47
56 51 47
56 51 47
55 50 46
56 51 47
56 51 47
55 50 46
54 50 46
55 50 46
56 51 47
55 50 46
55 50 46
61 57 50
121 133 82
128 122 100
132 125 101
131 124 101
127 121 99
109 106 87
54 54 44
24 24 21
17 17 15
19 19 17
23 22 20
30 28 25
40 37 34
47 43 39
48 44 41
49 44 41
50 46 42
53 48 44
52 48 44
52 47 43
53 48 44
50 45 42
50 45 41
45 27 27
64 33 34
196 95 60
132 67 49
67 35 36
136 69 52
77 40 41
69 36 37
66 35 36
85 56 45
51 47 43
54 49 45
55 50 45
54 49 45
54 49 45
56 51 46
55 50 46
55 50 46
56 51 47
56 51 47
55 50 46
56 51 46
56 51 47
55 51 47
56 51 47
56 51 47
56 51 47
56 51 47
56 50 46
56 51 47
56 51 47
56 51 47
56 51 47
55 50 46
56 51 47
55 50 46
54 49 45
54 49 45
52 47 43
49 45 41
51 46 42
49 45 41
41 41 33
96 101 48
96 103 49
132 140 64
131 139 63
50 54 38
47 53 36
97 104 50
48 53 37
49 47 40
53 49 44
53 48 44
54 50 45
55 50 46
53 49 45
36 93 49
12 92 47
6 45 34
17 124 60
12 85 49
6 49 36
7 50 38
7 50 37
7 53 39
7 54 40
6 49 36
42 49 42
53 49 45
54 50 46
51 48 43
51 47 43
54 50 45
53 49 44
52 49 44
52 48 44
56 51 47
54 50 46
54 50 45
55 50 46
55 50 46
55 50 46
56 51 46
55 51 46
56 49 46
118 80 91
135 92 102
142 96 105
145 98 107
145 98 107
142 96 106
136 92 103
126 86 98
79 55 59
55 49 46
56 51 47
56 51 47
56 51 46
65 60 45
61 59 43
67 65 47
68 67 48
64 63 44
65 66 46
64 63 43
59 60 41
64 65 45
51 51 35
48 47 37
54 49 45
54 49 45
56 51 47
55 50 46
56 51 47
55 50 46
54 49 45
59 55 50
92 96 84
102 107 90
107 112 93
108 113 94
108 113 93
105 110 92
100 105 89
90 94 81
53 51 46
56 51 47
55 50 46
55 50 46
55 50 46
55 51 47
56 51 47
56 51 47
56 51 47
56 51 47
55 50 47
54 49 45
57 52 47
55 50 46
55 50 46
55 50 46
54 49 45
54 50 46
54 50 46
55 50 46
55 50 46
71 65 57
67 61 54
56 51 47
57 51 46
98 64 32
103 66 33
104 67 33
103 67 33
106 68 33
105 68 33
105 68 33
106 69 33
107 69 34
107 69 34
108 69 34
107 69 34
105 68 33
107 69 34
109 70 34
109 70 34
160 101 40
108 69 34
108 70 34
108 69 34
109 70 34
109 70 34
107 69 34
108 69 34
111 71 34
107 69 34
109 70 34
159 100 39
109 70 34
108 70 34
109 70 34
108 70 34
107 69 34
159 101 39
159 101 40
158 100 39
160 101 40
159 101 39
159 101 39
106 68 33
158 100 39
159 101 39
230 144 49
197 124 44
108 69 34
159 101 40
255 178 57
255 177 57
157 99 39
104 67 33
98 63 31
229 144 49
156 99 38
96 62 31
65 63 32
21 63 31
21 63 31
21 62 31
21 63 31
30 90 36
36 87 38
49 52 44
54 50 46
54 50 46
56 51 47
56 51 47
55 50 46
54 49 45
55 50 46
55 50 46
56 51 47
55 50 47
53 48 45
55 50 46
69 63 56
114 104 91
124 114 99
125 113 101
112 100 89
104 96 83
47 58 27
49 60 28
76 91 33
52 63 29
98 117 39
97 116 39
141 168 51
114 136 44
77 93 34
47 54 31
60 54 49
88 79 60
61 56 51
87 79 60
80 72 53
100 89 61
55 50 46
70 64 56
55 50 46
56 51 47
55 50 46
81 72 54
55 50 46
56 51 47
56 51 47
55 51 47
56 51 47
56 51 47
56 51 47
56 51 47
56 51 47
56 51 47
71 70 54
56 51 47
56 51 47
56 51 47
56 51 47
56 51 47
56 51 47
56 51 47
55 50 46
55 50 46
56 51 47
56 51 47
56 51 47
56 51 47
56 51 47
56 51 47
56 51 47
56 51 47
56 51 47
56 51 46
56 51 47
56 51 47
56 51 47
55 51 46
56 51 47
55 51 47
56 51 47
55 50 46
56 51 47
56 51 47
55 50 46
55 50 46
54 50 46
54 50 46
54 49 45
85 78 68
101 92 80
118 108 93
116 106 91
108 98 85
71 65 58
54 50 46
54 50 46
52 48 45
56 52 49
104 89 62
133 120 78
58 53 50
116 105 73
63 58 54
115 105 72
61 57 54
57 52 50
57 53 50
55 50 46
55 50 46
55 50 46
55 50 46
56 51 47
56 51 47
55 50 46
53 49 45
56 51 47
55 51 47
55 50 46
55 50 46
56 51 47
80 72 53
55 50 46
56 51 47
56 51 46
55 50 47
56 51 47
55 50 46
56 51 47
55 50 46
69 46 41
97 33 21
110 37 23
188 62 29
106 36 23
220 73 33
154 52 27
102 35 22
101 34 22
99 35 24
72 47 41
55 50 46
56 51 47
56 51 47
56 51 47
56 51 47
55 51 46
55 50 46
56 51 47
56 51 47
55 51 47
56 51 47
56 51 47
56 51 47
56 51 47
56 51 47
56 51 46
56 51 47
55 51 47
55 50 46
55 50 46
56 51 47
56 51 47
56 51 47
56 51 47
55 50 46
60 55 50
109 104 87
130 123 101
136 129 104
140 132 105
140 132 105
137 129 104
129 123 100
104 99 82
35 33 29
32 30 28
31 30 27
27 26 23
33 30 27
40 37 34
49 45 41
47 43 39
51 46 42
49 45 41
54 50 45
53 48 44
53 48 44
51 46 42
50 45 42
48 43 40
50 42 39
128 65 47
109 53 38
170 86 57
124 63 44
127 64 46
52 27 29
58 30 31
62 32 33
56 47 43
50 45 41
53 48 44
55 50 46
55 50 45
55 50 46
55 50 46
54 50 46
55 50 46
55 50 46
55 50 46
55 51 46
55 51 47
56 51 47
56 51 47
56 51 47
55 50 46
56 51 47
56 51 47
56 51 47
56 51 47
56 51 47
55 50 46
56 51 47
55 50 46
54 49 45
56 51 47
53 48 44
51 46 42
47 43 40
50 46 42
48 44 40
42 39 35
41 38 34
34 36 27
93 99 45
50 55 34
45 51 36
35 39 28
38 42 30
36 41 29
40 40 34
51 46 43
51 47 43
53 49 45
48 44 41
54 49 45
52 47 43
38 38 34
5 37 28
14 101 50
5 39 29
5 41 31
6 43 32
6 48 36
6 47 35
6 48 36
5 42 31
6 45 34
52 50 45
55 51 46
54 50 45
55 50 46
54 50 46
55 51 46
55 50 46
56 51 47
55 51 46
54 49 45
55 50 46
56 51 47
55 50 46
56 51 47
56 51 47
56 51 47
56 51 47
86 56 61
129 88 100
137 93 103
142 96 106
144 97 107
144 97 106
141 96 105
136 92 103
128 87 99
94 67 69
56 43 42
65 57 57
72 64 65
72 64 65
62 55 50
50 46 36
53 51 38
56 54 41
53 53 37
50 50 36
57 57 40
50 52 36
50 51 36
52 52 36
48 44 39
53 49 45
53 48 44
54 49 45
52 47 43
56 51 47
55 50 46
55 50 46
72 77 65
97 102 87
104 109 91
107 112 93
108 113 94
108 113 94
105 111 92
101 106 90
94 100 86
61 66 57
53 49 45
56 51 47
55 50 46
55 51 46
56 51 47
56 51 47
56 51 47
55 50 46
56 51 47
56 51 47
55 50 46
55 50 46
55 50 46
55 50 46
54 49 45
55 50 46
56 51 47
54 49 45
54 49 45
55 50 46
56 51 47
53 49 45
56 51 47
82 57 37
97 62 30
105 68 33
103 67 32
104 67 33
109 70 34
104 67 33
105 68 33
106 69 33
107 69 34
106 69 34
107 69 34
110 71 34
107 69 34
108 70 34
109 70 34
107 69 34
107 69 34
108 70 34
109 70 34
107 69 34
107 69 34
107 69 34
108 70 34
107 69 34
108 70 34
107 69 34
107 69 34
107 69 33
107 69 34
106 68 33
108 69 34
230 144 49
107 70 34
160 101 40
159 101 39
160 101 40
198 125 45
161 102 40
213 128 45
158 100 39
158 100 39
106 69 34
108 69 34
198 125 45
104 67 33
198 125 45
198 125 45
134 75 35
234 147 50
229 143 48
103 66 32
195 123 44
155 98 38
100 65 32
101 68 32
30 58 29
20 59 29
20 61 30
20 60 29
37 109 39
19 58 29
20 57 29
50 49 43
54 49 45
55 50 46
54 50 46
54 49 45
55 50 46
56 51 47
55 51 47
56 51 47
55 50 46
54 49 46
54 49 46
55 50 46
53 48 45
96 88 76
112 102 88
118 108 93
99 94 77
43 52 24
74 88 31
77 92 34
73 88 31
173 206 60
77 92 34
77 93 34
106 128 39
76 85 33
75 87 35
58 52 48
64 58 53
223 197 106
59 54 49
81 70 52
58 52 47
54 50 45
86 79 70
54 49 45
54 49 45
55 50 46
56 51 47
56 51 47
56 51 47
56 51 47
56 51 47
56 51 47
54 49 45
56 51 47
56 51 47
54 50 45
56 51 47
55 51 47
55 51 46
55 51 47
81 73 55
56 51 47
56 51 46
56 51 47
56 51 47
56 51 47
56 51 47
56 51 47
56 51 47
56 51 47
56 51 47
56 51 47
56 51 47
56 51 47
55 51 47
56 51 47
56 51 47
56 51 47
56 51 46
56 51 47
81 72 54
56 51 47
55 50 46
55 50 46
54 50 46
54 50 46
56 51 47
54 50 46
53 49 45
55 51 47
55 50 46
54 49 45
55 50 46
55 50 46
55 50 45
55 50 46
55 50 46
55 50 46
55 50 46
54 49 45
51 47 45
88 80 59
132 120 77
113 103 70
163 148 90
148 134 83
133 115 76
163 147 90
131 119 77
52 49 47
53 48 46
55 50 46
56 51 47
56 51 47
56 51 47
56 51 47
55 50 46
56 51 47
56 51 47
55 50 46
56 51 47
55 50 46
56 51 47
56 51 47
56 51 47
56 51 47
56 51 47
56 51 47
56 51 47
55 51 47
56 51 47
56 51 47
55 50 46
88 37 29
91 31 20
144 48 24
97 32 21
151 50 26
149 50 25
150 50 26
101 34 22
99 34 22
97 33 21
78 40 34
56 51 47
56 51 47
56 51 47
56 51 47
55 50 46
56 51 47
55 50 46
56 51 47
56 51 47
56 51 47
55 51 47
56 51 46
56 51 47
56 51 47
56 51 47
56 51 47
56 51 47
56 51 47
55 51 46
55 50 46
56 51 47
55 50 46
55 50 46
55 50 46
56 51 47
145 143 89
122 117 97
131 124 101
138 130 104
140 132 106
140 132 106
138 131 105
133 126 102
123 117 98
78 72 60
43 40 36
42 39 36
46 43 39
46 43 39
49 45 41
51 46 42
49 45 41
54 50 45
50 46 42
51 46 42
51 46 42
53 48 44
50 45 42
47 42 39
40 36 33
37 32 30
33 27 26
121 61 41
50 26 28
122 62 42
66 34 31
51 27 28
43 23 24
42 34 32
48 43 40
47 42 38
54 48 44
51 46 42
55 50 46
56 50 46
55 50 46
55 50 46
56 51 47
56 51 47
56 51 47
56 51 47
56 51 47
56 51 47
56 51 47
56 51 47
56 51 47
60 60 48
54 49 46
56 51 47
55 51 46
56 51 47
56 51 47
54 49 45
55 50 46
55 51 46
52 47 43
55 50 46
51 47 43
50 46 42
51 47 43
43 39 36
43 40 36
31 29 26
27 25 23
25 27 20
20 23 17
25 28 21
30 33 24
29 29 24
39 36 32
42 39 35
46 42 39
49 45 41
47 44 40
50 46 42
51 46 42
50 46 42
48 44 41
19 71 36
4 34 26
11 77 42
5 36 27
5 38 29
9 65 36
5 35 27
6 45 33
5 38 29
36 43 37
54 49 45
54 49 45
55 50 46
54 50 46
55 50 46
54 50 45
55 50 46
55 50 46
55 51 47
55 50 46
55 50 46
56 51 47
55 51 46
56 51 47
56 51 47
55 50 46
56 51 47
91 60 70
125 86 98
133 90 101
138 93 104
140 95 105
139 94 104
137 93 103
132 90 101
126 86 98
102 75 87
101 87 92
113 99 102
114 100 103
113 99 102
109 95 99
75 69 67
50 47 37
44 43 32
44 43 32
46 47 33
45 46 32
41 41 29
40 41 29
36 37 28
48 44 40
46 42 39
52 47 43
52 48 44
52 48 44
53 49 44
54 50 46
50 48 43
77 80 70
96 101 87
101 107 90
104 109 92
105 110 92
104 109 91
102 107 90
98 104 88
90 96 83
74 77 67
49 49 44
56 51 47
56 51 47
55 50 46
56 51 47
56 51 47
55 50 46
56 51 47
56 51 47
56 51 47
56 51 47
56 51 47
55 50 46
55 50 46
54 49 46
55 51 47
55 50 46
55 51 47
53 48 45
54 49 45
54 50 46
55 50 46
55 50 46
98 64 33
102 66 32
102 66 32
102 66 32
101 65 32
105 68 33
105 68 33
123 77 35
107 69 34
105 68 33
106 68 33
108 70 34
106 68 33
103 66 32
108 69 34
104 67 33
106 68 34
107 69 34
106 68 33
107 69 34
107 69 34
107 69 34
108 70 34
107 69 33
108 69 34
107 69 34
107 69 34
102 66 32
159 100 39
108 70 34
159 101 39
159 101 39
160 101 40
196 123 44
106 68 33
160 102 40
109 70 34
157 100 39
158 100 39
159 101 39
197 124 44
231 145 49
159 101 39
160 101 40
105 68 33
255 193 61
230 144 49
157 99 39
228 143 48
255 192 60
229 144 49
197 124 44
156 99 39
228 143 48
193 123 43
155 98 38
61 59 29
29 85 33
29 86 34
48 140 46
43 126 43
19 56 28
29 87 35
47 82 43
55 50 46
56 51 47
56 51 47
55 51 47
56 51 47
56 51 47
55 50 46
54 50 46
55 50 46
55 50 46
54 49 45
52 48 44
54 49 45
54 50 46
55 50 46
56 51 46
46 48 35
39 47 22
38 46 21
42 51 24
41 49 23
126 150 45
112 133 42
139 166 50
138 164 49
72 87 31
111 132 41
85 76 57
59 53 49
65 60 53
58 53 49
55 50 46
52 48 44
73 71 62
60 54 49
55 50 46
54 49 45
55 50 46
55 50 46
56 51 47
55 50 46
55 51 46
54 49 45
55 50 46
56 51 47
56 51 47
55 51 46
56 51 47
56 51 47
54 49 46
56 51 47
56 51 47
56 51 47
55 51 47
56 51 47
56 51 47
56 51 47
55 50 46
56 51 47
56 51 47
55 50 47
56 51 47
56 51 47
56 51 47
55 50 46
56 51 47
56 51 47
56 51 47
56 51 47
55 51 47
55 50 46
54 49 45
81 72 54
56 51 47
56 51 47
56 51 47
55 51 47
55 50 46
55 50 47
56 51 47
55 50 46
55 51 46
54 49 45
54 50 46
55 50 46
58 53 47
55 50 46
54 49 45
54 50 46
54 49 45
54 49 45
54 50 46
48 45 42
87 80 54
50 47 45
148 133 83
149 134 84
130 118 74
148 134 84
89 82 61
110 100 67
51 47 45
49 45 42
55 50 46
54 49 45
53 49 45
55 50 46
55 50 46
55 50 46
55 50 46
56 51 47
81 72 54
56 51 47
55 50 46
56 51 47
56 51 47
56 51 47
55 51 46
55 50 46
56 51 47
55 50 46
55 50 46
56 50 46
54 49 45
56 50 46
137 49 28
144 48 24
183 60 27
217 72 32
144 48 24
97 33 21
148 49 25
99 33 22
94 32 21
92 31 20
84 35 27
56 51 47
56 50 46
56 51 47
55 50 46
56 51 47
56 51 47
56 51 47
56 51 47
56 51 47
56 51 47
56 51 47
56 51 47
56 51 47
56 51 47
55 50 46
56 51 47
56 51 47
56 51 47
56 51 47
55 50 46
56 51 47
55 50 46
56 51 47
56 51 46
53 49 44
84 85 70
122 116 97
128 122 100
133 126 102
136 129 104
136 129 104
135 127 103
130 123 101
123 117 97
81 67 58
53 49 44
50 46 42
52 48 43
52 47 43
53 48 43
51 46 42
53 49 44
53 48 44
54 49 45
53 48 44
51 47 43
55 50 46
49 44 41
45 39 36
42 38 35
40 36 33
24 21 19
21 18 17
18 12 12
24 13 14
27 17 17
27 20 19
28 24 23
41 36 34
44 40 37
45 40 37
52 47 43
51 46 42
54 49 45
54 49 45
81 73 54
56 51 47
56 51 47
55 50 46
55 50 46
56 50 46
56 51 47
56 51 47
55 51 46
55 50 47
55 50 46
56 51 46
55 50 46
55 50 46
56 51 47
56 51 47
56 51 47
55 50 46
54 49 45
54 50 46
53 49 45
54 49 45
51 46 42
54 49 45
48 45 41
45 41 38
44 41 37
37 34 31
29 27 25
23 21 20
18 17 15
8 9 8
18 17 15
26 24 22
33 30 28
38 35 32
44 40 37
49 45 41
47 43 40
47 43 40
46 42 39
48 44 40
42 39 36
38 38 34
8 27 21
14 97 45
10 73 37
4 33 25
4 35 26
3 27 21
5 37 27
26 36 30
48 45 41
52 48 44
55 50 46
54 49 45
54 49 45
56 51 47
55 50 46
55 51 46
56 51 47
56 51 47
56 51 47
55 51 46
56 51 47
56 51 47
56 51 47
56 51 47
56 51 47
54 49 45
71 47 59
119 81 95
127 87 99
131 89 100
130 89 100
131 89 100
122 82 99
118 77 100
110 76 97
108 93 99
116 101 104
120 105 106
121 106 107
120 105 106
117 102 104
110 97 101
85 77 78
34 32 27
36 35 26
35 35 26
38 38 28
35 36 26
34 33 27
33 30 27
41 38 35
46 43 39
47 43 39
52 48 44
52 48 43
54 49 45
54 50 45
46 44 39
60 58 56
91 95 85
96 102 87
99 104 89
99 104 89
97 101 86
79 75 59
85 88 75
65 69 59
43 47 41
44 44 40
55 51 47
56 51 47
55 50 46
55 50 46
55 50 46
55 51 46
55 50 46
55 51 46
56 51 47
56 51 47
56 51 47
55 50 46
55 50 46
55 50 46
54 49 45
55 49 45
55 51 47
55 50 46
54 50 46
55 50 46
56 51 47
78 57 40
105 67 33
102 66 32
104 67 33
105 68 33
105 67 33
104 67 33
104 67 33
104 67 33
105 67 33
105 68 33
108 70 34
105 68 33
103 67 33
106 68 33
104 67 33
104 67 33
106 68 33
107 68 33
110 71 34
108 69 34
107 69 34
108 70 34
105 68 33
106 68 33
109 70 34
107 69 34
198 124 44
106 68 33
106 68 33
107 69 34
105 67 33
108 70 34
105 68 33
107 69 34
230 144 49
156 99 39
106 68 33
160 101 40
230 144 49
108 69 34
230 145 49
255 162 53
198 125 45
113 72 34
255 162 53
196 123 44
255 178 57
230 144 49
229 144 49
230 144 49
156 99 38
229 144 49
156 99 39
102 66 32
232 146 49
225 141 47
149 96 37
42 122 40
42 123 41
36 105 37
58 167 53
48 141 47
28 82 31
42 104 40
56 51 47
55 50 46
55 51 47
55 50 46
54 50 46
54 50 45
55 50 46
55 50 46
81 72 54
56 51 47
55 50 46
53 48 44
79 71 52
55 50 46
53 49 45
52 47 43
75 83 42
68 82 28
33 40 18
61 61 22
69 82 27
70 84 29
125 148 44
180 214 60
145 174 49
92 110 35
74 85 35
52 45 45
58 52 48
58 52 49
73 66 58
91 82 72
127 125 92
111 103 83
55 50 46
54 49 45
54 49 46
80 72 54
56 51 46
56 51 46
54 49 45
55 50 46
55 50 46
56 51 47
55 50 46
55 50 46
56 51 47
56 51 47
56 51 47
56 51 47
56 51 46
56 51 47
55 50 46
55 50 47
56 51 47
56 51 47
55 50 46
56 51 47
56 51 47
56 51 47
56 51 47
56 51 47
56 51 47
56 51 47
56 51 47
56 51 47
55 50 46
56 51 47
56 51 47
55 50 46
56 51 47
56 51 47
56 51 47
55 50 46
55 51 47
56 51 47
55 50 46
81 73 55
56 51 47
56 51 47
56 51 47
55 50 46
55 50 46
56 51 47
80 72 54
54 50 46
54 49 46
55 50 46
53 49 45
52 47 44
53 48 44
54 49 46
45 41 38
53 48 41
85 77 52
82 74 52
48 43 41
146 132 80
128 116 72
141 125 76
108 97 62
46 43 41
44 40 38
55 50 46
54 49 45
56 51 47
55 50 46
55 50 46
56 51 47
55 50 46
56 51 47
55 50 46
56 51 47
55 50 46
56 51 47
56 51 47
56 51 47
56 51 47
56 51 47
55 51 46
55 50 46
56 51 47
55 50 46
55 50 46
55 50 46
179 59 27
135 44 21
214 70 30
214 71 30
213 71 30
89 30 19
146 49 24
127 40 21
89 30 19
82 28 18
75 31 24
55 50 46
55 50 46
56 50 46
56 51 47
56 51 47
56 51 47
56 51 46
55 50 46
56 51 47
55 50 46
78 72 54
55 50 46
56 51 46
56 51 47
56 51 47
56 50 46
56 51 47
56 51 47
55 51 46
56 51 47
56 51 47
55 50 46
55 50 46
56 51 47
52 48 43
61 49 41
98 83 70
120 113 93
238 220 132
128 122 100
128 122 100
127 121 100
125 119 98
114 109 92
61 54 45
54 49 45
53 49 45
56 51 47
55 50 46
54 50 45
54 50 46
54 50 45
56 51 47
56 51 46
54 49 45
55 50 46
53 48 44
52 47 43
79 54 45
49 44 41
44 39 37
33 29 27
32 29 27
23 19 18
28 25 23
27 24 23
34 30 29
34 30 28
38 34 31
45 40 37
46 41 38
52 47 43
53 48 44
53 48 44
55 50 46
54 49 45
56 51 47
56 51 47
56 50 46
55 50 46
56 51 47
56 51 47
56 51 47
56 51 47
56 51 47
56 51 47
56 51 47
56 51 47
55 50 46
55 50 47
56 51 47
56 51 47
56 51 47
55 50 46
55 51 46
55 51 46
53 48 44
53 48 44
52 48 44
49 45 41
52 48 43
45 42 38
43 39 36
41 38 35
37 34 31
34 32 29
31 29 27
30 28 26
30 28 26
35 33 30
42 39 36
43 40 36
44 40 37
51 47 43
48 45 41
38 36 33
39 36 33
36 33 30
30 28 26
24 24 22
13 20 17
8 24 19
3 27 21
4 32 24
13 24 20
29 31 27
48 44 40
50 46 42
47 43 40
53 49 45
52 47 43
55 50 46
55 50 46
56 51 47
56 51 47
55 50 46
55 50 46
56 51 46
55 51 47
56 51 47
56 51 47
56 51 47
55 51 46
56 51 46
56 50 47
53 36 44
78 49 58
98 63 75
108 72 84
110 74 86
109 73 85
104 68 89
103 63 91
105 87 97
112 98 102
118 103 105
121 106 107
122 106 107
121 105 107
117 103 105
112 98 102
104 92 97
54 47 50
26 27 21
19 19 14
23 23 17
21 20 17
21 20 18
29 27 25
42 38 35
43 40 36
47 43 39
50 46 42
51 47 43
54 49 45
53 48 44
49 46 42
42 42 43
66 68 64
81 85 74
89 89 77
87 92 80
86 91 79
87 48 32
32 24 17
35 36 32
39 41 38
45 45 41
55 50 46
55 50 46
55 50 46
56 51 47
55 50 46
54 50 46
56 51 47
56 51 47
55 50 46
55 51 46
55 50 46
54 49 45
54 49 45
53 37 33
54 27 22
53 17 8
53 18 10
52 25 20
53 41 37
56 50 46
54 50 45
88 60 37
101 65 32
103 67 33
98 63 31
101 65 32
103 67 33
102 66 32
104 67 33
104 67 33
106 68 33
107 69 34
106 68 33
103 67 33
106 68 33
105 67 33
157 99 38
106 68 33
107 69 34
109 70 34
107 68 33
107 69 34
107 68 34
107 69 34
105 68 33
105 68 33
107 69 34
107 69 34
104 67 33
160 101 40
106 69 33
106 68 33
159 101 40
106 69 34
107 69 34
107 69 34
198 124 44
107 69 34
159 101 40
163 103 40
230 144 49
231 145 50
196 123 44
255 162 53
255 162 53
255 162 53
255 163 53
255 161 53
197 124 44
255 164 54
105 68 33
229 144 49
195 123 43
255 177 57
157 99 39
255 177 57
255 178 57
228 151 48
94 60 30
55 50 24
27 78 29
35 103 36
36 104 36
27 80 30
42 122 41
26 78 29
54 49 45
55 50 46
81 73 55
55 51 46
55 51 46
55 50 46
54 50 46
55 50 46
53 48 44
54 49 46
55 50 46
53 48 44
54 49 45
55 50 46
52 48 44
51 47 43
51 46 42
30 35 20
40 46 20
65 78 25
91 109 34
109 130 39
125 149 44
109 130 39
107 127 38
42 50 21
97 103 62
117 105 95
114 104 92
118 106 97
117 107 95
127 117 102
111 102 89
57 52 48
53 48 44
55 50 46
53 49 45
55 50 46
55 50 46
56 51 47
81 73 54
56 51 47
55 50 46
55 50 46
55 50 46
56 51 47
56 51 47
55 50 46
56 51 47
56 51 47
56 51 47
56 51 47
56 51 47
56 51 47
56 51 46
56 51 47
56 51 47
55 51 47
56 51 47
56 51 47
56 51 46
55 50 46
56 51 47
56 51 47
56 51 47
55 50 46
56 51 47
81 72 54
56 51 47
56 51 47
55 50 47
55 50 46
56 51 47
56 51 47
56 51 47
56 51 47
56 51 47
56 51 47
56 51 47
56 51 47
56 51 47
56 51 47
54 50 46
54 50 46
55 50 46
56 50 46
55 50 46
54 49 45
53 49 45
54 49 45
50 45 42
47 43 39
47 43 40
34 32 31
143 129 76
118 100 60
82 74 52
105 95 60
44 40 38
127 114 70
37 33 32
38 34 33
50 46 42
79 71 52
54 49 45
54 49 45
53 49 45
55 50 46
56 51 47
55 51 47
55 50 46
55 50 46
56 51 47
56 51 47
54 49 45
55 50 46
56 51 47
56 51 47
55 49 46
55 50 46
55 50 46
55 50 46
55 50 46
55 49 45
55 50 46
130 46 26
174 57 25
161 49 21
213 70 30
177 58 26
82 27 17
121 38 19
74 25 16
79 27 17
71 24 16
66 34 28
54 48 45
53 48 44
56 51 46
56 51 47
55 50 46
80 72 53
56 51 47
56 51 47
56 51 47
56 51 47
55 50 46
55 50 46
56 51 47
56 51 47
55 50 46
55 50 46
56 51 47
56 51 47
55 51 46
56 51 47
56 51 47
55 51 47
54 50 46
56 51 47
54 50 45
52 46 40
64 53 41
255 255 167
255 255 255
184 171 111
113 107 88
116 110 92
99 93 80
103 91 70
51 49 42
54 50 45
55 50 46
56 51 46
55 50 46
54 49 45
56 51 47
54 49 45
56 51 47
55 50 46
55 50 46
55 50 46
53 48 44
55 50 46
53 48 44
68 51 45
64 47 41
74 66 47
46 41 38
41 36 34
44 39 36
70 62 42
73 65 45
44 39 36
46 41 38
45 40 37
52 47 43
50 45 41
53 48 44
55 50 46
55 50 46
55 50 46
56 51 47
56 50 46
56 51 47
56 51 47
56 51 47
81 72 54
55 50 46
56 51 47
56 51 47
55 50 46
55 50 46
56 51 47
56 51 47
56 51 47
56 51 47
55 50 46
56 51 47
56 51 47
56 51 47
56 51 47
55 50 46
55 50 46
53 48 44
54 49 45
54 49 45
51 46 42
48 44 41
46 42 38
49 45 41
44 40 37
46 42 39
44 40 37
44 40 37
45 42 38
49 45 41
47 44 40
47 43 40
48 44 40
50 46 42
48 51 42
45 42 38
42 39 35
30 28 26
29 27 25
16 15 14
10 10 9
10 11 10
19 19 17
30 29 26
35 32 29
39 36 33
49 45 41
48 45 41
51 46 43
55 50 46
53 48 44
54 50 46
54 50 46
55 50 46
55 51 46
55 50 46
54 50 46
55 50 46
56 51 47
56 51 47
56 51 47
55 50 46
56 50 47
56 51 47
54 40 44
54 36 44
54 36 44
55 34 41
62 42 49
57 36 41
49 32 43
67 46 61
103 91 97
111 98 101
116 101 104
119 103 105
119 104 106
117 102 105
114 100 103
110 96 101
101 91 96
57 55 57
35 30 32
21 19 18
23 21 19
21 19 18
28 25 23
37 34 31
41 38 34
48 44 40
48 44 41
51 47 43
53 49 44
54 49 45
55 50 46
53 48 44
34 35 32
34 35 33
40 40 36
61 63 55
54 57 49
47 49 45
38 39 36
35 36 33
38 39 36
40 42 38
48 46 43
53 49 45
54 50 46
54 50 46
55 50 46
55 50 46
55 50 46
55 50 46
56 51 47
56 51 47
54 50 46
55 50 46
55 48 44
53 28 23
52 17 8
53 17 8
52 17 8
52 17 8
51 16 8
47 15 7
51 28 24
57 48 43
93 60 30
97 63 31
103 66 32
101 65 32
100 64 31
102 65 32
101 66 32
104 67 33
105 68 33
104 67 33
106 68 33
104 67 33
103 66 32
101 65 32
103 67 33
105 68 33
103 66 32
108 70 34
106 68 33
105 67 33
107 69 34
106 69 34
107 69 34
103 66 32
106 68 33
104 67 33
104 67 33
107 69 34
107 69 33
109 70 34
158 100 39
105 68 33
159 101 39
106 69 34
158 100 39
198 125 45
105 68 33
103 67 33
255 162 53
255 162 53
105 68 33
106 68 33
163 103 39
255 177 57
228 143 48
158 100 39
229 144 49
255 180 58
255 178 57
255 205 64
255 192 61
255 178 57
255 177 56
228 143 48
228 143 48
194 122 43
191 120 42
255 175 56
76 84 32
27 77 28
14 42 20
25 75 26
41 122 39
35 104 35
24 46 25
52 48 44
55 50 46
53 49 45
54 49 45
54 49 45
55 51 47
54 50 46
55 50 46
56 51 47
53 49 45
54 50 46
55 50 46
56 51 47
52 48 44
52 47 43
50 46 42
50 45 41
39 38 31
66 77 23
23 29 13
37 45 19
107 127 37
91 108 33
135 160 46
110 131 38
68 81 26
58 54 46
100 92 79
120 110 94
123 113 97
117 107 92
106 96 75
54 49 45
55 50 46
54 49 45
52 48 44
55 50 46
55 50 46
55 50 46
55 50 46
55 50 46
54 49 45
55 50 46
55 50 46
56 51 47
56 51 47
81 72 54
55 51 46
56 51 47
56 51 47
56 51 47
56 51 47
56 51 46
55 50 47
55 50 47
55 50 46
56 52 46
55 55 43
56 54 43
56 51 46
56 51 47
56 51 47
56 51 47
56 51 47
56 51 47
56 51 47
56 51 47
56 51 47
56 51 47
56 51 47
56 51 47
56 50 46
56 51 46
56 51 47
55 50 46
55 50 46
56 51 47
56 51 47
56 51 47
56 51 47
81 72 54
54 49 46
56 51 47
55 50 46
55 50 46
54 49 46
54 50 46
54 49 45
55 50 46
53 48 45
51 46 43
46 42 39
48 44 41
42 39 37
30 27 27
77 70 47
125 113 68
37 34 33
31 29 29
77 70 46
35 32 31
36 33 31
45 41 38
47 43 40
48 44 40
78 70 51
54 49 45
55 50 46
54 49 46
56 51 47
57 52 47
56 51 47
61 65 49
81 73 54
56 51 46
55 50 46
55 50 46
56 51 47
55 50 46
56 51 47
54 48 44
54 49 45
54 49 45
52 47 43
52 47 43
56 39 35
126 41 18
131 43 20
130 42 19
69 21 13
78 24 15
54 18 11
63 21 13
62 20 13
56 19 12
53 44 40
54 49 45
53 48 44
56 51 47
54 49 45
54 49 45
56 51 47
55 50 46
56 51 47
55 50 46
56 51 47
55 50 46
56 51 47
56 51 47
56 51 47
56 51 47
56 51 47
56 51 47
56 51 47
56 51 47
56 51 47
55 51 46
55 51 47
54 50 45
55 51 46
53 49 44
52 49 43
50 47 41
50 47 41
210 192 99
179 154 80
69 65 55
62 53 46
53 46 41
49 46 41
52 50 44
54 50 46
55 50 46
54 50 46
56 51 47
55 51 46
70 54 48
56 50 46
55 50 46
55 50 46
54 50 46
54 49 45
55 50 46
53 48 45
55 50 46
68 52 45
55 50 46
54 49 45
51 46 42
48 43 40
52 47 43
50 45 42
49 44 41
48 44 40
53 48 44
50 45 42
52 47 43
54 49 45
56 51 46
55 50 46
56 51 47
54 49 45
55 49 45
56 51 47
55 50 46
55 50 46
56 51 47
56 51 47
55 50 46
56 51 47
56 51 47
56 51 47
56 51 47
56 51 47
55 51 46
56 51 47
56 51 47
55 50 46
55 51 46
55 51 46
56 51 47
56 51 47
56 51 47
56 51 47
55 50 46
55 51 46
54 50 46
65 62 49
55 50 46
53 48 44
49 45 41
51 47 43
53 48 44
47 43 39
49 45 41
49 45 41
51 47 43
52 48 44
49 45 41
53 48 44
49 45 41
49 45 41
48 44 40
46 43 39
42 38 35
36 34 31
34 31 29
29 27 25
30 28 26
27 25 23
30 29 26
36 34 31
42 39 35
41 38 35
52 48 44
52 48 44
50 47 43
50 46 42
54 50 46
54 49 45
53 49 45
56 51 47
56 51 47
54 50 46
56 51 47
56 51 47
56 51 47
56 51 47
56 51 47
55 50 46
56 50 46
55 47 46
53 36 43
53 36 44
53 35 43
53 35 43
50 33 41
47 31 40
41 30 40
93 82 90
106 93 98
110 96 100
112 98 102
113 99 102
111 98 101
94 78 78
96 82 85
82 75 79
47 44 49
34 30 32
30 28 26
37 34 31
43 39 37
41 37 34
47 43 40
46 42 39
51 47 43
51 47 43
50 46 42
52 47 44
53 49 45
53 49 45
53 48 44
46 45 41
38 40 36
39 41 38
40 42 38
40 42 39
40 42 38
40 42 38
40 42 39
38 40 37
39 40 37
50 46 43
53 49 45
53 48 45
53 49 45
54 50 46
55 50 46
55 50 46
55 50 46
54 49 45
56 51 46
56 51 47
55 50 46
51 36 31
51 17 8
52 17 8
51 17 8
51 17 8
52 17 8
47 15 7
48 15 7
46 15 7
68 40 23
97 63 31
102 66 32
99 64 32
100 65 32
101 65 32
102 66 32
102 66 32
101 64 32
103 67 33
107 69 34
106 68 33
104 67 33
105 68 33
103 67 33
105 68 33
104 67 33
103 67 33
101 65 32
103 66 33
104 67 33
105 68 33
107 69 34
104 67 33
104 67 33
104 67 33
105 68 33
196 123 44
105 67 33
198 124 44
106 68 33
158 100 39
154 97 38
106 68 33
157 99 39
159 101 40
107 69 33
197 124 44
196 124 44
157 100 39
159 101 40
230 145 49
198 124 45
196 123 44
157 100 39
229 144 49
255 162 53
230 144 49
255 177 56
197 124 44
255 218 67
197 124 44
228 143 48
255 177 56
227 142 48
231 145 49
255 160 52
255 162 52
253 158 51
191 121 41
18 60 18
12 38 19
11 36 18
14 42 21
25 75 27
34 43 32
52 48 44
51 47 43
79 71 52
54 50 46
55 50 46
52 48 44
54 49 45
53 48 44
53 49 45
55 50 46
55 50 46
55 50 46
54 49 45
49 45 41
51 47 43
50 46 42
42 39 35
43 40 37
32 30 26
62 73 22
63 75 23
86 102 30
65 78 25
87 103 30
98 108 38
69 62 41
39 36 33
48 44 40
55 50 45
53 49 44
52 48 43
52 47 43
54 49 45
53 48 45
54 49 45
54 49 45
79 71 52
55 51 46
56 51 47
55 50 46
55 51 46
56 51 47
56 51 47
56 51 47
56 51 47
55 51 47
54 49 45
55 50 46
56 51 47
56 51 46
55 50 46
56 51 47
56 51 47
55 51 46
55 53 44
55 61 35
55 65 30
55 66 29
55 66 29
55 66 29
55 59 38
56 52 45
56 51 47
55 50 46
56 51 47
55 50 46
56 51 47
55 51 47
56 51 47
56 51 47
56 51 47
56 51 47
56 51 47
81 73 54
55 50 46
56 51 47
56 51 47
55 50 46
55 50 45
55 50 46
56 51 47
56 51 47
55 50 46
54 50 46
54 50 46
55 50 46
55 50 46
54 49 45
51 47 43
55 50 46
48 44 40
49 44 41
43 39 36
35 32 30
28 25 24
74 67 42
25 23 23
101 91 54
30 28 27
102 92 55
29 27 26
41 37 35
74 66 47
77 69 50
53 48 44
52 47 43
54 49 45
55 50 46
54 49 45
55 50 46
54 49 45
55 50 46
56 50 46
55 50 46
55 50 46
53 48 44
55 49 45
56 51 47
53 49 45
55 49 45
56 51 47
55 50 46
53 48 44
50 45 41
65 52 41
88 63 41
150 77 42
94 64 37
141 66 35
77 43 25
91 29 13
49 15 10
53 16 10
52 17 11
45 26 22
50 44 40
52 46 42
62 55 46
76 67 48
89 79 52
87 77 52
77 68 50
61 55 47
55 50 46
55 50 46
56 51 47
56 51 47
56 51 47
56 51 47
56 51 47
56 51 47
56 51 47
56 51 47
56 51 47
53 49 45
56 51 46
56 51 47
55 50 46
55 50 46
53 49 45
53 48 44
50 47 41
52 49 43
50 48 42
52 49 43
51 49 43
52 49 43
53 50 44
52 49 43
51 48 42
53 49 44
56 51 47
55 50 46
55 50 46
56 51 46
56 51 47
55 51 46
56 51 47
56 51 47
56 51 47
56 51 47
55 50 46
55 50 46
54 49 45
53 48 44
54 49 46
69 53 47
55 50 46
55 50 46
68 53 46
53 48 44
53 48 45
54 48 44
54 49 45
54 48 45
54 49 45
54 49 45
55 50 46
54 49 45
56 51 47
55 50 46
55 50 46
55 50 46
55 49 46
56 51 47
56 51 47
56 51 47
56 51 47
56 51 47
56 51 47
56 51 47
56 51 47
56 51 47
56 51 47
55 51 46
56 51 47
54 50 46
55 50 46
56 51 47
56 51 47
56 51 47
55 50 46
54 49 45
55 51 46
54 49 45
55 50 46
55 50 46
56 51 47
54 49 45
53 49 45
56 51 47
53 49 45
53 49 45
54 50 45
52 47 43
55 50 46
52 48 44
51 47 43
54 55 47
54 49 45
53 51 45
54 50 46
49 46 42
47 43 40
48 44 41
49 45 41
46 42 39
43 39 36
35 33 30
36 33 30
42 38 35
45 42 38
48 44 41
46 42 39
50 46 42
49 45 41
52 48 44
53 49 45
54 49 45
56 51 47
55 51 46
54 49 45
56 51 47
56 51 47
55 51 47
56 51 47
55 51 47
56 51 47
55 50 46
55 50 46
54 49 46
54 49 45
53 43 44
50 34 41
51 34 42
52 34 42
49 32 40
47 30 38
41 31 38
61 47 53
94 79 86
102 89 96
101 88 94
103 91 97
99 88 93
68 58 56
50 40 41
38 31 33
37 33 37
44 40 41
45 41 38
49 44 41
48 43 40
48 43 40
51 46 43
52 48 44
53 48 44
53 49 45
53 49 45
55 50 46
54 50 45
52 48 44
51 47 43
51 47 43
43 43 40
37 40 36
38 40 37
38 40 37
38 40 36
36 38 35
36 37 34
32 35 32
32 32 30
44 41 38
57 58 44
51 47 43
52 48 44
55 50 46
54 49 45
55 50 46
55 51 46
55 51 47
55 50 46
56 51 47
54 47 42
48 16 8
50 16 8
49 16 8
49 16 8
48 15 7
47 15 7
49 16 8
45 14 7
44 13 6
72 43 21
100 64 32
93 60 30
95 61 30
96 62 31
103 66 33
102 66 32
99 64 32
101 65 32
101 65 32
103 67 33
136 75 34
104 67 33
104 67 33
104 67 33
102 66 32
104 67 33
103 66 32
102 66 32
107 69 34
104 67 33
106 68 33
107 69 34
105 67 33
103 67 33
156 99 38
100 65 32
106 68 33
159 100 40
228 143 48
104 67 33
106 68 33
157 99 39
107 69 34
196 123 44
197 124 44
158 100 39
197 124 44
158 100 39
229 144 49
255 177 57
236 147 50
255 191 60
155 98 38
229 143 49
228 143 48
255 177 57
255 161 53
255 206 64
232 145 49
203 132 44
255 194 61
255 205 64
255 205 64
255 161 53
199 125 44
199 125 44
224 141 47
255 205 63
225 141 47
71 102 33
44 118 39
39 42 34
51 54 41
41 47 38
95 96 60
46 43 39
50 46 42
50 46 42
55 50 45
55 50 46
52 48 44
54 49 45
55 50 46
56 51 46
56 51 47
55 50 46
54 49 45
53 49 45
80 72 53
44 41 37
48 44 40
73 65 46
42 38 35
32 29 26
25 23 21
19 24 11
20 22 14
14 17 9
27 31 12
19 19 15
31 29 26
43 39 36
45 41 38
48 44 40
51 47 43
54 50 46
53 48 44
51 47 43
55 50 46
79 71 53
55 50 46
55 51 47
55 51 47
55 50 46
54 50 45
55 50 46
55 50 46
55 50 46
81 73 54
56 51 47
56 51 47
56 51 47
56 51 47
56 51 47
56 51 47
55 51 46
56 51 47
56 51 47
56 52 45
52 62 28
70 74 28
54 65 28
54 65 28
71 75 29
98 115 37
79 93 33
53 63 30
55 52 45
81 73 55
56 51 47
56 51 47
56 51 47
56 51 47
56 51 47
56 51 47
55 50 46
55 51 47
56 51 47
56 51 47
55 51 47
55 51 47
56 51 47
56 51 47
56 51 47
81 72 54
56 51 47
56 51 47
56 51 47
56 51 47
55 50 46
56 51 46
55 50 46
54 49 45
54 50 46
53 48 44
53 48 44
47 43 40
44 40 37
34 31 29
32 29 27
19 17 17
17 16 16
16 15 15
14 13 13
16 14 13
28 26 24
35 32 30
43 39 36
47 43 40
51 46 43
50 45 42
53 48 44
53 49 45
54 49 46
53 48 45
54 49 45
56 51 47
55 50 46
56 51 46
56 51 47
65 51 46
55 50 46
56 51 46
56 51 47
54 49 45
54 49 45
51 46 42
49 44 40
80 60 42
103 71 42
103 72 42
189 129 56
152 104 50
106 74 43
104 72 42
80 53 31
40 13 8
37 12 8
40 26 24
39 34 32
47 42 39
75 66 47
91 81 52
92 81 52
92 81 53
92 81 53
91 80 52
90 80 52
69 62 49
56 51 46
70 57 47
55 50 46
56 51 47
56 51 47
56 51 47
55 50 46
56 51 47
55 50 46
54 50 46
55 51 46
55 50 46
56 51 47
52 48 44
54 49 45
48 44 41
49 46 42
45 42 38
44 42 37
49 47 41
50 47 42
53 51 43
50 47 41
73 69 49
48 46 40
45 42 38
51 47 43
53 49 45
55 50 46
55 50 46
54 49 45
56 51 47
56 51 47
54 49 45
56 51 47
56 51 47
56 51 47
55 50 46
55 50 46
56 51 47
56 51 47
55 50 46
55 50 46
55 50 46
55 50 46
54 49 46
55 50 46
54 49 45
56 51 47
60 54 51
67 58 58
71 60 61
79 66 68
69 59 59
55 49 46
56 51 47
56 51 47
56 51 47
56 51 47
55 50 46
55 50 46
56 51 47
55 50 46
55 50 46
55 50 46
56 51 47
56 51 47
55 50 46
56 51 47
56 51 47
56 51 47
56 51 47
56 51 47
56 51 47
55 50 46
56 51 47
56 51 47
56 51 47
55 50 46
55 50 46
56 51 47
56 51 47
55 51 46
53 49 45
55 50 46
55 50 46
55 50 46
55 50 46
54 49 45
56 51 47
55 50 46
56 51 47
56 51 47
56 51 47
55 50 46
54 49 45
54 49 46
53 49 45
52 48 44
53 49 44
48 44 41
55 50 46
48 44 40
53 48 45
53 49 45
47 44 40
51 47 43
49 45 41
51 46 43
52 48 44
51 47 43
53 48 45
55 50 46
53 48 44
54 49 45
55 51 46
55 51 46
56 51 47
54 49 45
54 49 45
56 51 47
56 51 47
56 50 47
55 50 46
54 48 46
55 49 46
52 47 44
52 46 44
51 44 43
49 41 41
43 29 35
37 23 31
41 26 34
38 24 32
30 24 29
45 39 44
47 39 44
58 44 50
52 36 40
113 71 57
59 52 54
67 59 63
45 39 43
45 39 44
43 38 43
50 45 44
50 46 43
52 47 43
51 46 43
51 47 43
54 49 45
53 48 45
56 51 47
54 49 45
52 47 44
54 49 46
54 49 46
54 49 45
52 48 44
51 47 43
49 46 42
35 34 32
29 31 29
30 32 29
30 32 30
28 30 27
23 25 23
31 30 28
36 34 32
41 38 35
46 43 40
52 48 44
52 48 44
52 48 44
54 49 45
56 51 47
54 50 46
54 50 46
56 51 47
55 50 46
51 40 36
46 15 7
47 15 7
47 15 8
47 15 7
45 14 7
46 15 7
42 13 6
42 12 6
39 10 5
88 56 27
133 76 30
100 64 31
93 60 30
98 63 31
100 64 31
98 63 31
99 64 31
104 67 33
101 65 32
103 66 32
103 66 33
101 65 32
104 67 33
105 67 33
99 64 32
104 67 33
103 66 33
103 67 33
106 69 34
105 68 33
103 66 33
104 67 33
106 68 33
164 104 40
158 100 39
104 67 33
106 69 33
103 66 32
159 100 39
106 68 33
103 67 33
102 65 32
106 69 34
104 68 33
195 123 43
167 101 41
158 100 39
156 99 39
196 123 44
158 100 39
255 161 53
255 161 53
255 161 52
255 192 61
229 144 49
255 177 57
255 218 67
255 210 65
255 177 57
255 205 63
255 229 70
255 193 60
255 161 53
255 193 60
255 242 73
255 160 52
224 141 47
255 211 64
253 158 51
141 94 38
65 58 53
58 53 47
82 73 55
57 52 48
68 62 56
94 85 67
46 42 39
78 70 51
52 48 44
51 47 43
80 75 53
56 51 47
56 51 47
55 50 46
54 49 45
54 49 45
52 47 43
52 47 43
52 47 43
78 70 51
46 42 39
45 41 37
40 37 33
71 63 43
33 30 27
22 21 19
23 21 19
23 21 19
31 28 26
40 33 29
92 82 52
47 46 35
49 45 41
49 45 41
53 49 45
53 48 45
55 50 46
53 48 45
55 50 46
54 49 46
56 51 47
55 50 46
56 50 46
56 51 47
55 50 46
54 49 45
56 51 47
56 51 47
58 52 46
56 51 47
55 50 46
55 51 46
56 51 47
56 51 47
55 51 46
55 51 46
56 51 47
56 51 47
66 52 39
96 38 46
85 46 42
72 52 36
115 132 41
99 116 38
79 93 33
78 91 32
78 91 32
77 76 43
56 51 47
55 50 46
56 51 47
56 51 47
81 72 54
55 50 46
81 72 54
56 51 47
56 51 47
56 51 47
56 51 47
56 51 47
56 51 47
55 50 46
56 51 47
56 51 47
55 50 46
56 51 47
55 50 46
56 51 47
54 49 45
56 51 47
54 49 45
55 50 46
53 48 45
55 50 46
53 48 44
52 47 43
47 43 40
41 38 35
44 40 37
32 30 28
68 60 40
26 23 22
29 27 25
29 27 25
30 27 25
44 40 33
42 39 36
45 41 38
48 44 41
52 48 44
54 49 45
54 49 45
56 51 47
55 50 46
54 49 45
56 51 47
54 49 45
55 50 46
56 51 47
55 50 46
55 50 46
56 51 47
56 51 47
56 50 46
71 52 47
53 48 44
52 47 43
133 93 47
218 148 61
152 104 50
188 128 56
218 148 61
103 71 42
151 103 49
153 105 50
101 70 41
73 50 30
23 16 15
36 31 29
40 35 32
120 102 51
132 114 60
132 114 60
90 80 52
134 116 61
165 142 68
90 79 52
88 77 50
90 79 52
68 60 47
55 50 46
56 51 47
56 50 46
56 51 47
56 51 47
55 51 46
55 50 46
55 50 46
55 50 46
55 50 46
55 50 46
54 50 46
53 48 44
51 47 43
51 47 43
47 43 39
41 38 35
38 36 33
33 32 28
66 63 41
65 62 41
42 40 35
41 39 35
39 37 33
49 45 41
50 46 43
53 49 45
53 49 45
55 50 46
56 51 47
54 50 46
56 51 47
56 51 47
55 50 46
55 50 46
55 50 46
56 51 47
56 51 47
55 50 46
55 51 47
56 51 47
81 72 54
55 50 46
56 51 47
55 50 46
55 50 46
55 50 46
113 91 72
81 67 70
120 97 84
82 68 72
83 69 72
83 69 72
82 68 72
70 60 60
56 51 47
81 73 54
56 51 47
56 51 47
56 51 47
55 50 46
56 51 47
56 51 47
56 51 47
55 50 46
56 51 47
55 50 47
56 51 47
55 51 47
56 51 47
56 51 47
55 50 46
55 50 46
56 51 47
56 51 47
56 51 47
55 50 46
55 50 46
56 51 47
56 51 47
55 50 46
56 51 47
56 51 47
56 51 47
56 51 47
55 51 47
55 51 46
55 50 46
56 51 47
56 51 47
56 51 47
56 51 47
55 51 47
55 50 46
54 49 45
55 50 46
56 51 47
55 51 46
55 50 46
54 49 45
52 47 43
54 49 45
55 50 46
55 50 46
54 50 46
52 48 44
51 47 43
51 47 43
53 49 45
53 55 46
54 50 46
54 49 45
55 50 46
54 49 45
55 51 47
54 49 45
56 51 47
55 51 47
56 51 47
55 50 46
56 51 47
55 50 46
55 50 46
55 49 46
54 49 45
52 44 44
53 46 45
48 42 40
44 36 38
39 33 33
31 25 27
23 18 20
16 12 14
18 13 16
38 33 37
45 39 44
43 38 42
38 33 37
43 38 42
44 39 43
45 39 43
44 38 44
43 37 42
41 36 41
48 43 41
45 41 39
51 46 43
53 48 45
50 46 43
54 49 46
56 51 47
53 48 45
54 50 46
53 48 45
54 50 45
54 49 45
53 49 45
50 46 43
50 46 42
45 41 38
34 32 30
30 29 27
19 19 18
13 14 13
17 17 16
22 21 20
29 27 25
33 31 29
40 37 34
48 45 41
48 45 41
51 47 44
54 49 45
55 50 46
53 49 45
54 49 45
55 50 46
56 51 47
55 50 46
49 39 35
42 14 7
43 14 7
45 14 7
45 15 7
42 13 6
38 12 6
40 13 6
37 11 5
33 9 4
95 61 30
96 62 31
97 62 31
100 64 31
94 61 30
98 63 31
99 64 32
99 64 32
102 66 32
98 64 31
100 65 32
98 63 31
104 67 33
103 67 33
99 64 31
98 64 31
98 64 31
106 68 33
103 66 33
102 66 32
103 67 33
98 63 31
104 67 33
101 66 32
103 67 33
154 98 38
101 65 32
105 67 33
106 69 34
156 98 38
104 67 33
100 65 32
194 122 43
100 65 32
255 163 54
195 122 43
155 98 38
229 144 49
255 161 53
196 123 44
196 123 44
232 145 49
255 160 52
155 98 38
155 98 38
255 218 67
255 164 54
255 177 56
245 153 51
231 145 48
228 143 48
255 255 84
255 207 64
255 160 52
255 192 60
153 97 37
255 199 62
255 218 66
255 195 60
255 205 63
255 194 84
156 121 77
89 80 61
66 61 54
83 75 55
65 59 53
81 73 54
61 57 51
51 47 43
51 47 43
54 49 45
53 49 45
55 50 46
56 51 47
53 48 44
53 48 44
54 49 45
54 49 45
54 49 45
51 47 42
53 48 44
52 47 43
76 68 48
45 41 38
42 39 35
37 34 31
38 35 32
39 36 33
41 37 34
40 37 33
45 41 37
50 46 42
48 44 40
51 46 42
77 69 50
52 48 44
55 50 46
54 50 46
54 50 46
66 53 47
55 50 46
55 51 46
56 51 47
56 51 47
55 51 46
55 50 46
55 50 46
81 73 55
55 50 46
56 51 47
81 73 55
56 51 47
55 50 46
56 51 47
55 50 46
56 51 47
80 72 54
66 47 47
96 30 51
112 8 53
112 8 53
113 8 54
111 8 53
107 20 52
124 128 47
163 189 53
113 132 40
51 61 27
48 57 25
54 51 43
56 51 47
56 51 47
56 51 47
55 50 46
56 51 47
56 51 47
56 51 47
81 72 54
56 51 47
56 51 47
55 51 46
81 73 55
56 51 47
55 51 46
55 51 46
56 51 47
55 50 46
55 51 47
55 50 46
55 51 47
55 50 46
55 50 46
55 50 46
56 51 47
54 49 45
52 47 43
84 75 55
53 48 44
52 47 43
50 45 41
49 44 41
47 43 40
43 39 36
49 44 37
42 38 36
42 38 36
44 40 37
51 46 43
49 45 41
50 46 42
56 51 47
54 49 45
54 49 45
54 49 45
61 56 48
56 51 47
55 50 46
56 51 47
55 49 45
54 49 45
56 51 47
54 49 45
55 50 46
56 51 47
56 51 47
56 51 46
55 50 46
55 50 46
90 63 37
183 124 53
184 125 53
218 148 61
255 182 71
150 103 49
186 126 55
102 71 42
99 69 40
98 68 40
41 31 23
38 33 30
50 43 36
81 71 46
187 160 71
190 164 74
130 113 59
133 115 60
163 141 68
87 77 50
131 113 59
87 77 51
81 72 48
56 51 47
55 50 46
55 50 46
56 51 47
56 51 47
55 50 46
56 51 47
56 51 47
55 50 46
55 50 46
78 71 53
55 50 46
55 50 46
53 48 44
96 87 58
48 44 40
40 37 34
43 39 34
29 26 24
26 24 17
17 16 15
22 21 19
25 23 22
40 37 34
49 46 42
72 65 47
52 48 44
54 50 45
66 52 46
54 50 46
56 51 47
55 50 46
54 50 46
56 51 47
55 50 46
56 51 47
56 51 47
55 50 46
56 51 47
56 51 46
56 51 47
55 50 46
54 49 46
56 50 46
55 50 46
55 50 46
65 56 57
79 65 69
147 119 93
148 120 94
82 68 72
82 68 71
82 68 71
81 67 71
80 66 70
66 57 57
56 51 47
81 73 54
55 50 46
56 51 47
56 51 47
56 51 47
56 51 47
56 51 47
56 51 47
56 51 47
56 51 47
56 51 47
56 51 47
56 51 47
56 51 47
56 51 47
55 50 47
56 51 47
54 49 47
53 47 49
54 48 49
55 50 48
56 51 47
56 51 47
56 51 47
54 49 45
56 51 47
55 51 46
56 51 47
55 50 46
56 51 47
56 51 47
55 50 46
55 50 46
56 51 47
56 51 47
55 51 47
55 50 46
56 51 47
56 51 47
55 50 46
55 50 46
56 51 47
55 50 46
52 48 44
55 50 46
55 50 46
53 48 45
53 49 45
55 50 46
54 49 45
55 50 46
53 49 45
55 50 46
57 61 52
61 76 60
61 75 59
60 74 58
57 65 53
54 51 46
56 51 47
56 51 47
56 51 47
56 51 47
55 50 46
55 50 46
55 49 46
55 50 46
54 48 45
51 46 43
53 47 45
48 42 41
43 38 37
42 36 36
40 33 34
34 30 29
31 26 27
31 26 27
36 31 33
41 35 40
42 37 42
45 39 44
44 38 43
44 38 43
43 37 42
41 35 41
37 32 37
41 36 37
48 44 41
49 45 42
53 48 45
49 45 42
53 49 45
52 48 45
54 50 46
53 49 45
54 49 45
53 49 45
53 49 45
54 50 46
51 47 43
53 48 44
46 43 39
47 43 40
42 39 36
35 33 31
30 29 28
32 30 28
31 29 27
38 36 33
37 35 32
44 40 37
44 40 37
52 47 43
51 47 44
52 48 44
53 49 45
54 50 46
55 50 46
56 51 47
56 51 47
55 50 46
54 49 45
52 44 40
39 13 6
41 13 6
42 14 7
40 13 6
38 12 6
40 13 6
36 11 5
31 9 4
34 10 5
91 59 29
91 59 29
96 62 31
96 62 30
97 63 31
101 65 32
95 62 31
96 61 30
98 63 31
100 64 32
100 64 32
100 64 32
98 63 31
100 65 32
101 65 32
100 65 32
104 67 33
103 66 33
101 65 32
100 65 32
112 70 33
101 65 32
105 68 33
99 63 31
99 64 31
101 65 32
131 72 34
105 68 33
101 65 32
103 66 33
155 98 38
156 99 38
226 142 47
101 66 32
115 72 34
230 144 49
196 123 44
156 98 38
195 122 43
166 102 39
156 99 39
200 126 44
255 161 53
162 102 39
255 178 57
255 193 61
229 143 49
205 129 45
231 145 48
228 143 48
255 243 74
255 191 60
255 194 61
255 160 52
255 209 64
255 170 53
255 190 59
255 182 58
255 174 55
189 119 41
255 200 87
166 147 85
65 59 52
60 55 49
66 61 53
57 57 47
103 93 64
80 72 52
81 72 54
53 49 44
55 50 46
52 48 44
55 50 46
54 49 45
54 50 45
55 50 46
55 50 46
56 51 47
55 50 46
55 50 46
53 48 44
52 47 43
52 48 44
55 53 42
56 51 47
51 47 43
73 66 46
55 53 42
50 52 42
53 48 44
54 52 42
78 70 51
50 45 41
51 47 43
55 50 46
58 56 46
54 49 45
55 50 46
54 49 45
56 51 47
56 51 47
56 51 47
56 51 47
55 51 46
56 51 47
56 51 47
56 51 47
56 51 47
55 50 46
56 51 47
55 50 46
56 51 47
56 50 46
55 50 46
56 51 46
55 50 46
63 47 46
158 21 60
159 11 60
111 8 53
112 8 54
162 11 62
234 17 77
149 10 58
108 8 52
95 81 41
123 141 42
47 56 25
94 109 34
50 52 36
55 50 46
55 50 46
55 50 46
56 51 47
55 50 46
56 51 47
55 50 46
55 50 46
56 51 47
55 50 46
56 51 47
56 51 47
56 51 47
55 50 46
56 51 47
56 51 47
55 51 47
81 72 54
55 50 46
56 51 47
56 51 47
56 51 47
57 49 45
78 60 54
75 60 54
61 52 48
54 49 45
54 49 45
55 50 46
53 48 44
50 45 42
51 46 43
50 46 42
50 46 42
56 51 44
52 47 44
53 48 44
52 47 44
58 53 46
60 54 47
54 49 45
55 50 46
55 50 46
55 50 46
56 51 47
55 50 46
55 50 46
55 50 46
56 51 47
55 50 46
54 49 45
56 51 47
55 50 46
55 50 46
56 51 47
55 50 46
55 49 45
66 52 41
210 141 56
255 178 67
246 167 66
234 157 62
244 165 66
105 73 41
147 101 47
145 99 46
94 66 39
114 77 38
54 41 31
46 41 38
150 127 56
185 160 69
188 162 72
161 138 65
131 113 59
129 111 58
128 111 58
162 139 66
84 75 49
86 76 50
83 73 49
59 54 47
55 50 46
55 50 46
55 50 46
55 50 46
55 50 46
56 51 47
56 51 47
56 51 47
56 51 47
55 50 46
55 50 46
54 50 46
54 49 45
50 46 42
52 47 44
73 67 48
74 66 47
40 37 34
68 62 43
84 77 45
36 33 31
43 40 37
71 65 46
49 45 41
47 43 40
50 46 42
54 49 45
56 51 47
55 50 46
54 49 45
56 51 47
55 50 46
56 51 47
55 51 46
55 50 46
56 51 47
56 51 47
56 51 47
55 50 46
56 51 47
55 50 46
56 51 47
56 51 47
56 51 47
60 53 51
167 134 97
185 147 105
118 95 81
76 63 67
119 96 82
81 67 71
81 67 71
80 66 70
79 65 70
79 65 70
56 51 47
55 50 46
56 51 47
56 51 47
56 51 47
56 51 47
56 51 47
56 51 47
56 51 47
56 51 47
55 50 46
56 51 47
56 51 47
56 51 47
56 51 47
56 51 47
54 49 48
46 37 55
45 35 57
45 36 58
45 36 58
45 35 57
48 40 54
55 50 48
56 51 47
55 50 46
55 50 46
56 51 47
56 51 47
56 51 47
54 50 46
56 51 47
55 50 46
56 51 47
56 51 47
55 50 46
55 51 46
54 50 46
55 50 46
55 50 46
56 51 47
56 51 47
55 50 46
54 50 46
56 51 47
56 51 47
54 50 46
57 52 47
55 50 46
54 50 46
55 51 46
55 50 46
56 59 50
60 77 60
63 86 66
64 88 67
65 90 68
65 89 67
65 89 67
62 80 62
56 56 49
56 51 47
54 50 46
54 49 46
56 50 47
55 50 47
55 50 46
55 49 46
54 48 46
53 47 44
50 44 42
49 43 41
49 42 41
48 42 40
46 39 39
46 40 39
41 35 35
45 38 39
40 35 35
41 36 37
38 32 37
38 32 38
40 34 39
39 34 40
33 28 33
29 25 29
33 29 32
38 34 33
40 36 35
44 40 38
48 44 42
52 47 44
50 46 43
53 49 45
56 51 47
55 50 46
54 50 46
53 49 45
55 50 46
53 49 45
53 48 44
51 47 43
48 45 42
50 45 42
47 43 40
45 42 39
46 43 40
45 42 38
40 38 35
45 42 39
47 44 40
51 46 43
53 48 45
53 49 45
54 49 45
54 49 45
54 50 46
55 50 46
56 51 47
55 50 46
54 50 46
53 48 44
56 51 47
52 47 43
36 13 9
38 12 6
35 11 6
38 12 6
35 11 5
34 11 5
30 9 4
24 7 3
39 20 10
96 62 31
92 59 30
98 64 31
94 61 30
95 62 31
100 65 32
97 63 30
95 61 30
96 62 31
102 66 32
100 64 32
100 64 32
102 65 32
98 63 31
99 64 31
98 64 31
105 68 33
100 65 32
105 68 33
102 66 33
102 66 32
100 65 32
99 64 32
103 66 33
104 67 33
103 66 33
101 65 32
102 66 33
155 98 38
98 63 31
100 65 32
156 99 39
102 66 32
102 66 32
101 65 32
105 68 33
195 123 44
194 122 43
227 142 48
227 142 48
155 98 38
157 99 39
255 177 56
255 176 56
228 143 48
255 192 61
227 143 48
255 234 71
255 191 60
255 193 60
255 191 60
255 181 58
255 229 70
231 145 48
255 206 63
231 144 48
255 177 56
254 159 51
255 205 63
228 143 47
255 167 53
224 198 105
60 55 50
51 48 43
59 55 49
59 54 48
55 50 45
80 71 52
97 86 57
54 49 45
53 48 44
54 49 45
53 48 44
55 50 46
55 51 46
55 50 46
54 50 46
54 49 45
55 50 46
53 49 45
55 50 46
55 50 46
61 50 45
52 47 43
54 50 45
55 50 45
52 47 43
52 47 43
55 50 46
57 55 45
54 49 45
54 49 45
54 50 45
54 49 45
56 51 46
54 50 46
84 77 54
54 49 45
56 51 46
54 49 45
54 49 45
56 51 47
55 50 46
56 51 47
55 49 45
56 51 47
55 50 46
55 50 46
56 51 47
56 51 47
56 51 46
56 51 47
53 48 44
55 50 46
54 49 45
56 51 47
82 29 44
157 11 58
199 14 68
255 18 82
233 17 77
234 17 77
255 19 83
232 16 76
233 16 77
103 11 50
114 128 40
113 131 39
126 146 42
48 48 36
54 50 46
56 51 47
54 49 45
54 50 46
56 51 47
56 51 47
56 51 47
55 51 47
55 51 47
56 51 47
56 51 47
56 51 47
56 51 46
56 51 47
55 51 46
56 51 47
55 50 46
56 51 47
56 51 47
55 50 46
54 49 45
84 66 58
122 91 78
135 100 85
136 101 85
131 98 83
111 84 73
66 55 49
53 48 44
55 50 46
55 50 46
54 49 45
51 47 43
54 49 45
55 50 46
54 50 46
54 50 45
53 49 45
52 48 44
55 50 46
56 51 47
55 50 46
55 50 46
56 51 47
55 50 46
55 50 46
55 50 46
56 51 47
55 50 46
56 51 47
56 51 46
56 51 47
55 50 46
56 51 47
55 50 46
55 49 45
56 51 47
63 50 40
136 92 40
211 143 57
142 96 44
199 129 52
214 144 58
138 94 42
127 96 43
213 144 58
101 74 37
85 59 35
63 49 36
51 46 42
118 96 42
154 131 58
209 179 77
158 136 63
187 160 71
125 108 55
233 200 85
163 142 67
80 71 47
80 71 47
77 69 46
61 55 45
55 50 46
56 51 47
56 51 47
56 51 47
55 50 46
55 50 46
56 51 47
56 51 47
55 50 46
55 50 46
56 51 47
55 50 46
53 49 45
53 49 45
54 48 44
53 48 44
77 71 52
50 46 42
47 43 40
74 67 48
50 46 42
91 83 54
49 45 41
50 46 42
56 51 45
52 48 44
53 49 45
54 50 46
56 51 46
56 51 46
55 50 46
55 51 46
56 51 47
54 49 45
56 51 47
56 51 47
56 51 47
56 51 47
56 51 47
56 51 47
56 51 46
55 50 46
55 50 46
54 50 46
106 87 68
188 151 105
145 117 90
146 117 91
145 117 90
77 64 68
73 60 64
79 65 70
76 62 67
76 63 68
73 60 65
63 54 54
56 50 47
55 51 47
55 50 46
56 51 47
55 50 46
55 51 46
56 51 47
55 50 46
56 51 47
55 51 47
56 51 47
56 51 47
55 50 46
56 51 47
54 49 48
43 34 54
64 49 65
65 50 66
81 62 74
45 35 57
45 35 57
45 35 57
45 36 56
54 49 48
55 50 46
56 51 47
56 51 47
56 51 47
56 51 47
56 51 47
56 51 47
55 50 46
56 51 47
56 51 47
56 51 47
56 51 47
55 50 46
56 51 47
56 51 47
56 51 47
56 51 47
56 51 47
56 51 47
55 50 46
55 50 46
55 50 46
55 50 46
55 51 46
55 50 46
55 50 46
56 57 50
59 79 61
62 86 65
62 85 65
115 155 87
63 87 66
64 88 66
64 88 67
64 88 67
61 81 63
57 57 50
56 51 47
55 50 46
56 50 47
55 49 46
56 50 47
54 49 46
54 48 45
56 50 47
53 47 44
54 48 46
52 46 44
49 44 41
52 46 43
50 45 43
52 46 44
45 39 39
44 39 38
39 34 35
40 35 35
28 24 27
25 22 25
19 17 19
24 21 22
19 17 19
33 30 29
34 31 30
45 41 39
44 40 39
48 44 41
52 48 44
53 48 45
55 50 46
54 49 46
53 48 45
55 50 46
54 49 45
53 48 44
52 48 45
54 49 45
53 49 45
53 49 45
52 48 44
50 46 43
51 47 43
50 47 43
52 47 43
51 46 42
55 50 46
52 48 43
55 50 46
53 49 45
54 49 45
53 49 45
53 49 45
55 50 46
55 50 46
55 50 46
54 50 46
54 49 45
54 49 45
53 48 44
52 47 43
46 38 35
31 10 5
36 12 6
31 10 5
27 9 4
30 9 4
26 8 4
27 8 4
37 20 10
93 60 30
132 70 32
91 59 29
97 62 30
93 60 30
93 60 30
96 62 31
99 64 31
99 64 32
95 61 30
96 62 30
135 74 34
95 61 30
100 64 32
99 64 31
94 61 30
97 63 31
97 63 31
101 65 32
102 66 33
96 62 31
101 66 32
103 67 33
156 99 39
102 66 33
100 65 32
155 98 38
103 67 33
101 65 32
233 146 49
155 98 38
152 96 37
100 65 32
153 97 37
226 142 48
96 62 31
154 97 38
228 143 48
155 98 38
194 122 43
255 161 53
229 144 48
255 176 56
255 191 60
255 176 56
255 206 64
226 142 47
255 193 61
255 231 70
255 165 53
255 204 63
255 160 52
255 232 71
255 207 64
255 207 64
231 145 48
255 230 70
255 193 59
255 165 52
255 177 56
251 157 50
52 48 44
57 57 46
86 76 57
57 61 46
58 53 47
82 78 55
77 69 50
53 54 44
53 48 44
54 49 45
53 49 45
53 49 44
55 50 46
55 50 46
80 72 54
55 50 46
55 50 46
56 51 47
54 49 45
53 48 44
55 51 46
58 56 45
54 49 45
55 50 46
79 71 52
55 50 46
55 50 46
54 49 45
58 56 46
55 50 46
54 49 45
55 50 46
55 50 46
55 50 46
55 50 46
56 51 47
55 50 46
55 50 46
57 52 47
81 73 54
55 50 46
55 50 46
80 72 54
54 50 46
56 51 47
56 51 47
55 50 46
56 51 47
55 50 46
56 51 47
56 51 47
55 50 46
56 51 47
53 48 44
56 49 45
153 11 56
97 7 47
198 14 67
102 7 49
235 17 77
255 20 88
255 18 82
232 16 76
198 14 68
96 7 47
107 74 43
123 143 40
123 143 40
46 45 36
55 50 46
80 72 54
55 50 46
55 50 46
55 50 46
56 51 47
55 50 46
56 51 47
56 51 47
56 51 47
56 51 47
55 50 46
56 51 47
56 51 47
81 72 54
56 51 47
55 50 46
56 51 47
56 51 47
56 50 46
90 67 58
133 99 84
141 105 87
146 108 89
147 108 89
144 107 89
138 102 86
117 89 76
65 54 48
55 50 46
61 56 48
55 50 46
55 50 46
56 51 47
55 50 46
54 50 46
54 49 45
56 51 47
56 51 47
55 50 46
54 49 45
55 50 46
55 51 46
56 51 47
55 50 46
55 50 46
55 50 45
55 50 46
55 50 46
55 50 46
55 50 46
59 56 47
56 51 47
53 48 44
55 50 46
54 49 45
52 47 43
59 48 40
134 90 40
182 119 48
209 141 55
255 177 66
238 160 62
212 144 58
240 162 63
178 121 50
76 52 31
76 53 32
92 65 37
48 43 39
147 125 54
205 175 72
197 162 67
130 118 52
208 178 76
189 161 73
125 108 55
127 110 54
77 67 44
73 64 43
75 67 44
57 52 44
54 49 45
55 50 46
55 50 46
54 49 45
56 51 47
56 51 47
55 51 47
56 51 47
56 51 47
55 50 46
56 51 47
55 50 46
55 50 46
56 51 47
56 51 47
55 50 46
53 49 45
54 49 45
53 48 44
51 47 43
54 50 46
54 49 45
52 47 43
53 48 44
55 50 46
55 50 46
54 50 46
56 51 47
56 51 47
56 51 47
56 51 47
55 50 46
56 51 47
55 51 47
56 51 47
56 51 47
55 51 47
56 51 47
56 51 47
56 51 47
55 50 46
55 50 46
56 51 47
56 51 47
105 86 66
157 120 87
188 151 105
72 59 64
188 151 105
209 168 116
115 93 79
78 63 68
76 61 66
73 60 64
71 59 64
59 52 52
56 51 47
55 51 46
56 51 47
55 51 47
56 51 47
55 50 46
56 51 47
56 51 47
56 51 47
56 51 47
56 51 47
56 51 47
56 51 47
55 50 47
62 48 62
93 71 80
80 61 73
66 51 66
45 35 56
44 35 56
44 34 56
44 34 56
45 41 56
45 37 53
56 51 47
55 50 47
56 51 47
56 51 47
55 50 46
56 51 47
56 51 47
54 50 46
56 51 47
56 51 47
56 51 47
55 50 46
56 51 47
56 51 47
56 51 47
56 51 47
56 51 47
56 51 47
55 51 46
56 51 47
55 51 46
55 50 46
55 50 46
55 50 46
55 51 47
56 51 47
55 71 57
88 118 71
91 123 75
59 82 63
62 85 65
63 86 66
63 86 66
62 86 65
60 84 64
62 84 65
59 72 59
56 49 47
127 35 78
56 51 47
55 50 46
56 50 46
58 50 46
71 57 51
89 66 57
90 67 58
86 64 56
78 59 52
65 52 47
53 47 44
51 44 43
50 45 43
52 47 44
42 37 37
43 38 37
36 32 32
30 26 28
30 27 27
26 23 24
24 22 23
34 31 30
39 36 35
43 39 38
46 41 39
42 38 37
62 56 53
61 56 50
71 66 59
62 57 52
65 59 54
54 49 46
55 50 47
55 50 46
55 50 47
55 50 46
54 50 45
55 50 46
54 50 45
53 49 45
54 49 46
53 49 44
53 49 45
55 50 46
54 50 46
53 49 45
55 50 46
55 50 46
55 50 46
56 51 47
55 50 46
56 51 47
55 51 47
54 49 45
55 50 46
56 51 47
54 49 45
53 49 44
52 47 43
51 46 43
50 45 42
36 28 25
25 8 4
31 10 5
26 9 4
26 8 4
22 6 3
17 5 2
51 32 16
90 58 28
89 58 29
91 59 29
94 60 30
96 62 31
93 60 29
97 63 31
95 62 30
101 65 32
98 63 31
99 64 32
99 64 31
94 61 30
99 64 32
98 63 31
101 65 32
98 64 31
97 62 31
101 65 32
100 65 32
105 67 33
98 63 31
100 65 32
101 65 32
108 69 32
96 62 31
102 66 32
155 98 38
195 123 43
101 65 32
151 95 36
154 97 38
155 98 38
200 125 44
192 121 42
228 143 48
155 98 38
255 177 57
156 99 38
156 98 38
155 98 38
255 159 51
255 165 53
255 176 56
255 161 53
255 180 57
255 193 61
255 247 74
255 242 74
255 218 67
255 206 64
255 180 57
255 255 76
255 165 53
255 221 68
255 229 69
255 231 70
255 231 70
236 147 48
255 203 62
255 174 54
54 54 43
53 48 42
57 58 48
162 143 80
53 48 43
96 89 56
45 47 38
51 46 42
51 46 42
55 50 46
79 71 52
56 51 46
79 70 52
53 48 44
54 49 45
71 57 46
83 76 54
55 50 46
54 49 45
55 50 46
59 56 46
80 71 53
55 50 46
56 51 47
80 72 53
54 49 45
54 50 46
55 50 46
55 50 46
56 51 47
55 50 46
55 50 46
55 50 46
71 57 46
57 51 46
56 51 47
55 50 46
55 50 46
56 51 47
56 51 46
55 50 46
56 51 46
55 50 46
56 51 47
100 88 60
81 73 55
55 50 46
81 72 54
55 50 46
55 50 46
55 50 46
54 49 45
54 49 45
80 71 53
59 42 41
192 13 63
255 20 85
155 11 58
255 18 81
198 14 68
231 16 75
255 18 82
255 22 94
235 17 76
150 10 55
96 72 41
108 125 36
72 84 28
51 47 43
55 50 46
54 49 45
54 50 46
53 48 44
55 50 46
80 72 54
54 49 45
55 51 46
56 51 46
56 51 47
56 51 47
56 51 47
56 51 47
56 51 47
81 73 54
56 51 47
56 51 47
56 51 47
56 51 47
67 53 48
126 94 82
137 102 86
144 107 89
148 109 90
149 110 90
147 109 89
142 105 88
134 99 84
97 74 63
55 49 45
56 51 47
56 51 46
56 51 47
55 51 47
54 49 45
55 50 46
56 51 47
55 50 46
81 73 54
55 50 46
56 51 47
56 51 47
56 51 46
56 51 47
55 50 46
56 51 47
56 51 47
56 51 47
56 51 47
56 51 47
56 51 47
54 49 45
54 49 45
54 49 45
54 49 45
54 49 45
55 50 46
52 45 39
124 84 34
128 86 36
211 142 55
255 191 70
225 146 55
211 142 55
75 51 31
142 96 42
132 90 40
64 43 26
50 43 38
52 47 43
41 36 31
249 212 84
248 212 86
227 194 79
229 196 81
206 176 74
124 106 51
115 99 48
63 55 37
116 100 49
63 56 38
54 49 45
55 50 46
55 50 46
55 50 46
55 50 46
55 51 46
55 50 46
56 51 47
56 51 47
56 51 47
56 51 47
56 51 47
56 51 47
56 51 47
55 51 47
55 50 46
55 50 46
78 71 53
55 50 46
54 50 45
55 51 46
76 70 51
55 50 46
55 50 46
56 51 47
55 51 46
55 50 46
56 51 47
55 50 46
56 51 47
55 51 46
56 51 47
56 51 47
56 51 47
56 51 47
56 51 47
56 51 47
56 51 47
56 51 47
55 50 46
54 49 46
55 50 46
54 49 45
54 50 46
50 46 43
51 43 45
142 114 84
66 55 59
112 90 75
74 60 62
111 90 74
67 55 59
73 60 64
68 55 61
70 58 62
62 50 56
57 50 50
55 50 46
55 50 46
55 50 46
55 51 46
56 51 47
55 50 46
56 51 47
54 49 45
56 51 47
56 51 47
56 51 47
55 50 46
56 51 47
42 35 47
61 47 60
41 32 53
41 32 53
40 32 52
80 61 74
43 33 54
43 34 55
43 34 55
41 33 53
40 32 52
53 47 49
56 51 47
56 51 47
56 51 47
56 51 47
55 50 47
56 51 47
56 51 47
56 51 47
56 51 47
56 51 47
56 51 47
56 51 47
56 51 47
55 50 46
56 51 47
56 51 47
55 50 46
55 50 46
56 51 47
57 51 47
56 51 47
55 50 46
56 51 47
55 50 46
55 58 49
51 70 53
89 119 72
88 119 71
59 81 62
62 84 64
59 81 62
91 123 75
59 81 62
61 84 64
59 80 63
57 59 56
78 19 64
89 12 72
55 50 46
55 50 46
66 54 49
92 67 58
93 67 58
95 69 60
94 68 59
92 67 57
90 65 56
92 67 58
78 58 51
54 47 45
51 46 43
51 46 44
48 44 42
45 41 40
44 39 38
42 38 37
41 37 37
42 38 37
38 34 34
44 40 39
46 42 40
47 43 40
52 46 44
67 61 56
71 64 58
63 58 51
62 56 51
68 62 55
64 55 47
71 65 57
57 52 48
56 50 46
55 50 46
55 50 46
55 51 46
55 50 46
55 50 46
55 50 46
56 51 47
55 50 46
55 50 46
55 50 46
56 51 47
54 49 45
56 51 47
55 50 46
55 50 46
55 50 46
55 50 46
55 50 46
54 50 46
54 49 45
55 50 46
54 49 45
52 47 43
52 47 43
50 46 42
49 44 40
45 41 38
35 31 29
29 26 24
25 16 14
17 5 3
19 6 3
18 9 7
14 10 9
36 26 19
85 54 27
91 59 29
89 58 28
91 58 29
92 60 30
89 58 29
99 64 32
95 62 31
95 61 30
99 64 32
92 59 30
97 63 31
137 72 32
95 62 30
97 62 31
97 63 31
103 67 32
102 66 32
102 66 32
98 63 31
100 65 32
97 62 31
94 61 30
99 64 31
98 64 31
95 62 30
154 97 38
97 63 31
153 96 37
98 64 31
106 67 32
153 97 37
192 121 42
100 65 32
232 145 49
153 97 38
193 121 43
96 63 31
255 177 56
255 191 60
255 177 57
195 123 44
197 122 43
255 205 64
202 127 46
255 218 67
255 206 64
255 240 73
255 178 56
255 206 64
255 212 66
255 163 53
255 218 66
255 236 72
255 229 70
255 208 64
255 255 84
255 240 72
255 255 76
255 220 67
232 145 47
56 60 43
46 55 39
49 46 40
72 68 43
39 34 30
32 28 24
49 44 40
85 76 53
79 71 52
80 71 53
99 88 60
55 50 46
55 50 46
55 50 46
55 50 46
56 51 47
55 49 45
54 49 45
81 72 54
55 50 46
81 73 55
57 55 44
55 50 46
56 51 46
55 50 46
55 50 46
53 49 45
55 50 46
55 51 46
58 52 46
56 51 46
55 50 46
55 50 46
54 49 45
55 50 46
55 51 46
56 51 47
55 50 46
55 50 46
56 51 47
56 50 46
56 51 47
56 51 46
56 51 47
56 51 47
56 51 47
55 50 46
54 49 45
55 50 46
56 51 47
55 50 46
53 48 44
55 50 46
52 47 43
109 42 42
170 11 50
189 13 62
193 13 63
197 14 65
255 18 81
255 22 90
255 20 87
238 17 76
255 22 92
188 13 62
108 97 40
43 50 19
40 39 31
47 43 39
53 48 44
49 45 41
55 50 46
55 51 46
55 50 46
54 50 45
55 50 46
54 50 46
59 56 46
55 50 46
56 51 47
56 51 47
56 51 47
55 50 46
81 72 54
56 51 47
56 51 47
55 50 46
55 49 45
70 53 47
127 95 82
136 101 85
142 105 88
145 107 89
146 108 89
144 107 89
140 104 87
132 99 84
117 85 74
54 45 41
56 51 47
55 50 46
56 51 47
56 51 46
55 50 46
55 50 46
55 50 46
56 51 47
55 50 46
55 50 46
55 50 46
55 50 46
56 51 47
81 72 54
56 51 47
59 51 45
89 71 47
76 49 31
72 50 36
69 49 36
60 50 43
56 51 47
55 50 46
54 49 44
54 48 44
50 45 41
51 45 41
51 46 42
122 83 36
230 155 57
202 136 50
127 85 35
172 116 46
237 160 60
171 115 45
54 37 22
62 43 26
56 41 29
50 45 41
48 43 39
42 37 34
175 149 60
204 174 71
148 126 54
204 174 72
190 169 67
149 127 55
77 51 34
113 97 46
52 46 32
49 44 36
52 47 43
54 49 45
55 50 46
56 51 46
55 50 46
55 50 45
55 50 46
56 51 47
56 51 47
55 50 46
56 51 47
55 50 46
56 51 47
81 72 54
56 51 47
55 51 47
55 51 46
55 51 47
56 51 47
56 51 47
55 50 46
56 51 47
55 51 46
55 50 46
56 51 46
55 51 46
55 50 46
56 51 47
56 51 47
56 51 47
56 51 47
56 51 47
56 51 47
56 51 47
56 51 47
56 51 47
55 50 46
56 51 47
56 51 47
55 50 46
53 48 43
55 50 46
55 50 46
54 49 46
51 46 43
51 44 44
100 80 62
137 110 80
140 113 85
141 113 85
165 132 93
60 49 53
60 48 53
64 51 56
61 50 55
54 45 49
55 49 47
56 51 47
56 51 47
55 50 46
55 50 46
55 51 47
53 48 44
55 51 46
55 50 46
53 49 45
56 51 47
55 50 46
55 50 46
55 51 46
42 36 47
36 28 46
40 32 53
40 31 52
62 48 62
41 31 52
41 32 53
41 32 53
40 31 51
39 31 51
38 30 49
51 45 50
56 51 47
56 51 47
56 51 47
55 50 46
62 62 50
56 51 47
56 51 47
56 51 47
55 51 46
56 51 47
56 51 47
56 51 47
56 51 47
55 50 46
54 50 46
55 50 46
56 51 47
56 51 47
55 51 47
55 50 46
55 50 46
55 50 46
54 49 45
55 50 46
53 59 50
49 68 53
84 113 65
88 118 71
50 69 53
80 104 65
58 80 61
55 76 58
59 81 62
58 79 62
54 72 57
56 50 53
83 12 67
131 18 82
56 51 47
59 52 48
87 64 56
92 67 58
93 68 58
93 68 59
92 67 58
90 65 56
89 64 56
88 64 55
88 64 55
74 56 50
51 46 43
54 48 46
52 47 44
52 47 44
48 44 41
49 45 42
51 46 43
49 44 42
50 45 43
48 44 42
53 48 44
54 49 46
72 63 59
64 57 52
64 58 53
55 50 46
54 49 45
72 65 58
58 53 48
62 56 51
57 52 48
55 50 47
54 50 45
55 50 46
56 51 47
55 50 46
54 50 46
55 50 46
55 50 46
54 49 45
56 51 47
56 51 47
56 51 47
55 50 46
55 50 46
55 50 46
55 50 46
55 50 46
54 49 45
54 49 45
54 49 45
55 50 45
55 50 46
55 50 45
52 47 43
52 47 43
49 45 41
50 46 42
44 40 37
36 33 30
32 29 27
19 17 16
15 13 12
9 7 6
8 7 6
18 16 14
42 28 17
88 57 28
86 56 27
86 56 28
93 59 30
91 58 29
95 61 30
92 59 29
90 58 29
96 62 30
100 65 32
96 62 30
93 60 29
95 62 31
90 58 29
90 58 29
96 62 30
95 62 30
95 62 31
98 63 31
99 64 32
93 61 30
99 64 31
96 62 31
90 58 29
98 63 31
103 66 32
98 64 31
194 122 43
98 63 31
108 70 33
94 61 30
99 64 32
97 63 31
195 120 42
255 160 52
227 142 48
195 122 43
192 121 42
227 143 48
198 124 43
199 125 44
255 160 52
255 193 60
255 190 59
231 145 48
255 174 55
92 59 29
255 193 61
255 162 52
255 251 75
255 255 79
255 208 64
255 255 81
255 231 70
255 255 77
255 234 71
255 218 67
255 207 63
255 178 55
251 157 50
255 194 60
66 75 49
64 76 50
74 96 49
20 33 18
31 35 16
25 27 22
77 71 65
80 73 64
51 47 43
52 47 43
51 47 43
55 49 45
54 49 45
54 49 45
54 48 44
55 50 46
56 50 46
56 51 47
56 51 47
54 50 46
55 50 46
55 50 46
56 51 47
55 50 46
55 50 46
54 48 44
54 49 45
55 50 46
81 72 54
55 50 46
56 51 47
54 50 46
56 51 46
56 51 47
55 51 46
56 51 47
55 50 46
56 51 47
55 50 46
56 51 47
55 50 46
55 49 45
81 72 54
55 50 45
55 50 46
56 51 47
57 51 45
56 51 47
55 50 46
56 50 47
54 49 45
53 48 44
55 50 46
54 49 45
52 44 41
74 6 37
142 10 46
252 18 76
255 20 85
255 23 93
255 23 96
255 20 83
255 23 96
250 18 75
183 13 58
77 18 33
64 73 27
40 37 34
45 41 37
46 42 38
51 46 42
53 49 44
53 48 44
53 48 44
80 72 53
54 49 45
100 89 61
55 50 46
55 50 45
55 50 46
55 50 46
56 51 47
55 50 46
56 51 47
56 51 47
55 51 47
81 73 54
55 48 44
97 87 32
118 82 73
122 85 69
136 101 85
139 103 86
139 103 87
138 103 86
135 100 85
128 95 82
98 69 59
53 40 37
56 51 47
55 50 46
55 50 46
56 51 47
56 51 47
56 50 46
56 51 47
56 51 47
55 50 46
56 50 46
81 72 54
55 50 46
56 51 47
55 50 46
65 48 37
84 48 19
86 48 16
86 48 16
86 48 16
86 48 16
85 48 18
67 48 37
56 50 46
54 49 45
53 48 44
48 44 40
46 41 37
48 43 39
39 34 31
164 111 43
121 81 32
44 30 18
124 83 34
202 136 51
202 136 51
45 30 19
83 55 24
46 41 38
44 40 36
42 38 34
36 32 29
103 88 40
200 170 68
203 173 70
129 119 49
111 94 43
168 141 58
51 45 31
50 45 30
91 85 44
52 47 42
44 40 37
53 48 44
55 50 46
54 49 45
53 49 45
56 51 47
56 51 47
55 50 46
55 50 46
55 51 46
55 51 46
56 51 47
56 51 47
56 51 47
56 51 47
56 51 47
56 51 47
56 51 47
56 51 47
56 51 47
56 51 47
81 73 55
55 50 46
56 51 47
56 51 47
56 51 47
56 51 47
56 51 47
55 50 46
55 50 46
56 51 47
56 51 47
55 50 46
56 51 47
56 51 47
56 51 47
56 51 47
55 50 46
55 50 46
55 50 46
55 50 46
54 49 45
51 47 43
52 47 44
49 45 41
47 42 40
53 42 45
45 37 41
103 83 66
136 108 78
103 83 64
104 83 65
137 110 81
54 44 48
71 60 50
42 35 38
52 47 44
55 50 46
54 49 45
55 50 46
56 51 47
55 50 46
54 49 45
56 51 47
55 50 46
54 49 45
56 51 47
55 50 46
55 50 46
53 48 45
100 76 78
58 44 55
77 59 68
59 45 57
78 59 70
62 47 61
61 47 60
37 28 47
40 31 52
38 30 50
37 29 48
40 35 43
56 51 47
55 50 46
55 50 46
56 51 47
56 51 47
56 51 47
56 51 47
56 51 47
56 51 47
56 51 47
56 51 47
55 51 46
56 51 47
56 51 47
56 51 47
56 51 47
55 50 46
56 51 47
54 50 46
55 50 46
53 49 45
53 49 45
54 50 46
54 49 45
48 50 43
48 65 51
50 69 53
45 62 48
47 63 49
53 73 56
50 68 53
87 117 69
52 72 55
55 75 58
51 66 54
67 9 55
78 11 63
131 18 81
56 51 47
74 58 52
89 65 57
89 65 57
90 66 57
90 66 57
135 96 67
91 66 57
133 95 66
88 64 56
88 63 55
81 58 50
63 52 47
54 48 45
54 49 46
54 49 45
55 50 46
56 50 47
51 47 44
53 48 45
53 48 45
53 48 45
53 49 45
59 54 50
68 63 57
60 55 50
63 58 52
69 63 56
69 63 56
58 53 48
62 57 52
60 55 50
66 61 55
55 49 45
55 50 46
55 51 46
56 51 47
56 51 47
55 50 46
54 50 46
56 51 47
56 51 47
56 51 46
55 50 46
56 51 46
55 51 46
56 51 47
56 51 47
55 50 46
56 50 46
55 50 46
55 50 46
54 49 45
55 50 46
55 50 46
53 48 44
53 48 44
54 49 45
45 40 37
46 41 38
46 41 38
43 39 35
39 35 32
36 32 29
34 31 28
28 24 22
26 23 22
30 27 25
40 34 30
86 55 27
86 55 27
90 58 29
88 57 28
90 58 29
94 61 30
92 59 29
96 62 30
95 61 31
94 61 30
92 59 29
97 63 31
93 60 30
93 60 30
94 61 30
95 62 31
93 60 30
121 77 31
93 59 29
97 62 31
97 63 31
129 76 33
100 65 32
98 63 31
101 66 32
98 63 31
89 57 28
98 64 31
149 95 36
153 97 37
150 95 36
100 65 32
100 64 32
92 59 29
194 122 43
158 100 38
194 122 43
192 120 42
235 131 45
255 178 56
225 141 47
255 176 56
255 178 57
255 193 60
227 142 48
255 199 60
255 159 52
255 192 60
255 208 65
255 204 63
255 217 66
255 218 66
255 219 67
255 206 63
255 255 86
255 254 76
255 255 85
255 215 65
255 219 67
255 217 66
247 155 48
85 87 49
61 73 48
122 141 69
61 74 49
40 90 33
51 100 38
93 85 73
52 47 43
54 49 44
53 48 44
54 49 45
55 50 46
54 49 45
54 50 46
54 49 45
80 72 53
56 51 47
54 49 45
80 71 53
55 50 46
55 50 46
55 50 46
54 50 46
55 50 46
55 50 46
55 50 46
55 50 46
55 50 46
56 51 47
55 51 46
55 50 46
56 51 47
81 72 54
55 50 46
56 51 46
55 50 46
55 50 46
55 49 45
55 50 46
56 51 47
56 51 47
56 51 47
55 50 46
55 50 46
56 50 46
56 50 47
55 50 46
55 50 46
55 50 46
56 50 46
54 49 45
54 49 45
51 46 42
50 45 42
50 45 41
56 18 30
180 13 55
255 19 80
255 20 83
255 20 83
255 23 95
255 21 89
255 20 82
255 192 123
255 255 208
255 255 255
255 255 255
255 255 255
255 255 255
255 255 255
255 255 255
255 255 255
255 255 255
255 255 255
255 255 247
255 255 196
231 204 109
53 49 45
54 50 46
55 50 46
55 50 46
56 50 46
100 89 61
56 51 47
55 49 45
56 51 47
56 51 47
56 49 45
141 53 46
179 45 53
200 109 55
243 176 106
255 255 255
255 255 193
128 95 80
125 94 81
143 66 50
117 79 37
54 43 39
55 50 46
56 51 47
55 50 46
56 51 47
56 51 47
55 50 46
56 51 46
81 72 54
56 51 47
81 72 54
55 50 45
56 51 47
56 51 47
61 47 38
82 45 15
153 83 21
84 47 16
125 68 19
86 48 16
84 47 16
84 47 16
82 46 16
70 47 33
52 47 43
54 49 45
49 44 40
49 44 40
45 40 37
36 32 30
35 30 26
34 25 18
36 24 15
40 27 17
52 35 19
164 111 42
29 20 13
49 42 28
32 28 25
40 36 33
42 34 27
33 30 28
34 31 29
101 86 36
172 147 58
105 90 39
105 90 40
39 34 24
39 33 23
36 32 25
37 33 30
44 40 37
50 45 42
48 43 39
54 49 45
53 48 44
54 49 45
55 50 46
54 50 46
56 51 47
55 50 46
55 50 46
56 51 47
56 51 47
55 51 46
56 51 47
55 50 46
55 51 47
55 50 46
56 51 47
56 51 47
56 51 47
56 51 47
56 51 47
56 51 47
56 51 47
56 51 47
56 51 47
56 51 47
56 51 47
56 51 47
56 51 47
55 50 46
56 51 47
56 51 47
56 51 47
55 50 47
55 50 46
56 51 47
56 51 47
56 51 47
55 50 46
53 48 45
54 49 45
52 47 43
49 45 41
48 43 40
46 42 39
37 33 33
98 79 58
49 40 45
45 37 41
100 80 61
44 35 40
45 35 40
47 37 42
42 33 38
48 43 41
53 48 44
54 49 45
53 48 45
53 49 45
54 49 45
55 50 46
54 49 45
53 48 44
54 49 45
80 71 53
55 50 46
52 48 44
54 49 45
51 47 43
57 44 51
31 24 41
89 67 73
36 26 46
38 28 48
77 58 68
38 29 48
35 28 46
37 29 48
32 25 41
31 24 40
49 44 44
53 49 45
56 51 47
54 50 46
56 51 47
55 50 46
56 51 47
56 51 47
56 51 47
56 51 47
56 51 47
56 51 47
55 50 46
56 51 47
55 50 46
55 51 46
55 50 46
55 50 46
55 51 46
54 50 46
55 50 46
55 50 46
55 51 46
52 48 44
52 48 44
44 46 40
42 58 45
41 57 44
45 62 48
46 62 48
47 64 49
47 66 50
49 68 52
47 67 51
46 62 49
44 53 46
66 9 54
111 15 66
127 18 77
56 50 47
76 57 50
88 64 56
87 64 56
87 64 56
86 63 55
87 63 55
87 63 55
86 63 55
80 58 50
81 58 50
77 55 49
67 53 47
55 50 47
55 50 46
56 51 47
54 48 45
55 50 47
55 50 46
56 51 47
56 51 47
54 49 46
53 49 45
61 55 50
73 67 59
64 58 53
65 59 53
59 53 49
65 59 53
60 55 50
60 55 50
63 57 52
59 52 48
56 51 47
56 51 46
54 49 45
56 51 47
54 49 45
55 51 47
55 50 46
56 51 47
54 50 46
55 50 46
55 50 46
56 51 47
54 49 46
53 48 45
56 51 47
55 50 46
55 51 47
55 50 46
56 51 46
55 50 46
54 49 45
54 49 45
53 48 44
54 49 45
55 49 45
48 43 40
50 45 41
50 45 41
47 42 39
45 40 37
38 34 31
41 37 33
43 38 35
41 35 33
44 39 36
50 43 39
82 53 27
92 60 30
87 56 27
89 58 29
89 56 28
92 60 29
92 59 29
96 63 31
94 61 30
92 60 30
92 59 30
97 63 31
94 60 30
96 62 31
96 62 31
90 58 29
91 59 30
95 61 30
95 62 31
93 60 30
97 63 31
99 63 31
151 95 36
100 64 31
99 64 31
150 95 36
94 61 30
97 62 31
96 62 31
99 64 31
194 122 43
90 57 28
114 73 33
99 64 32
197 124 43
193 121 42
151 96 37
231 145 48
255 176 56
252 157 50
153 97 37
255 206 63
255 217 67
235 150 48
255 190 59
255 251 75
255 178 56
255 203 62
255 204 63
255 208 64
255 217 66
255 175 55
255 216 66
255 255 82
255 252 75
255 230 69
255 220 67
255 224 68
255 211 63
255 202 61
253 158 50
98 110 55
158 182 79
121 141 68
159 183 81
136 157 70
76 72 60
85 76 57
55 50 46
55 50 46
54 49 45
54 49 45
54 49 45
80 71 53
52 47 43
55 50 46
55 50 46
55 50 46
56 51 47
55 50 46
55 50 46
55 50 46
55 50 46
56 51 46
55 50 46
56 51 47
56 51 47
55 50 46
55 50 46
81 72 54
56 51 47
56 51 47
81 73 55
81 73 55
54 49 45
71 57 46
54 50 45
55 50 46
56 51 47
56 51 47
55 51 46
80 72 54
56 51 47
55 50 46
55 50 46
55 50 46
55 49 46
55 50 46
55 50 46
81 72 54
81 71 53
54 49 45
53 48 44
54 48 44
49 44 41
51 45 42
49 37 37
178 13 54
184 13 56
246 17 72
255 20 80
255 255 224
255 255 255
255 255 255
255 255 255
255 255 255
255 255 255
255 255 255
255 255 255
255 255 255
255 255 255
255 255 255
255 255 255
255 255 255
255 255 255
255 255 255
255 255 255
255 255 255
255 255 255
255 255 255
255 255 255
224 198 106
55 50 46
55 50 46
55 50 46
55 50 46
56 50 46
56 50 46
55 49 45
54 39 36
70 40 38
255 222 114
107 69 55
255 255 255
255 189 101
142 95 54
74 58 47
44 26 22
46 33 30
80 60 46
56 51 47
56 51 47
54 49 45
56 51 47
55 51 46
55 50 46
56 51 47
56 51 46
55 50 46
56 51 47
56 51 47
55 50 46
56 50 45
125 56 17
120 66 18
200 108 25
83 46 16
178 97 23
151 82 20
83 46 16
83 46 16
80 45 15
75 43 18
55 46 40
53 48 44
51 45 40
46 42 38
47 43 39
36 32 30
35 31 29
50 36 22
20 17 15
20 16 13
19 15 13
16 13 12
24 21 19
29 26 24
37 33 30
44 38 32
38 34 31
35 31 28
32 29 27
65 58 37
23 20 18
12 10 8
21 18 14
16 14 11
20 18 16
65 58 36
37 34 31
71 63 43
44 40 37
49 45 41
50 46 42
52 48 44
55 50 46
55 50 46
55 50 46
55 50 46
55 50 46
56 51 47
55 50 46
56 51 47
56 51 47
56 51 47
55 50 46
56 51 47
55 50 46
56 51 47
56 51 47
55 50 46
56 51 47
56 51 47
56 51 47
56 51 47
56 51 47
56 51 47
55 50 46
56 51 47
56 51 47
56 51 47
56 51 47
55 50 46
55 50 46
55 50 46
56 51 47
56 51 47
55 51 46
55 50 46
54 50 46
54 49 45
54 50 46
53 48 44
48 44 41
45 41 38
47 42 39
40 36 34
32 29 28
22 19 21
35 29 33
130 104 71
56 45 45
42 34 38
39 31 36
35 29 32
40 37 35
46 42 39
50 46 42
49 45 42
54 50 46
52 47 43
53 49 45
79 71 53
54 49 45
54 49 45
55 50 46
54 50 46
54 50 46
54 49 45
51 45 42
66 54 54
48 38 42
57 43 51
73 50 59
58 44 54
31 22 39
35 26 44
33 25 42
34 24 42
34 26 43
28 22 35
25 20 33
55 50 46
54 49 45
56 51 47
54 49 46
55 50 46
55 50 46
55 50 46
56 51 47
56 51 47
56 51 47
56 51 47
55 50 46
56 51 47
55 50 46
56 51 47
55 50 46
56 51 47
54 50 45
56 51 47
54 50 46
52 48 44
54 49 45
52 47 43
52 47 43
50 46 42
50 46 42
37 48 39
36 49 39
77 103 56
79 105 57
66 73 43
43 59 44
40 55 42
42 60 45
42 56 45
74 39 54
62 9 51
70 10 57
75 10 59
56 51 47
80 58 51
82 60 53
82 60 53
85 62 54
80 58 50
80 59 51
77 56 49
82 59 52
79 56 49
74 53 47
71 51 45
56 42 37
54 49 46
55 50 46
54 48 45
54 49 46
53 48 45
56 51 47
54 49 45
56 51 47
56 51 47
56 51 47
58 52 47
66 60 55
60 54 49
65 59 53
58 53 49
61 55 50
63 57 52
59 52 46
56 50 45
59 54 49
62 56 51
55 50 45
55 50 46
56 51 47
55 50 46
55 50 46
55 51 47
56 51 47
55 50 46
56 51 47
55 50 46
56 51 47
56 51 47
56 51 47
56 51 46
56 51 47
56 51 47
56 51 47
55 50 46
55 51 46
55 50 46
56 51 46
54 49 45
56 51 46
53 47 43
54 48 44
53 48 44
52 47 43
51 46 42
52 47 43
51 46 42
51 47 43
47 42 39
51 47 43
48 44 40
46 41 37
94 64 31
89 58 29
80 51 26
91 58 29
92 59 29
92 59 30
92 59 30
92 59 29
93 60 30
89 58 28
95 61 30
91 59 29
95 61 30
90 58 29
96 62 31
90 58 29
95 61 30
95 61 30
98 63 31
92 60 30
98 63 31
103 66 31
95 62 31
97 63 31
153 97 38
101 61 30
95 62 30
97 62 31
88 57 28
99 64 32
190 119 41
226 141 47
97 63 31
158 100 38
154 97 38
235 147 49
196 123 43
224 140 46
225 141 47
197 124 43
226 142 47
255 165 54
196 123 43
255 208 64
255 190 59
255 234 71
255 242 73
255 219 67
255 231 70
255 255 77
255 232 70
255 255 84
255 207 63
255 235 71
255 223 68
255 255 80
255 255 78
255 195 60
255 255 76
255 161 51
255 171 52
117 135 62
56 66 44
202 232 97
94 109 57
94 109 57
79 72 52
54 49 45
55 50 46
79 71 53
56 51 46
55 49 45
53 48 44
54 49 45
53 48 44
55 50 45
56 51 47
56 50 46
55 50 46
55 50 45
56 51 47
56 50 46
54 50 45
81 73 54
54 49 45
55 50 46
55 50 46
55 50 46
55 50 46
56 51 46
55 50 46
56 51 46
54 49 45
56 51 47
81 73 55
55 50 46
55 50 46
56 51 47
56 51 47
55 50 46
56 51 47
56 51 47
55 50 46
55 50 46
56 51 47
56 50 46
55 50 46
109 93 61
57 50 45
55 50 46
55 49 45
55 50 46
51 46 42
52 47 43
81 69 51
44 39 36
73 64 45
40 23 26
255 255 245
255 255 255
255 255 255
255 255 255
255 255 255
255 255 255
255 255 255
255 255 255
255 255 255
255 255 255
255 255 255
255 255 255
255 255 255
255 255 255
255 255 255
255 255 255
255 255 255
255 255 255
255 255 255
255 255 255
255 255 255
255 255 255
255 255 255
255 255 255
255 255 255
255 255 238
69 54 46
55 50 46
55 50 46
54 48 44
53 47 44
52 39 36
79 57 42
98 71 48
87 63 48
96 69 46
46 22 28
45 32 30
64 42 36
52 38 34
54 40 36
55 47 43
55 49 45
56 51 47
55 50 46
54 49 45
55 50 46
55 50 46
55 50 46
80 72 54
56 51 47
55 50 46
56 51 47
55 49 45
60 47 38
147 80 19
175 95 22
236 128 28
175 95 22
178 97 23
176 96 23
123 67 18
117 64 17
120 66 18
73 40 14
62 45 34
53 49 45
53 48 44
52 47 43
48 43 40
47 43 39
38 34 31
38 34 31
34 30 27
67 48 27
31 28 25
32 28 25
40 34 29
39 33 29
38 34 31
54 42 38
45 39 34
57 50 38
44 40 36
32 29 26
49 42 32
31 28 25
24 21 19
27 25 23
32 29 26
39 35 32
45 41 38
45 41 37
52 47 43
53 48 44
79 71 53
54 49 45
54 50 45
54 49 45
54 49 45
56 50 46
55 50 46
55 50 46
56 51 47
56 51 47
56 51 47
56 51 47
55 50 46
81 73 55
56 51 47
56 51 47
56 51 47
56 51 47
56 51 47
56 51 47
56 51 47
56 51 47
56 51 47
81 73 54
56 51 47
81 72 54
56 51 47
56 51 47
56 51 47
56 51 47
56 51 46
55 50 46
55 50 46
54 49 45
55 50 46
56 51 47
55 51 46
55 50 46
54 49 45
54 49 45
50 46 42
49 44 41
46 42 39
55 48 42
36 33 31
22 19 19
15 14 14
36 29 22
16 13 14
21 18 19
26 23 24
25 23 22
36 33 31
43 39 37
45 41 38
51 47 43
54 49 45
53 49 45
54 49 45
55 50 46
55 50 46
54 49 45
53 49 45
53 48 45
58 49 47
100 76 78
125 92 96
134 99 102
132 97 100
117 86 91
102 76 82
55 41 49
26 18 32
25 18 31
29 22 38
27 20 34
23 18 29
21 17 27
41 37 39
51 47 43
53 49 45
54 50 46
54 49 46
55 50 46
55 50 46
60 56 47
70 68 50
74 73 52
70 69 51
64 60 49
57 52 47
55 50 46
56 51 47
55 51 46
56 51 47
56 51 47
55 51 47
54 50 46
55 50 46
53 49 45
49 46 42
49 45 41
51 47 43
47 43 39
42 39 36
34 36 31
27 37 30
28 40 31
66 85 46
34 47 37
38 53 41
38 53 41
33 47 36
33 44 36
26 24 27
55 8 44
66 9 54
63 9 50
55 50 46
70 52 46
79 56 47
78 57 50
79 57 50
78 57 50
75 54 48
78 57 50
72 52 46
71 51 44
66 47 41
60 43 39
53 40 36
53 48 44
55 50 46
54 49 45
55 51 47
54 50 46
56 51 47
55 50 46
56 51 47
55 50 46
52 47 43
57 52 48
56 49 46
60 55 50
64 58 53
63 57 52
58 53 49
63 58 52
63 57 52
58 52 48
59 53 49
58 52 48
71 62 56
55 50 46
56 51 46
55 50 46
54 49 45
56 51 47
56 51 47
56 51 47
55 50 46
55 50 46
55 50 46
56 51 47
56 51 47
55 50 46
54 49 45
56 51 47
54 49 45
55 50 46
56 51 47
54 50 46
54 50 46
54 50 46
53 48 44
55 49 45
54 50 46
52 47 43
52 47 44
53 48 44
53 48 44
55 50 46
54 49 45
53 48 44
50 46 42
52 47 43
53 48 44
75 50 31
90 57 29
86 56 28
90 58 29
88 57 28
83 53 26
90 58 29
92 59 29
88 57 28
97 63 31
89 57 28
91 59 29
86 55 28
96 60 29
98 63 31
89 58 29
89 57 28
112 70 34
151 95 36
89 58 29
96 62 31
153 96 37
155 98 38
154 97 38
151 96 37
96 62 31
93 60 30
94 60 30
104 67 31
95 61 30
152 96 37
156 98 39
150 94 36
151 96 37
199 122 42
255 190 60
142 67 32
190 119 41
156 98 37
255 166 54
255 206 63
253 158 51
255 159 52
255 206 63
255 175 55
255 216 66
255 230 70
255 255 82
255 230 70
255 228 69
255 255 76
255 232 70
255 196 61
255 234 70
255 255 79
255 229 68
255 254 76
255 219 66
255 255 79
255 243 72
250 158 51
200 230 95
187 214 90
188 216 91
157 181 80
116 133 62
115 131 62
54 49 45
52 47 43
52 47 43
81 72 54
54 49 45
56 51 47
54 49 45
54 49 45
54 49 45
55 50 46
55 50 46
54 49 45
55 50 46
56 51 47
81 72 54
55 50 46
55 51 46
56 51 47
56 51 47
54 49 45
56 51 47
56 51 46
55 50 46
56 51 46
55 50 46
56 51 47
56 51 47
81 73 55
55 50 46
55 50 46
56 51 47
56 51 47
55 50 46
56 51 47
56 51 46
81 72 54
55 50 46
55 50 46
55 50 46
56 51 47
55 50 46
54 49 45
81 72 54
65 49 46
55 50 46
53 48 44
53 48 44
52 47 43
161 142 78
255 255 255
255 255 255
255 255 255
255 255 255
255 255 255
255 255 255
255 255 255
255 255 255
255 255 255
255 255 255
255 255 255
255 255 255
255 255 255
255 255 255
255 255 255
255 255 255
255 255 255
255 255 255
255 255 255
255 255 255
255 255 255
255 255 255
255 255 255
255 255 255
255 255 255
255 255 255
255 255 255
255 255 255
255 255 255
255 255 255
172 149 84
54 48 45
51 45 42
51 42 39
52 37 34
69 38 36
81 57 42
51 38 34
53 39 35
79 51 40
54 39 36
53 38 35
48 37 34
54 48 44
80 71 53
53 48 44
54 49 45
55 50 46
56 51 47
56 51 47
55 50 46
81 72 54
55 50 46
56 51 47
55 50 46
55 50 46
142 81 33
192 104 23
215 116 26
174 94 22
173 94 22
197 107 24
196 106 24
119 66 18
159 83 20
70 39 13
74 41 14
64 43 31
69 57 46
52 47 43
51 46 42
52 48 44
75 67 47
49 43 39
45 40 37
45 41 37
46 42 38
63 51 40
44 39 36
50 45 41
61 54 42
47 42 38
51 47 42
48 44 40
46 41 37
44 40 36
48 43 40
58 52 39
45 40 37
43 39 35
44 40 36
44 40 36
45 41 37
48 44 40
46 42 38
53 48 44
55 50 45
53 49 45
56 51 47
52 48 44
56 51 46
55 50 46
55 50 46
55 50 46
81 73 55
55 51 46
56 51 47
56 51 47
56 51 47
56 51 47
56 51 47
56 51 47
56 51 47
56 51 47
56 51 47
56 51 47
56 51 47
55 50 46
56 51 47
55 50 46
56 51 47
56 51 47
56 51 47
56 51 47
56 51 47
55 51 46
56 51 47
55 50 46
55 50 46
55 50 46
56 51 47
55 50 46
81 72 54
54 49 45
56 51 47
52 48 44
55 49 45
52 48 44
61 54 47
50 45 42
46 42 39
40 36 34
36 33 31
36 33 31
24 21 21
29 26 24
28 26 24
29 26 25
36 33 31
43 39 36
50 44 42
77 68 50
52 47 44
52 47 43
53 48 45
52 47 44
51 47 43
54 49 45
54 49 46
54 49 45
56 46 45
116 84 88
137 101 103
144 105 106
147 107 107
147 107 107
144 105 106
136 100 102
102 76 81
22 18 30
21 16 28
21 15 26
20 15 26
20 16 26
33 29 32
49 45 42
50 46 42
51 46 43
55 50 46
53 48 45
58 54 47
76 76 53
83 83 55
83 84 55
122 121 64
85 85 56
84 85 55
80 81 54
59 55 47
56 51 47
56 51 47
54 50 46
54 50 46
53 49 45
54 50 46
55 50 46
54 50 46
52 48 44
55 50 46
45 42 39
43 40 37
40 37 34
32 30 28
29 29 26
23 31 25
27 37 29
27 36 29
29 41 32
25 34 27
22 29 25
29 33 28
39 32 33
35 5 29
57 7 45
85 7 53
55 50 46
65 51 46
66 48 43
66 48 43
71 52 46
67 49 43
69 50 44
71 51 45
67 48 42
61 44 40
114 80 49
59 42 37
50 40 36
49 45 41
51 46 43
54 49 45
48 43 40
54 50 46
54 49 45
56 51 47
55 50 46
55 50 46
54 49 45
55 50 46
53 49 45
57 52 48
61 55 50
57 52 47
60 55 50
64 58 52
55 50 46
58 53 48
53 47 43
89 81 74
68 62 57
55 50 46
55 50 46
55 50 46
55 50 46
56 51 47
56 51 47
56 51 47
56 51 47
56 51 47
55 50 46
55 50 46
55 50 46
55 50 46
56 51 47
55 50 46
56 51 46
56 51 47
54 49 45
55 50 46
56 51 47
55 50 46
54 49 45
55 50 46
55 50 46
53 48 44
53 48 44
54 49 45
54 49 45
52 47 43
55 50 46
55 49 45
55 50 46
56 51 46
54 48 44
66 50 39
87 56 28
91 59 30
94 60 30
86 55 27
90 57 28
84 54 27
86 56 28
89 58 28
93 60 30
93 61 30
92 59 29
92 59 29
92 59 29
86 55 28
151 95 37
93 60 30
92 60 29
147 92 35
92 60 30
95 61 30
87 56 28
89 58 29
114 73 29
92 60 30
92 60 30
150 95 36
89 58 28
226 141 47
94 61 30
233 144 47
93 59 29
93 59 27
224 140 46
255 177 56
225 141 47
198 124 43
230 144 48
255 191 60
255 191 59
252 158 50
164 103 39
255 175 55
255 219 66
255 198 62
255 240 72
255 217 66
255 251 75
255 255 76
255 250 74
255 230 69
255 164 52
255 255 86
255 255 85
255 255 76
255 213 65
255 200 61
235 147 48
255 229 68
255 187 56
203 148 54
136 156 68
208 234 95
92 107 55
138 159 71
156 180 79
88 99 52
53 48 44
55 50 46
81 72 54
54 49 45
54 49 45
54 49 45
54 49 45
55 50 46
55 56 46
54 49 45
55 50 46
54 49 45
55 50 46
55 50 46
55 50 46
92 77 54
55 50 46
56 51 47
56 51 47
55 50 46
55 50 46
56 51 46
55 50 46
56 50 46
56 51 47
81 72 54
54 49 45
81 72 54
55 50 46
80 72 53
100 89 61
55 50 46
81 72 54
56 51 47
56 51 47
55 50 46
81 73 54
80 72 54
55 50 46
55 50 46
55 50 46
55 49 46
84 71 53
55 50 46
53 47 44
80 71 52
51 46 43
255 255 255
255 255 255
255 255 255
255 255 255
255 255 255
255 255 255
255 255 255
255 255 255
255 255 255
255 255 255
255 255 255
255 255 255
255 255 255
255 255 255
255 255 255
255 255 255
255 255 255
255 255 255
255 255 255
255 255 255
255 255 255
255 255 255
255 255 255
255 255 255
255 255 255
255 255 255
255 255 255
255 255 255
255 255 255
255 255 255
255 255 255
255 255 255
255 255 255
255 255 255
76 66 48
46 39 36
43 34 31
75 47 35
48 34 31
54 38 34
95 59 41
53 38 34
49 34 31
43 31 29
47 40 37
50 43 40
52 46 42
53 47 43
56 51 47
56 50 46
56 50 46
54 49 45
55 50 46
54 49 45
55 50 46
53 47 43
55 50 46
56 51 47
140 76 37
255 154 32
196 106 23
251 136 29
255 145 31
255 134 29
214 116 25
195 106 24
144 78 18
127 66 17
67 37 13
56 37 25
54 49 45
55 50 46
53 48 44
52 47 43
54 49 45
54 50 46
50 45 42
52 47 43
73 59 44
64 51 40
51 47 43
49 45 41
53 48 44
67 55 44
71 59 49
84 71 53
63 47 45
59 47 44
51 47 43
51 47 42
50 46 42
49 45 41
50 46 42
53 48 44
51 47 43
52 47 43
78 70 51
52 48 44
54 49 45
53 48 45
55 50 47
54 50 45
56 51 47
54 49 45
55 50 46
56 51 47
56 51 47
56 51 47
55 50 46
56 51 47
56 51 47
56 51 47
56 51 47
56 51 47
55 50 46
57 53 49
70 70 66
90 91 87
90 91 87
81 82 77
60 57 54
56 51 47
56 51 47
56 51 47
56 51 47
55 50 46
56 51 47
56 51 47
56 51 47
55 51 47
55 51 46
56 51 47
56 51 47
55 51 47
56 51 47
55 50 46
55 50 46
55 50 46
56 51 47
55 50 46
55 50 46
50 46 43
53 48 45
46 42 39
46 42 39
41 38 35
40 36 34
42 38 36
42 38 36
37 33 31
40 35 34
46 42 39
47 42 39
78 69 51
52 47 44
54 49 45
54 49 45
55 50 46
55 50 46
55 50 46
53 49 45
53 46 44
100 73 79
132 97 100
141 103 105
147 107 107
150 109 109
150 110 109
148 108 108
143 105 106
134 99 102
100 75 79
14 11 19
15 12 21
13 10 16
28 26 25
42 38 36
46 42 39
49 45 42
52 48 44
53 48 45
54 51 44
147 144 70
80 81 54
82 82 54
82 83 54
83 83 55
83 83 55
83 84 55
83 84 55
80 80 53
61 58 47
54 50 46
54 50 46
55 50 46
55 50 46
54 49 45
55 50 46
53 49 45
49 45 41
50 46 42
50 46 42
42 39 36
43 40 37
35 33 30
22 21 20
18 17 16
18 20 17
28 35 22
61 74 35
24 31 25
24 23 21
30 28 26
34 31 29
32 19 28
109 15 58
43 6 36
55 50 46
56 49 46
62 46 41
78 47 44
63 46 41
62 45 40
65 47 41
61 43 38
63 46 41
48 35 31
49 35 32
53 37 33
45 39 37
49 44 41
49 44 40
53 48 44
52 47 43
52 47 44
54 49 45
53 49 45
53 48 44
55 50 46
56 51 46
80 74 65
66 61 53
61 56 50
60 55 50
54 49 46
57 52 48
47 43 40
48 42 42
53 47 46
69 59 57
113 101 88
57 52 48
55 50 46
54 49 45
55 50 46
55 50 47
55 50 46
55 50 46
56 51 47
55 50 46
55 50 46
56 51 47
56 51 47
56 51 46
56 51 47
56 51 47
55 50 46
55 50 46
55 50 46
55 50 46
54 49 45
56 51 47
53 48 44
56 50 46
54 49 45
54 49 44
53 48 44
55 49 45
54 49 45
53 48 44
54 49 45
53 48 44
54 49 45
54 49 45
54 49 45
54 49 45
63 50 40
124 68 26
79 50 25
89 56 28
87 56 28
89 57 28
89 57 28
90 58 29
89 57 28
90 58 29
81 52 26
87 56 28
89 58 29
91 59 29
127 68 31
92 59 30
105 67 31
92 59 29
86 56 27
95 61 30
92 59 29
91 58 29
91 59 29
149 94 36
97 63 31
94 60 30
100 64 30
189 119 41
149 94 36
153 97 37
87 56 28
87 56 28
224 141 47
228 143 47
225 141 47
255 174 55
253 159 51
224 141 47
255 204 62
255 175 55
255 200 61
255 191 59
220 133 44
255 221 67
255 209 64
255 204 63
255 210 64
255 161 52
243 145 47
255 250 75
255 251 75
255 255 77
255 255 83
255 255 84
255 253 75
255 255 86
255 255 78
255 177 55
255 240 71
255 162 50
193 212 85
157 179 74
214 246 101
183 205 87
153 176 75
170 195 81
87 97 51
79 71 53
54 49 45
55 50 47
80 72 53
53 48 44
53 48 44
55 50 46
54 49 45
54 49 45
53 48 44
55 50 46
55 50 46
54 49 45
54 49 45
54 49 45
80 72 53
55 50 46
55 50 46
54 49 45
81 72 54
56 51 46
54 49 45
55 50 46
55 50 46
55 50 46
55 50 46
55 50 46
55 50 46
56 51 47
56 51 47
166 147 85
84 76 57
166 148 86
120 107 72
71 65 58
60 54 49
55 50 46
55 50 46
56 51 47
55 50 46
55 50 46
55 50 46
54 48 44
56 51 47
56 51 46
255 255 171
255 255 255
255 255 255
255 255 255
255 255 255
255 255 255
255 255 255
255 255 255
255 255 255
255 255 255
255 255 255
255 255 255
255 255 255
255 255 255
255 255 255
255 255 255
255 255 255
255 255 255
255 255 255
255 255 255
255 255 255
255 255 255
255 255 255
255 255 255
255 255 255
255 255 255
255 255 255
255 255 255
255 255 255
255 255 255
255 255 255
255 255 255
255 255 255
255 255 255
255 255 255
255 255 255
255 255 255
255 255 156
39 32 30
106 79 46
91 53 32
66 39 26
91 53 33
45 25 30
65 29 45
62 33 44
59 36 43
45 39 36
50 44 41
96 80 52
55 49 45
53 48 44
55 49 46
55 49 45
56 51 46
80 72 53
54 49 45
54 49 45
52 48 44
79 71 52
49 37 31
166 89 20
169 91 20
233 126 27
194 106 24
192 104 23
158 87 19
110 60 15
71 39 12
74 46 11
55 30 10
52 39 31
53 48 44
55 50 46
54 49 45
54 49 45
52 47 42
54 49 45
54 49 45
76 63 45
52 47 43
68 56 45
63 56 44
54 49 44
59 50 46
80 53 54
88 54 56
88 54 56
89 55 57
87 53 56
83 53 55
64 50 48
52 47 43
52 48 44
53 48 44
52 48 44
53 49 44
53 48 44
53 48 44
53 49 45
55 50 46
54 50 46
55 50 46
55 50 46
55 50 46
56 51 47
56 51 47
55 51 46
55 50 46
55 50 46
56 51 47
81 72 54
56 51 47
56 51 47
56 51 47
56 51 47
66 66 63
101 103 99
111 113 107
116 117 109
116 118 110
115 116 109
106 108 103
72 70 68
54 49 45
56 51 47
56 51 47
56 51 47
56 51 47
56 51 47
56 51 47
57 52 47
56 51 47
56 51 47
56 51 47
56 51 47
55 50 46
56 51 47
54 50 46
54 50 46
55 50 46
55 50 46
55 50 46
53 48 45
64 56 49
52 47 44
54 50 46
60 52 45
52 47 43
49 44 41
50 45 42
54 49 45
50 45 42
48 44 41
52 48 44
53 49 45
53 48 45
54 49 45
55 50 46
54 49 46
55 50 46
55 50 46
53 48 44
57 43 46
178 131 102
132 97 101
140 103 104
145 106 106
148 108 108
149 109 108
147 107 107
143 105 106
135 99 102
110 83 87
31 24 26
18 16 15
21 19 18
29 26 25
41 37 34
39 35 33
48 44 40
50 46 42
53 48 44
69 68 48
147 144 69
78 78 52
117 115 60
82 83 54
121 119 63
84 84 55
81 82 54
79 80 52
82 83 54
73 73 50
56 51 47
56 51 47
55 51 47
56 51 47
54 49 45
56 51 47
53 49 45
58 59 47
50 47 42
51 47 43
47 43 40
40 37 34
40 37 34
33 31 28
27 25 23
21 20 18
19 18 16
20 19 18
16 15 14
20 19 18
19 17 17
25 22 21
22 19 20
32 12 25
34 4 28
54 49 45
52 47 43
52 43 40
59 42 38
52 37 33
55 39 35
55 40 36
54 39 35
48 35 32
53 38 34
47 34 31
40 32 30
43 38 36
49 44 41
48 44 40
51 47 43
52 47 43
51 46 42
53 49 45
53 48 44
55 50 46
53 48 44
54 49 45
57 52 47
78 72 64
75 74 65
84 80 65
92 83 75
67 59 51
50 49 37
64 57 59
86 75 76
115 105 94
81 75 66
54 49 46
55 50 46
55 50 46
56 51 47
55 50 46
55 50 46
55 50 46
55 50 46
56 51 47
55 50 46
54 50 46
56 51 46
55 50 46
56 51 47
55 50 45
56 51 46
55 50 45
56 51 47
55 50 46
56 51 47
55 50 46
55 50 46
55 50 46
60 62 52
81 88 69
90 98 76
89 97 75
82 89 69
64 65 54
51 46 42
52 47 43
53 48 44
52 47 43
55 49 45
53 47 43
56 50 46
78 52 28
85 54 27
83 53 26
80 51 26
86 56 28
84 55 27
82 53 26
81 53 26
88 57 28
90 58 29
85 55 27
82 53 26
90 58 29
87 56 28
89 58 29
94 61 30
91 58 29
84 55 27
93 59 30
91 57 29
91 59 29
93 59 30
87 56 28
147 93 35
190 119 41
149 94 36
85 54 27
92 59 29
96 62 31
149 94 36
125 81 30
92 59 29
149 94 36
227 142 47
89 58 28
146 92 35
226 141 48
252 158 50
253 158 51
253 159 51
255 160 51
223 139 46
255 223 67
255 252 75
255 178 56
255 189 58
255 250 75
255 198 61
255 251 75
255 255 79
255 172 53
255 255 82
255 255 79
255 240 72
255 255 90
255 234 70
255 237 69
255 255 80
255 185 56
137 133 73
152 174 72
184 211 86
168 194 80
184 211 86
139 158 68
88 95 52
51 47 43
79 70 52
53 48 44
79 71 53
53 48 44
70 56 45
100 88 60
55 50 46
80 72 53
55 50 46
54 49 45
55 50 46
54 49 45
54 49 45
54 49 45
81 72 54
55 50 46
55 50 46
55 51 46
54 49 45
55 50 46
56 50 46
55 50 45
55 50 46
81 72 54
56 51 47
55 51 46
55 50 46
56 51 47
164 145 83
65 59 53
85 76 57
167 148 86
57 52 47
88 79 61
106 96 68
108 96 69
94 73 57
55 50 46
55 50 46
56 50 46
80 71 53
55 50 46
55 49 46
255 255 255
255 255 255
255 255 255
255 255 255
255 255 255
255 255 255
255 255 255
255 255 255
255 255 255
255 255 255
255 255 255
255 255 255
255 255 255
255 255 255
255 255 255
255 255 255
255 255 255
255 255 255
255 255 255
255 255 255
255 255 255
255 255 255
255 255 255
255 255 255
255 255 255
255 255 255
255 255 255
255 255 255
255 255 255
255 255 255
255 255 255
255 255 255
255 255 255
255 255 255
255 255 255
255 255 255
255 255 255
255 255 255
255 255 255
255 255 246
71 61 39
96 68 41
91 63 41
140 69 70
97 34 65
99 35 67
142 49 77
98 34 66
90 34 62
71 42 52
53 47 43
55 50 46
55 50 46
55 50 46
52 46 42
55 50 46
55 49 45
54 49 45
52 47 43
80 71 53
51 46 43
49 43 39
187 101 23
214 115 25
170 92 20
214 114 24
232 126 27
192 104 23
167 90 20
57 31 11
77 35 11
65 41 9
53 47 43
55 50 46
55 50 46
55 50 46
53 48 44
53 48 44
56 51 47
80 72 53
55 51 46
54 49 45
94 79 54
53 48 44
94 57 47
82 52 54
87 54 56
182 104 77
87 53 56
88 54 56
88 54 56
127 77 65
84 52 54
64 50 47
53 48 45
53 49 45
55 50 46
55 50 46
55 50 46
55 50 46
66 59 48
56 51 47
56 51 47
55 50 46
55 51 47
56 51 47
56 51 47
80 72 54
56 51 47
56 51 47
55 50 46
56 51 47
56 51 47
56 51 47
56 51 47
55 50 46
56 54 51
96 97 94
112 113 107
118 120 111
121 122 113
122 123 113
120 121 112
116 117 109
109 111 105
69 68 67
55 50 46
56 51 47
56 51 47
55 50 46
56 51 47
55 50 46
56 51 47
56 51 47
55 50 47
56 51 47
56 51 47
55 50 46
55 50 46
55 50 46
56 51 46
56 51 47
54 49 45
55 50 46
67 61 56
59 54 49
69 63 57
65 59 53
60 54 50
52 47 44
51 46 42
52 48 44
53 48 45
50 46 42
51 46 43
54 49 46
54 49 45
54 49 46
55 50 46
53 48 45
55 50 46
55 50 46
55 50 46
56 51 47
49 36 40
99 70 73
128 93 95
135 99 102
139 102 104
142 104 105
143 105 106
142 104 105
139 102 104
131 97 100
96 75 70
43 34 35
35 31 30
29 27 25
34 31 29
44 40 37
46 42 39
50 45 42
51 46 43
56 52 44
190 185 81
171 167 76
77 77 52
118 117 62
118 117 62
80 81 54
79 80 53
78 79 52
76 77 51
76 77 51
78 79 53
59 55 47
56 51 47
56 51 47
55 51 47
55 50 46
55 50 46
53 49 45
53 49 45
53 49 45
51 47 43
52 48 44
49 45 41
47 43 40
45 42 38
39 36 33
40 37 34
38 35 33
33 31 28
32 29 28
29 27 25
30 27 25
25 22 21
23 20 19
21 18 18
23 13 18
52 47 43
51 46 43
48 44 40
46 39 36
41 30 28
40 29 27
51 36 33
114 80 46
38 27 24
32 23 21
27 22 20
31 28 26
38 34 32
40 36 33
46 41 38
47 42 39
54 49 45
50 45 41
51 46 43
54 50 46
53 49 45
53 48 44
55 50 45
55 50 46
54 49 46
87 80 70
119 110 95
122 112 98
124 115 100
114 106 90
126 115 102
121 110 95
81 74 65
54 49 46
55 50 46
54 49 46
55 50 46
54 49 45
56 51 47
55 50 46
55 51 47
55 50 46
55 50 46
56 51 47
55 50 46
55 49 45
55 50 45
56 51 47
55 50 46
55 50 46
56 51 46
55 51 47
56 51 46
55 50 46
55 50 46
51 47 43
71 77 62
99 108 83
104 114 86
108 117 88
107 117 87
105 115 86
99 108 83
84 86 69
51 44 41
54 49 45
55 50 46
54 49 45
54 49 45
55 50 45
70 51 35
77 49 24
87 56 28
78 50 25
86 55 27
123 73 29
106 78 29
88 56 28
87 56 28
91 58 29
83 53 26
108 71 29
86 56 27
82 52 26
86 56 28
93 60 30
88 57 28
92 60 29
89 57 28
90 58 29
91 59 29
188 118 40
90 58 29
88 56 28
171 108 36
116 61 28
89 58 29
147 93 35
230 144 48
223 140 46
197 123 43
156 97 36
155 98 36
144 90 33
255 189 59
150 95 36
255 161 52
255 191 58
255 189 59
247 142 47
255 245 73
255 176 55
255 240 72
255 254 76
255 196 60
255 252 75
255 174 55
255 189 58
255 189 59
255 240 71
255 255 80
255 232 70
255 220 66
255 251 75
255 255 93
255 205 62
255 214 63
255 200 61
194 123 45
114 97 67
152 173 72
109 125 54
170 196 80
150 173 71
87 98 47
48 44 40
48 44 40
50 46 42
52 47 43
52 48 44
53 48 43
55 50 45
56 51 46
53 48 44
54 49 44
55 50 46
79 71 52
53 48 44
80 71 53
54 49 44
55 50 46
54 49 44
55 50 46
80 72 54
54 49 45
81 72 54
55 51 46
72 58 47
54 49 45
55 50 46
55 50 45
55 50 46
56 51 47
56 51 47
173 154 87
91 79 62
88 78 59
166 147 86
174 154 87
121 108 72
90 85 58
107 96 68
146 130 82
60 50 47
56 51 47
56 51 47
56 51 47
55 50 46
224 197 106
255 255 255
255 255 255
255 255 255
255 255 255
255 255 255
255 255 255
255 255 255
255 255 255
255 255 255
255 255 255
255 255 255
255 255 255
255 255 255
255 255 255
255 255 255
255 255 255
255 255 255
255 255 255
255 255 255
255 255 255
255 255 255
255 255 255
255 255 255
255 255 255
255 255 255
255 255 255
255 255 255
255 255 255
255 255 255
255 255 255
255 255 255
255 255 255
255 255 255
255 255 255
255 255 255
255 255 255
255 255 255
255 255 255
255 255 255
255 255 255
255 255 255
255 255 255
229 201 105
88 34 58
94 33 64
96 34 65
203 70 95
175 60 86
141 49 76
96 34 65
95 33 65
74 42 54
56 50 46
56 51 46
55 50 46
56 51 47
54 49 45
54 48 44
79 71 52
52 47 43
53 48 44
49 44 40
73 65 45
36 29 25
171 91 19
190 103 21
194 105 22
196 106 23
137 75 17
136 74 16
54 28 9
43 23 8
42 34 29
49 44 40
48 43 39
52 47 43
53 48 44
55 50 46
56 51 47
55 50 46
80 71 53
54 49 45
54 49 45
56 51 47
54 49 45
74 47 49
180 108 78
157 94 72
198 117 83
183 110 80
182 109 80
117 69 60
86 52 55
85 52 55
78 50 52
59 51 48
56 51 47
55 50 46
55 50 46
55 50 45
56 51 47
55 50 46
56 51 47
55 50 46
56 51 47
55 51 46
55 50 46
56 51 47
55 50 46
56 51 47
55 51 47
81 73 54
57 52 47
56 51 47
56 51 47
56 51 47
52 48 45
106 101 69
106 108 104
114 115 108
118 120 111
121 122 112
122 123 113
121 122 112
118 119 110
112 113 107
95 96 94
52 49 47
56 51 47
56 51 47
56 51 47
56 51 47
56 51 47
56 51 47
56 51 47
55 50 46
56 51 47
56 51 47
56 51 47
56 51 47
55 50 46
55 50 46
56 51 47
58 53 48
61 56 51
57 52 48
73 66 59
61 56 51
66 60 54
60 54 49
69 62 56
55 50 46
55 50 46
56 51 47
54 49 46
54 49 45
55 50 46
55 50 47
54 49 45
54 49 45
55 49 46
55 50 46
55 50 46
56 51 47
54 47 45
54 39 43
63 45 49
179 135 94
255 255 255
201 145 119
132 97 99
135 99 102
134 98 101
130 96 100
118 89 91
67 55 46
47 38 37
45 40 38
45 41 38
45 41 38
48 44 40
47 43 39
51 46 43
52 47 44
105 101 54
62 59 41
70 68 46
118 116 59
116 115 61
73 72 48
75 75 49
78 78 51
75 74 49
74 74 49
74 75 50
71 73 48
60 58 47
56 51 47
55 51 47
56 51 47
56 51 47
55 50 46
54 49 45
53 48 44
54 49 45
55 50 46
52 47 44
53 48 44
51 47 43
49 45 42
47 43 40
45 41 38
44 40 37
40 37 34
39 36 33
37 34 32
34 30 29
34 30 29
33 29 28
23 20 20
21 18 18
50 45 41
46 42 39
43 39 36
40 36 33
34 31 29
37 31 29
27 20 19
24 18 18
18 13 13
20 18 17
21 19 18
31 28 26
31 28 26
40 36 34
47 43 39
51 47 43
53 48 44
54 49 45
54 49 45
55 50 46
55 50 46
55 50 46
54 49 45
55 50 46
53 48 45
54 50 46
58 53 48
90 82 71
89 81 71
87 80 69
76 69 60
55 49 45
55 50 46
54 49 45
54 49 45
55 50 46
55 50 46
55 51 47
55 50 46
55 50 46
55 50 46
55 50 46
56 51 46
56 51 47
56 51 47
56 51 47
56 50 46
54 49 45
55 50 46
56 51 46
56 51 47
56 51 46
55 50 46
56 51 46
55 49 45
63 65 54
97 107 82
105 115 86
109 119 88
111 120 89
110 120 89
107 116 86
102 111 84
98 108 83
67 72 57
52 47 43
55 50 46
55 50 45
55 50 46
53 48 44
60 49 42
82 52 26
75 48 24
78 50 25
83 53 27
81 52 26
103 62 30
81 51 25
87 56 28
120 77 27
87 55 27
88 58 28
86 55 27
87 56 28
85 55 27
90 58 29
130 66 29
86 56 28
84 54 27
87 56 28
83 54 27
83 53 27
87 56 28
192 121 42
89 57 28
145 92 34
86 55 27
89 58 29
83 53 26
193 121 41
105 65 32
189 118 41
153 96 36
193 121 41
253 158 51
255 190 59
255 221 67
255 160 51
255 190 58
255 174 55
255 160 51
255 189 58
255 176 55
255 217 66
237 148 47
255 231 70
255 255 77
255 243 71
255 164 52
255 229 68
255 236 71
255 206 63
255 255 77
255 247 74
255 217 64
255 204 61
255 221 66
255 253 75
255 165 63
117 99 68
77 89 39
132 151 61
111 128 54
126 136 57
37 34 31
47 43 39
42 39 35
77 69 50
53 48 44
51 47 43
54 49 45
60 58 46
52 48 44
54 49 45
80 71 53
80 71 53
53 48 44
54 49 45
81 73 55
54 49 45
56 51 47
53 49 44
71 57 46
55 50 45
55 50 45
81 72 54
54 49 45
55 50 45
55 50 46
56 51 47
55 49 45
56 50 46
55 49 45
55 50 46
163 145 82
255 245 129
225 198 106
181 158 89
175 155 89
117 104 68
156 139 85
104 93 65
118 105 70
132 117 75
56 51 47
81 73 55
55 50 46
255 255 145
255 255 255
255 255 255
255 255 255
255 255 255
255 255 255
255 255 255
255 255 255
255 255 255
255 255 255
255 255 255
255 255 255
255 255 255
255 255 255
255 255 255
255 255 255
255 255 255
255 255 255
255 255 255
255 255 255
255 255 255
255 255 255
255 255 255
255 255 255
255 255 255
255 255 255
255 255 255
255 255 255
255 255 255
255 255 255
255 255 255
255 255 255
255 255 255
255 255 255
255 255 255
255 255 255
255 255 255
255 255 255
255 255 255
255 255 255
255 255 255
255 255 255
255 255 255
255 255 255
255 255 255
255 240 138
202 70 94
249 85 109
249 86 110
226 78 102
174 60 86
95 33 65
139 48 75
90 34 62
62 43 48
55 49 45
56 51 46
56 51 47
79 70 52
53 48 44
53 48 44
52 47 43
52 46 42
47 42 38
77 69 50
38 32 29
27 19 14
100 55 12
135 73 16
163 88 19
98 53 12
45 24 8
99 54 12
37 27 21
40 35 32
44 39 36
88 74 50
63 56 44
50 46 42
55 50 46
80 72 53
54 49 45
54 49 45
56 51 47
78 70 51
55 50 46
60 46 45
255 155 103
155 93 71
255 155 104
183 110 79
156 94 72
182 109 80
119 51 53
125 76 64
81 50 53
79 49 51
64 48 47
55 50 46
54 49 45
55 50 46
55 50 46
54 49 45
56 51 46
54 50 46
55 50 47
55 50 46
56 51 47
56 51 47
55 50 47
75 69 54
55 51 46
56 51 47
56 51 47
56 51 47
56 51 47
55 51 47
56 51 47
49 46 44
68 66 63
104 106 102
111 113 106
116 117 109
118 119 110
119 120 111
118 120 111
115 117 109
110 112 106
100 102 100
51 50 49
55 51 47
55 50 46
56 51 47
56 51 47
56 51 47
55 51 47
55 50 46
56 51 47
56 51 47
56 51 47
56 51 47
55 50 46
55 50 46
56 51 47
61 55 50
65 59 53
64 58 53
83 75 56
61 56 51
54 50 46
58 53 48
61 55 50
65 60 54
60 55 50
54 49 45
55 50 46
54 49 46
55 50 46
55 50 46
56 51 47
54 49 45
55 50 46
54 49 45
56 50 47
55 49 46
54 49 45
53 47 44
54 39 43
63 46 50
85 63 65
255 194 122
108 80 77
207 136 91
118 81 86
110 63 66
103 77 76
81 61 62
133 103 54
46 38 38
45 41 38
50 45 42
47 42 39
49 44 41
51 46 43
51 47 43
52 47 43
50 45 38
58 57 39
112 110 57
144 141 66
168 164 73
72 69 46
145 141 66
74 75 50
71 71 47
76 76 51
67 67 44
67 68 45
76 69 50
55 51 46
54 50 46
55 51 47
55 51 46
55 51 46
56 51 47
55 50 46
55 50 46
53 49 45
55 50 46
54 49 46
55 50 46
55 50 46
53 49 44
53 48 44
59 41 42
49 45 42
60 41 43
46 42 39
46 42 39
45 41 38
42 38 36
42 53 35
38 57 30
51 47 43
46 42 38
37 34 31
40 36 34
34 31 29
38 34 32
27 25 23
26 23 22
17 15 14
51 40 31
34 31 29
38 34 32
44 40 37
50 45 42
50 45 41
53 48 44
53 48 44
53 49 45
55 50 46
54 49 45
55 50 46
54 49 45
54 49 46
55 50 46
53 49 45
53 49 45
54 49 46
53 49 45
55 50 46
56 51 47
56 51 46
54 49 45
53 49 45
80 71 53
55 50 46
53 49 45
55 50 46
53 48 44
55 50 46
55 50 46
55 50 46
55 50 46
55 50 46
55 50 46
55 50 46
56 51 47
55 50 46
56 51 47
56 51 47
56 51 47
55 50 46
55 50 46
56 51 47
54 49 45
52 49 43
80 88 69
99 109 83
105 115 86
109 119 88
110 120 89
108 118 87
88 92 66
69 62 39
84 88 66
84 94 75
48 48 42
55 50 46
53 49 44
54 49 44
54 49 45
53 48 44
69 45 26
78 50 25
78 50 25
105 55 27
80 50 25
118 69 27
86 55 27
77 50 25
109 76 27
81 52 26
80 52 26
84 55 27
90 58 29
84 54 28
90 59 29
96 62 29
87 56 28
91 59 29
85 54 27
188 118 40
103 66 31
82 54 27
187 118 40
92 59 29
86 55 27
86 55 28
188 115 37
224 140 45
152 95 35
188 118 41
145 91 34
84 53 27
255 160 51
193 120 40
152 95 37
222 139 45
255 193 59
254 159 50
255 228 69
255 192 59
255 189 59
255 176 55
255 249 73
255 175 55
248 145 49
255 203 61
255 206 63
255 241 72
255 255 91
255 247 73
255 255 77
255 174 53
255 255 74
255 255 80
255 255 77
255 215 64
255 174 52
169 142 88
78 47 47
77 89 39
21 26 18
20 23 18
28 26 24
33 32 27
45 41 38
48 44 40
82 76 51
82 76 52
56 55 42
53 48 44
52 46 42
54 49 44
51 46 42
80 71 53
54 49 45
80 71 52
54 49 45
56 51 46
55 50 46
55 50 46
56 51 47
54 49 45
54 48 44
57 52 47
81 72 54
56 51 46
71 57 46
54 49 45
57 56 46
55 50 46
56 51 47
56 49 45
223 197 105
224 198 106
100 88 60
84 73 53
174 154 87
203 179 101
117 104 68
111 95 63
104 93 64
145 128 80
130 115 73
99 88 60
81 72 54
255 255 198
255 255 255
255 255 255
255 255 255
255 255 255
255 255 255
255 255 255
255 255 255
255 255 255
255 255 255
255 255 255
255 255 255
255 255 255
255 255 255
255 255 255
255 255 255
255 255 255
255 255 255
255 255 255
255 255 255
255 255 255
255 255 255
255 255 255
255 255 255
255 255 255
255 255 255
255 255 255
255 255 255
255 255 255
255 255 255
255 255 255
255 255 255
255 255 255
255 255 255
255 255 255
255 255 255
255 255 255
255 255 255
255 255 255
255 255 255
255 255 255
255 255 255
255 255 255
255 255 255
255 255 255
255 255 255
255 255 255
255 255 223
255 99 123
255 122 146
248 85 109
227 78 102
142 42 67
200 73 93
137 48 74
74 34 53
54 49 45
81 72 54
54 48 45
55 50 46
54 48 44
55 50 46
54 49 45
50 44 40
47 42 38
46 41 38
108 95 57
46 32 24
62 54 31
28 17 8
100 54 13
31 16 10
47 24 6
25 21 18
33 30 27
40 36 33
47 43 39
54 48 43
54 49 44
55 49 45
80 71 53
55 50 46
54 49 45
55 50 46
55 50 46
55 50 46
100 89 61
115 72 55
255 149 95
227 138 90
122 74 61
222 133 90
163 93 71
84 51 52
121 73 60
122 74 61
77 48 50
73 45 48
69 46 47
55 51 46
56 51 47
55 50 46
55 50 46
56 51 47
55 50 46
56 51 47
56 51 47
56 51 47
55 50 46
56 51 47
55 51 47
56 51 47
56 51 47
56 51 47
73 68 54
56 51 47
55 50 47
55 51 47
55 50 47
47 45 45
51 48 46
79 71 68
255 255 191
255 255 224
113 115 108
113 115 108
113 114 107
110 112 106
106 108 103
84 84 83
47 45 46
56 51 47
56 51 47
56 51 47
56 51 47
56 51 47
55 50 46
55 50 46
56 51 47
56 51 47
56 51 47
55 50 46
56 51 47
56 51 47
54 50 46
60 55 50
69 63 57
61 55 50
58 53 49
62 57 51
61 55 49
61 56 50
57 52 48
61 56 51
73 67 60
60 53 49
55 50 46
56 51 47
53 48 45
56 51 47
55 50 46
55 50 46
54 49 46
56 50 47
55 49 46
54 49 45
55 50 46
53 47 44
52 39 42
56 40 45
61 44 48
55 40 45
56 41 45
54 40 44
139 35 37
65 20 22
54 36 38
62 46 43
40 30 32
51 44 42
50 45 42
54 49 45
52 47 43
51 46 43
49 45 41
51 47 43
50 45 42
50 47 39
134 129 56
104 102 49
108 105 52
108 106 53
167 163 71
65 63 42
68 66 44
68 67 45
69 69 46
61 61 41
55 56 38
56 52 46
56 51 47
54 49 45
55 51 46
54 49 46
55 51 46
55 50 46
54 49 45
56 51 47
54 50 45
55 50 46
55 51 46
54 49 45
55 50 46
54 49 45
53 48 44
51 47 43
48 44 41
55 50 46
51 46 43
49 49 41
42 68 33
64 121 38
44 87 33
45 88 33
49 45 41
49 44 40
51 47 43
45 41 38
43 39 36
38 34 31
38 34 32
42 38 35
38 34 32
38 34 31
48 44 40
49 45 41
50 45 41
49 44 41
54 49 45
53 48 44
54 49 45
55 49 45
55 50 46
55 50 46
53 49 45
55 50 47
54 50 46
54 50 46
54 49 46
54 49 45
54 49 46
54 49 45
71 55 46
54 50 46
52 47 43
55 50 46
54 49 46
55 50 46
55 50 46
55 50 46
55 50 46
55 50 46
55 50 46
55 50 46
56 51 46
56 51 47
56 51 47
56 51 47
55 50 46
55 50 46
56 51 47
56 51 47
55 50 46
55 50 45
56 51 47
54 50 46
56 51 46
55 50 46
52 50 44
85 93 73
99 108 83
103 113 85
106 116 87
107 117 87
100 108 80
60 54 34
51 40 18
50 44 27
69 75 58
41 45 36
53 48 44
52 47 43
53 49 44
52 47 43
52 47 44
64 48 37
69 44 22
77 48 24
71 46 23
80 51 25
79 51 26
80 51 26
80 51 25
85 54 27
89 58 29
78 51 25
89 58 28
83 54 27
84 54 27
82 53 27
80 51 25
98 64 30
88 57 28
102 66 31
86 55 27
147 93 35
77 49 25
79 51 25
147 93 35
98 63 29
193 121 41
147 93 35
164 91 33
145 91 34
145 92 34
255 177 56
210 131 45
88 56 28
231 143 46
225 141 45
220 137 44
255 162 52
252 157 50
255 187 57
255 161 51
255 180 56
234 144 47
253 158 50
255 217 65
255 161 51
255 216 65
255 166 52
255 230 69
255 230 68
255 255 83
255 254 75
255 221 66
255 255 84
255 233 69
255 230 68
255 231 69
204 141 64
167 141 87
148 125 77
10 9 9
20 19 17
26 25 21
44 45 32
43 39 36
42 38 35
53 52 39
51 47 42
50 45 41
78 69 50
83 77 53
50 46 42
53 49 44
57 51 44
52 47 43
54 49 45
53 48 44
80 71 53
79 71 52
55 50 46
55 50 46
55 50 46
53 48 44
53 48 44
55 50 46
81 72 54
56 51 47
80 71 53
55 49 45
71 57 46
56 51 46
54 48 44
81 72 54
80 72 53
173 153 86
224 198 106
226 199 108
144 127 79
185 163 93
255 240 127
193 170 96
100 89 61
58 53 48
139 119 74
66 60 52
255 255 157
255 255 255
255 255 255
255 255 255
255 255 255
255 255 255
255 255 255
255 255 255
255 255 255
255 255 255
255 255 255
255 255 255
255 255 255
255 255 255
255 255 255
255 255 255
255 255 255
255 255 255
255 255 255
255 255 255
255 255 255
255 255 255
255 255 255
255 255 255
255 255 255
255 255 255
255 255 255
255 255 255
255 255 255
255 255 255
255 255 255
255 255 255
255 255 255
255 255 255
255 255 255
255 255 255
255 255 255
255 255 255
255 255 255
255 255 255
255 255 255
255 255 255
255 255 255
255 255 255
255 255 255
255 255 255
255 255 255
255 255 255
255 255 255
255 252 164
249 86 107
255 99 122
197 68 89
200 69 92
133 46 70
96 31 57
132 43 65
54 49 45
55 49 45
63 51 43
56 51 47
54 49 45
79 70 52
54 49 45
84 71 49
83 69 47
55 42 34
78 64 41
69 60 39
31 26 23
28 25 23
27 24 23
65 58 36
26 23 21
33 29 26
37 33 30
42 37 34
50 45 41
77 69 50
52 47 43
51 47 43
54 49 45
54 49 45
54 49 45
56 51 47
55 50 46
55 50 46
56 51 47
114 72 55
218 130 86
241 146 96
255 163 107
222 133 91
204 122 85
140 76 61
190 110 75
119 71 58
128 74 59
69 42 45
65 43 45
53 48 45
54 49 46
56 51 47
56 51 47
56 51 47
56 51 47
56 51 47
56 51 47
56 51 47
56 51 47
55 51 47
55 51 46
55 51 46
56 51 47
54 49 45
56 51 47
81 72 54
56 51 47
55 50 46
54 50 46
48 47 46
38 37 39
78 90 56
255 255 255
255 255 255
101 99 95
145 138 105
104 106 102
103 104 100
93 91 89
71 65 63
48 48 47
55 51 47
55 51 47
55 50 46
55 51 47
55 50 46
55 51 46
56 51 47
55 50 46
56 51 47
55 50 46
55 50 46
55 50 46
56 51 47
56 51 47
55 50 46
66 61 55
69 64 57
70 64 57
64 58 52
88 79 60
65 59 53
63 58 52
64 59 53
76 70 62
66 60 54
56 51 47
54 49 46
55 50 46
54 48 45
55 50 46
55 50 46
80 71 54
54 49 46
55 49 46
53 47 44
53 47 44
50 43 42
47 39 39
51 37 41
54 39 43
56 41 45
55 40 44
55 40 45
54 39 43
53 39 43
53 39 43
54 39 43
50 40 40
54 48 45
48 44 41
51 46 43
53 48 45
51 47 43
49 44 41
49 45 41
50 46 42
49 44 41
45 43 31
101 98 46
103 100 48
186 181 75
104 102 50
188 184 78
60 60 40
61 59 39
57 57 38
55 56 37
52 51 38
52 48 43
53 49 45
53 49 45
56 51 47
56 51 47
55 50 46
55 50 46
55 50 46
55 50 46
56 51 47
55 50 46
56 51 47
54 50 45
54 49 45
53 48 44
55 50 46
54 49 45
52 48 44
54 49 46
56 52 46
46 78 35
63 121 37
64 123 38
44 87 33
44 86 33
52 47 43
49 45 41
45 41 38
46 41 38
45 41 38
50 45 42
43 38 35
47 43 39
46 41 38
47 42 39
51 46 42
52 46 42
62 54 49
65 58 54
59 53 49
55 51 45
55 50 46
54 49 45
55 50 46
55 50 46
54 50 46
54 49 45
55 50 46
55 50 46
55 51 47
54 49 46
55 50 46
55 50 46
55 50 46
55 50 46
54 50 46
54 49 45
56 51 47
55 50 46
55 50 46
55 50 46
56 51 47
56 51 46
56 51 46
55 50 46
56 51 46
56 51 47
56 51 46
55 50 46
55 50 45
56 51 47
56 51 47
55 50 46
55 50 46
55 50 46
56 51 47
55 50 46
56 50 46
55 50 46
51 52 43
71 75 59
94 102 80
98 107 83
100 110 84
101 111 84
100 109 83
52 46 28
35 27 12
37 28 13
39 41 31
37 39 32
48 46 40
53 48 44
54 49 44
54 49 45
54 49 44
54 49 45
71 45 24
72 46 23
80 52 26
83 54 25
78 49 25
83 54 26
84 54 27
85 55 27
94 57 27
79 50 25
105 60 28
76 49 24
78 50 25
79 51 25
80 51 26
84 54 27
78 50 25
80 52 26
142 89 33
82 53 26
77 50 25
80 52 25
142 89 33
94 59 27
84 54 27
146 91 34
162 93 33
221 138 45
185 116 39
254 158 50
187 117 40
254 159 50
237 142 46
255 161 50
255 172 53
226 142 46
255 177 55
250 157 50
220 137 44
255 240 72
255 177 55
255 231 69
255 216 65
255 230 69
255 216 65
255 247 74
255 253 75
255 255 78
255 254 75
255 255 83
255 254 75
255 255 80
255 250 74
255 234 69
255 188 56
218 170 94
168 141 86
66 58 38
26 26 20
27 25 22
42 39 34
52 55 33
58 60 40
37 34 31
60 58 43
47 43 39
50 47 41
80 71 52
49 44 40
53 49 45
53 48 44
52 47 42
52 47 43
53 48 44
54 49 45
79 70 52
80 72 54
55 50 46
54 49 45
55 50 46
54 49 45
55 50 45
55 50 46
56 50 46
54 49 45
56 51 47
56 51 47
56 51 46
56 51 47
55 50 45
57 50 45
82 73 55
224 198 106
173 153 86
164 145 83
166 147 85
132 117 74
255 240 127
255 255 142
63 58 52
57 52 47
60 55 49
255 255 157
255 255 255
255 255 255
255 255 255
255 255 255
255 255 255
255 255 255
255 255 255
255 255 255
255 255 255
255 255 255
255 255 255
255 255 255
255 255 255
255 255 255
255 255 255
255 255 255
255 255 255
255 255 255
255 255 255
255 255 255
255 255 255
255 255 255
255 255 255
255 255 255
255 255 255
255 255 255
255 255 255
255 255 255
255 255 255
255 255 255
255 255 255
255 255 255
255 255 255
255 255 255
255 255 255
255 255 255
255 255 255
255 255 255
255 255 255
255 255 255
255 255 255
255 255 255
255 255 255
255 255 255
255 255 255
255 255 255
255 255 255
255 255 255
255 255 255
255 255 255
255 255 199
255 101 121
227 78 100
246 85 106
223 77 98
164 57 77
78 28 54
53 48 44
56 51 47
65 53 45
56 51 47
65 53 45
56 51 47
54 49 45
53 47 43
51 46 42
50 46 42
57 44 37
57 44 37
71 63 43
76 52 36
71 63 43
90 79 48
51 38 30
44 39 36
45 41 38
48 44 40
50 45 41
50 45 41
53 48 44
53 48 44
53 48 44
55 50 46
54 49 45
55 50 46
80 72 54
55 51 47
53 48 44
141 86 60
255 169 107
195 117 77
254 152 98
202 121 82
222 133 89
216 127 84
174 104 72
121 82 59
69 42 44
70 43 45
62 42 43
54 49 46
54 49 45
55 50 46
56 51 47
55 51 47
56 51 47
55 50 46
55 50 47
81 72 54
54 49 46
55 50 46
56 51 47
54 49 45
55 51 46
56 51 47
55 50 46
55 50 46
80 72 54
80 72 54
54 49 46
48 46 45
45 45 46
45 45 46
65 66 53
152 145 87
58 32 29
54 50 46
130 63 62
55 52 50
46 45 45
60 61 60
48 46 46
55 50 46
55 50 46
56 51 47
55 50 47
56 51 47
56 51 47
56 51 47
56 51 47
56 51 47
56 51 47
56 51 47
56 51 47
56 51 47
53 48 44
59 55 51
64 58 53
83 74 56
55 50 46
61 56 50
65 60 54
63 58 52
66 60 54
65 60 54
65 59 54
58 51 48
55 50 46
55 50 46
100 89 61
56 51 47
55 50 46
54 49 46
54 48 45
55 49 46
52 46 44
53 48 45
49 43 41
47 42 40
46 40 39
42 33 34
48 34 38
49 34 39
54 38 43
55 39 43
53 37 42
52 37 42
50 35 40
50 39 41
53 47 44
52 47 44
53 48 44
52 46 43
52 47 43
53 48 44
50 45 42
49 45 41
56 53 40
44 40 37
41 37 31
132 128 54
154 141 61
46 46 31
49 46 31
101 99 47
48 46 31
54 53 36
50 51 33
47 47 31
54 50 43
54 50 46
53 49 45
56 51 47
55 50 46
54 49 45
55 50 46
56 51 47
54 49 46
55 50 46
55 50 46
55 51 46
55 50 46
55 50 46
55 50 46
53 49 45
55 50 46
55 50 46
55 50 46
53 48 44
45 64 37
63 122 37
64 130 37
78 150 41
43 85 32
43 84 32
56 51 47
54 49 45
54 49 45
53 49 45
52 47 44
52 47 43
52 47 43
54 49 45
50 45 41
54 49 45
72 65 59
67 61 55
70 63 54
65 57 50
66 60 54
60 55 50
55 51 46
57 52 48
55 50 46
55 50 46
56 51 47
55 50 47
55 50 46
55 50 46
55 50 46
55 50 46
53 48 44
55 51 46
54 49 45
53 48 44
54 50 46
55 50 46
54 49 46
55 50 46
56 51 46
56 51 47
54 49 45
54 49 45
56 51 47
56 51 46
55 50 46
55 50 46
56 51 47
56 51 47
55 50 46
55 50 46
56 51 46
56 51 47
55 50 46
55 50 46
56 51 47
58 50 46
56 51 47
54 50 45
46 46 40
54 57 45
68 72 57
80 89 69
88 97 75
115 133 81
90 98 78
89 93 66
163 171 77
21 16 8
30 32 26
39 42 34
51 46 42
52 47 43
54 49 44
50 45 41
50 45 41
52 47 43
51 42 34
74 48 24
75 48 24
109 63 27
75 48 24
71 46 23
81 51 25
74 47 24
79 51 26
74 47 23
74 47 24
83 53 27
82 53 27
71 46 22
79 51 25
84 54 27
91 59 30
84 55 27
82 54 27
86 56 28
117 69 28
77 49 25
82 53 27
87 56 28
91 58 27
150 94 34
221 138 45
79 51 26
221 138 45
83 53 26
221 138 45
149 94 34
143 90 31
231 148 45
253 158 51
254 158 50
255 204 63
255 192 59
255 165 52
255 201 60
255 159 50
255 227 67
255 219 66
255 187 56
255 230 68
255 243 72
255 246 72
255 242 72
255 255 82
255 187 56
223 138 42
255 216 64
255 187 57
255 226 67
255 182 64
148 124 76
146 124 74
31 28 26
35 33 28
29 27 24
43 39 35
47 42 39
45 41 36
54 54 41
58 57 45
90 75 51
51 46 42
52 47 43
59 57 45
61 59 47
54 50 44
52 47 42
79 70 51
53 48 44
51 46 42
55 50 46
54 49 45
51 46 42
53 48 44
81 72 54
53 48 44
56 50 44
56 51 47
100 89 61
55 50 46
55 49 45
80 73 53
81 72 54
56 56 47
53 48 44
80 71 53
165 146 85
59 51 47
103 91 63
58 53 48
58 52 47
55 51 47
55 49 45
80 71 53
112 98 64
58 53 48
162 143 80
255 255 255
255 255 255
255 255 255
255 255 255
255 255 255
255 255 255
255 255 255
255 255 255
255 255 255
255 255 255
255 255 255
255 255 255
255 255 255
255 255 255
255 255 255
255 255 255
255 255 255
255 255 255
255 255 255
255 255 255
255 255 255
255 255 255
255 255 255
255 255 255
255 255 255
255 255 255
255 255 255
255 255 255
255 255 255
255 255 255
255 255 255
255 255 255
255 255 255
255 255 255
255 255 255
255 255 255
255 255 255
255 255 255
255 255 255
255 255 255
255 255 255
255 255 255
255 255 255
255 255 255
255 255 255
255 255 255
255 255 255
255 255 255
255 255 255
255 255 255
255 255 255
255 255 255
255 185 159
255 90 110
220 76 95
242 84 102
104 40 58
66 26 47
64 52 45
55 50 46
55 50 46
72 55 44
53 48 44
56 50 46
53 48 44
54 49 45
52 47 44
87 73 52
58 49 43
48 42 39
78 70 51
84 70 49
69 51 40
46 41 37
50 45 41
68 52 44
51 46 43
51 46 42
78 70 51
50 46 42
79 71 52
54 49 45
65 58 46
55 50 46
80 71 53
51 46 43
53 48 44
54 49 45
75 67 48
140 87 60
169 101 68
255 183 115
239 143 93
237 142 93
164 101 67
114 68 54
112 67 52
111 66 51
60 37 39
64 39 41
52 41 40
53 48 44
54 48 45
55 50 46
55 50 46
55 50 46
56 51 47
55 51 47
55 50 46
56 51 47
55 50 46
56 51 47
55 51 46
65 57 50
81 72 54
56 51 47
94 86 61
54 50 46
55 51 47
54 50 46
50 47 44
50 46 43
64 63 52
45 45 46
45 45 46
43 43 44
39 39 39
43 43 44
45 45 46
45 46 47
46 46 47
44 44 45
51 48 46
55 50 46
55 51 47
55 50 46
55 50 47
56 51 47
55 51 47
56 51 47
56 51 47
55 50 47
55 50 46
80 72 54
56 51 47
55 50 46
54 49 45
59 53 49
59 53 49
58 53 48
59 54 49
55 50 46
60 54 50
56 51 47
62 57 51
59 54 49
62 57 51
55 51 46
56 51 47
56 51 47
81 73 55
55 50 46
81 72 54
55 50 46
55 49 46
53 48 45
54 48 45
54 48 45
50 44 42
48 42 40
44 38 37
41 32 31
27 21 23
68 40 38
39 27 32
46 32 37
45 31 36
40 28 32
44 36 36
46 40 38
49 42 41
48 42 40
55 49 46
64 60 48
53 47 44
54 49 45
51 45 42
44 40 37
44 40 37
40 36 34
35 31 28
31 30 23
130 127 53
96 93 41
36 35 25
97 94 43
40 41 27
43 44 30
37 37 27
57 54 40
47 44 40
49 45 41
52 47 43
52 48 44
54 49 45
54 49 45
54 49 45
54 50 46
55 50 46
56 51 47
55 50 46
54 50 46
53 48 45
55 50 46
54 49 45
56 51 47
55 50 46
56 51 47
55 50 46
49 48 41
60 115 34
61 117 35
41 80 30
79 150 42
41 80 31
42 82 31
54 49 45
54 49 45
53 48 44
55 50 46
54 49 45
51 46 43
55 50 46
56 51 47
58 53 48
73 66 60
59 54 50
56 51 46
68 62 54
67 59 52
60 55 50
72 64 58
64 59 53
65 60 54
59 54 49
55 50 46
55 50 46
55 50 46
54 49 45
55 50 46
55 50 46
55 50 46
54 49 45
55 50 46
56 51 47
55 50 47
56 51 47
55 50 46
54 49 45
55 50 46
54 49 45
55 50 46
56 51 47
55 50 46
55 50 46
56 51 47
54 49 45
56 51 47
56 51 47
55 50 46
55 50 46
55 50 46
55 50 46
55 50 45
55 50 46
55 50 45
56 50 46
56 51 47
55 50 46
54 50 45
50 48 42
40 43 35
40 44 36
45 49 38
60 66 51
57 58 47
68 80 48
62 63 40
52 55 32
30 32 26
37 39 32
38 40 33
51 47 42
50 46 41
50 46 42
49 45 41
51 47 43
52 48 44
49 45 40
64 42 23
68 43 21
68 45 22
82 53 27
75 47 24
77 50 25
73 47 23
74 47 24
78 50 24
75 48 24
74 48 24
140 88 32
78 50 25
85 55 27
85 54 27
127 81 28
80 51 26
88 57 28
76 49 24
82 53 26
82 52 26
164 103 37
81 52 26
86 55 27
144 90 33
191 119 40
75 49 24
139 87 31
145 91 33
141 88 32
190 119 40
224 140 45
144 90 34
184 115 39
255 159 50
246 141 45
253 158 49
255 160 50
224 140 45
238 148 46
255 165 51
252 157 49
255 242 72
255 218 66
255 255 85
255 215 64
255 255 78
255 205 62
255 230 68
255 255 84
255 193 58
255 161 50
255 188 56
171 107 36
25 21 20
22 20 19
99 92 53
45 40 34
71 64 44
72 64 43
46 40 35
47 42 38
57 55 43
45 40 37
78 70 51
53 49 44
50 46 42
49 44 40
81 71 51
52 47 43
53 48 43
52 46 42
79 70 51
52 46 42
53 48 44
52 46 42
51 46 43
55 50 46
98 87 59
54 48 44
54 49 45
54 49 45
72 58 47
54 49 44
80 71 52
56 51 47
56 51 46
55 51 46
55 50 46
55 50 46
58 53 49
83 56 56
65 57 50
63 58 52
56 51 47
58 53 48
58 53 48
56 50 46
60 55 50
69 61 55
255 255 255
255 255 255
255 255 255
255 255 255
255 255 255
255 255 255
255 255 255
255 255 255
255 255 255
255 255 255
255 255 255
255 255 255
255 255 255
255 255 255
255 255 255
255 255 255
255 255 255
255 255 255
255 255 255
255 255 255
255 255 255
255 255 255
255 255 255
255 255 255
255 255 255
255 255 255
255 255 255
255 255 255
255 255 255
255 255 255
255 255 255
255 255 255
255 255 255
255 255 255
255 255 255
255 255 255
255 255 255
255 255 255
255 255 255
255 255 255
255 255 255
255 255 255
255 255 255
255 255 255
255 255 255
255 255 255
255 255 255
255 255 255
255 255 255
255 255 255
255 255 255
255 255 255
255 255 255
255 255 255
255 97 116
218 75 93
158 54 69
121 42 60
55 30 41
79 70 52
53 48 45
54 50 46
56 51 47
54 49 45
56 51 47
56 50 45
87 74 54
55 50 46
54 48 44
53 47 43
52 48 44
77 69 50
53 48 44
53 48 44
79 70 51
56 46 42
66 54 48
78 70 51
63 51 44
54 49 44
56 51 46
87 74 54
53 49 45
52 47 43
53 48 44
53 48 44
53 48 44
51 46 43
54 45 41
47 42 39
45 41 38
102 61 43
196 117 77
140 84 58
141 84 58
171 102 68
110 66 50
54 33 35
51 30 33
59 35 33
49 32 33
49 43 40
52 47 43
52 47 43
55 50 46
54 49 45
55 50 46
55 50 46
56 51 47
56 51 47
55 50 46
55 50 46
56 51 47
55 50 46
55 50 46
54 50 46
54 50 46
56 51 47
54 50 46
55 50 47
50 46 43
50 46 43
46 43 41
48 40 40
40 41 43
58 61 53
43 44 45
45 46 47
44 45 46
44 45 45
44 44 45
43 44 45
45 44 44
51 47 44
53 49 45
53 49 45
55 50 47
55 50 46
54 49 46
55 50 46
56 51 47
55 50 46
56 50 46
55 50 46
54 49 45
55 50 46
56 51 47
65 55 54
67 60 55
58 53 48
66 60 54
84 75 57
58 53 48
55 50 46
55 49 46
57 52 48
58 53 48
63 58 52
61 56 50
55 50 46
100 89 61
56 50 47
64 56 49
81 72 54
56 50 46
54 49 45
55 50 46
80 64 53
54 48 45
53 46 44
77 60 49
48 41 40
82 71 48
32 25 27
68 48 36
14 10 12
53 36 25
24 19 20
28 22 23
37 31 31
46 41 38
47 41 40
53 47 44
47 41 39
52 47 44
53 47 44
52 47 42
72 67 49
46 42 39
46 42 38
38 35 32
35 32 30
25 23 22
23 21 18
94 92 38
93 91 38
36 34 24
27 27 19
35 33 28
35 32 29
43 39 36
46 42 39
49 45 40
52 48 44
52 48 44
51 47 43
52 48 44
55 50 46
54 49 45
54 49 45
55 50 46
56 51 47
53 48 44
54 49 46
54 50 45
55 51 46
53 49 45
55 51 46
54 50 46
54 49 45
41 55 33
57 109 31
59 112 33
61 117 35
40 78 30
41 81 30
40 79 30
56 51 47
54 49 45
55 50 46
54 49 45
56 51 47
54 49 45
54 49 45
56 51 47
58 53 49
71 65 58
58 53 49
63 57 52
67 61 54
71 65 58
69 63 56
66 60 54
67 61 55
69 63 57
59 54 50
56 51 47
55 50 46
55 50 46
55 51 47
55 50 46
56 51 47
55 50 46
54 49 45
54 49 45
56 51 46
55 50 46
55 50 46
55 50 46
56 51 46
56 51 47
54 50 46
55 50 46
55 50 46
56 51 47
55 50 46
55 50 46
56 51 47
55 50 46
55 50 45
55 50 46
54 49 45
55 50 46
55 50 46
56 51 47
55 50 46
55 50 46
54 49 45
55 51 46
55 51 46
53 49 44
54 50 45
42 44 36
41 44 36
41 45 36
40 44 35
40 43 35
37 40 32
36 38 31
36 39 31
36 39 31
34 36 29
36 36 31
48 44 40
46 41 37
48 44 40
47 42 38
54 48 44
52 47 43
52 47 43
55 45 37
64 41 21
103 71 25
77 49 25
71 46 23
90 57 26
71 45 22
76 48 24
79 51 25
79 50 25
90 57 26
83 54 26
72 47 23
81 53 26
93 59 28
110 70 27
149 94 34
102 64 28
134 81 31
77 49 24
91 58 27
186 117 40
134 66 26
98 62 26
142 89 33
76 49 25
148 93 33
250 156 49
77 49 24
200 118 40
189 118 39
182 114 37
247 154 48
197 123 41
255 191 58
255 160 50
255 214 64
255 204 62
255 191 58
255 162 50
255 197 58
255 251 74
188 117 38
255 188 56
228 128 42
255 204 61
255 255 77
255 217 65
255 205 61
255 255 79
255 188 56
255 218 64
35 20 11
11 9 10
23 21 20
42 37 31
54 39 26
46 44 36
41 38 34
47 43 39
45 40 36
66 52 41
53 48 44
47 43 39
52 45 40
51 46 42
82 75 51
51 46 42
50 45 41
54 49 44
68 54 43
80 71 52
55 50 46
71 57 46
52 47 43
52 47 43
54 48 44
80 72 53
57 50 45
54 48 44
55 50 46
54 49 45
55 50 46
56 51 46
80 71 53
55 50 46
55 50 46
53 48 44
54 49 45
54 49 45
54 49 45
70 62 56
114 102 90
109 99 87
112 100 80
91 79 75
97 89 78
104 115 55
116 115 81
255 255 231
255 255 255
255 255 255
255 255 255
255 255 255
255 255 255
255 255 255
255 255 255
255 255 255
255 255 255
255 255 255
255 255 255
255 255 255
255 255 255
255 255 255
255 255 255
255 255 255
255 255 255
255 255 255
255 255 255
255 255 255
255 255 255
255 255 255
255 255 255
255 255 255
255 255 255
255 255 255
255 255 255
255 255 255
255 255 255
255 255 255
255 255 255
255 255 255
255 255 255
255 255 255
255 255 255
255 255 255
255 255 255
255 255 255
255 255 255
255 255 255
255 255 255
255 255 255
255 255 255
255 255 255
255 255 255
255 255 255
255 255 255
255 255 255
255 255 255
255 255 255
255 255 255
255 255 255
255 255 255
255 255 255
255 255 255
140 52 65
126 43 60
62 23 38
49 40 40
51 45 42
52 47 43
54 48 45
55 49 45
80 71 53
55 49 45
100 89 60
80 72 54
81 72 54
55 50 46
55 50 46
55 50 46
65 53 46
81 72 54
100 89 60
55 50 46
56 51 47
87 74 53
54 49 45
56 51 47
100 89 61
80 71 53
55 50 46
80 71 53
56 51 47
54 50 46
52 47 43
52 47 44
77 69 50
49 45 41
50 45 42
51 43 36
35 31 29
120 80 52
166 99 65
137 82 55
194 116 76
50 30 31
48 29 31
52 48 29
41 28 29
46 40 37
50 45 41
49 44 41
77 69 50
55 50 46
56 51 47
56 51 47
54 50 46
54 49 45
55 50 46
55 50 46
54 49 46
56 51 47
56 51 47
56 51 47
54 49 46
56 51 47
54 49 46
53 49 46
51 47 44
84 80 58
45 42 40
65 62 48
34 32 31
51 54 44
51 54 46
54 57 48
48 45 41
41 41 43
55 58 50
39 41 43
41 40 41
44 42 40
48 44 42
52 48 45
53 48 45
53 49 45
55 50 46
56 51 47
54 50 46
55 50 46
55 50 46
56 51 47
55 50 46
56 51 47
55 50 46
56 51 47
62 55 51
93 80 78
74 71 60
57 52 47
54 49 45
59 54 49
59 53 49
57 52 48
57 52 48
63 57 51
62 56 51
67 60 53
81 72 54
80 71 53
56 50 47
55 51 46
55 50 46
56 50 47
56 51 47
55 50 46
54 49 46
54 48 45
53 47 45
78 62 51
48 42 40
77 60 49
42 35 35
42 36 36
31 24 24
36 31 30
37 31 31
39 32 32
41 36 34
43 37 36
51 45 43
51 46 42
50 45 42
53 48 44
53 48 45
50 46 42
86 37 34
94 32 30
97 31 29
91 29 27
68 31 29
30 27 25
25 22 19
16 15 14
16 15 13
20 19 17
19 18 16
30 28 25
32 29 27
44 40 36
45 41 37
47 43 39
49 45 41
51 47 43
52 48 44
52 48 44
54 50 46
55 50 46
56 51 47
55 51 46
54 49 45
54 50 46
56 51 47
54 49 45
54 49 45
55 50 46
52 48 44
53 49 45
53 48 44
38 53 30
88 168 42
33 64 25
57 110 32
59 114 34
39 75 28
40 79 30
55 50 46
55 50 46
55 50 46
54 49 45
55 50 46
55 50 46
55 50 46
54 49 45
64 58 53
65 59 54
74 67 60
69 63 57
66 60 54
58 53 49
72 65 58
63 57 52
61 55 50
65 60 54
81 72 54
58 53 48
55 50 46
55 50 46
55 50 46
54 49 45
55 50 46
54 49 45
56 51 47
55 50 45
55 50 46
55 50 46
56 51 47
56 51 47
55 51 47
56 51 47
56 51 47
55 50 46
56 51 47
55 50 46
55 50 46
56 51 46
56 51 47
56 51 47
55 50 46
54 49 45
56 51 47
56 51 46
55 50 45
56 51 46
55 50 46
56 51 46
55 50 46
55 50 46
54 50 45
54 49 45
53 49 45
48 47 41
38 42 34
39 43 34
36 40 33
39 42 34
36 40 32
33 36 29
33 37 29
33 36 29
30 32 26
40 38 34
42 38 34
45 41 37
46 41 37
46 42 38
49 45 40
53 48 44
52 47 43
51 46 42
60 44 33
69 45 22
72 46 23
63 40 20
63 40 19
82 52 23
72 45 23
76 49 24
75 47 23
82 52 26
81 52 26
76 49 24
78 49 24
78 50 25
79 51 26
114 67 28
73 47 24
80 52 26
144 90 33
141 89 33
145 91 34
77 49 24
144 90 33
77 49 24
132 64 30
76 48 24
195 122 40
188 117 38
250 157 50
95 60 26
227 142 45
239 147 47
227 139 44
218 136 44
255 188 56
255 160 50
255 174 53
255 191 57
255 216 65
255 221 66
250 149 47
255 204 61
255 175 53
255 185 56
255 251 75
255 204 61
255 238 69
255 236 70
255 244 71
255 188 57
243 151 46
120 76 26
44 37 26
28 25 23
38 34 32
38 34 31
46 46 33
44 40 36
44 40 37
82 72 51
56 55 43
48 44 39
48 43 40
69 55 44
77 68 49
51 46 41
49 44 40
78 69 50
79 70 51
80 71 51
79 71 52
51 46 42
55 50 46
70 56 45
70 56 45
92 77 54
54 49 45
54 49 45
56 50 44
71 57 46
56 50 46
55 50 46
54 49 45
56 51 46
71 57 46
53 48 44
54 50 46
80 71 53
99 88 60
55 49 45
53 49 45
95 86 67
117 107 93
121 111 97
123 113 99
113 104 90
121 111 97
254 226 137
255 255 255
255 255 255
255 255 255
255 255 255
255 255 255
255 255 255
255 255 255
255 255 255
255 255 255
255 255 255
255 255 255
255 255 255
255 255 255
255 255 255
255 255 255
255 255 255
255 255 255
255 255 255
255 255 255
255 255 255
255 255 255
255 255 255
255 255 255
255 255 255
255 255 255
255 255 255
255 255 255
255 255 255
255 255 255
255 255 255
255 255 255
255 255 255
255 255 255
255 255 255
255 255 255
255 255 255
255 255 255
255 255 255
255 255 255
255 255 255
255 255 255
255 255 255
255 255 255
255 255 255
255 255 255
255 255 255
255 255 255
255 255 255
255 255 255
255 255 255
255 255 255
255 255 255
255 255 255
255 255 255
255 255 255
255 255 255
255 240 135
43 15 31
40 27 31
47 42 39
49 44 41
50 45 42
51 46 43
53 48 44
54 50 45
54 49 45
55 50 46
56 51 47
56 51 47
55 50 46
80 71 53
55 50 45
54 49 45
65 53 46
64 52 45
56 51 47
55 50 46
55 50 46
54 49 45
55 50 46
54 49 45
55 51 46
54 49 45
55 50 46
80 72 53
55 50 46
86 73 53
80 71 53
77 68 50
53 48 44
59 46 40
40 36 33
33 30 28
45 31 26
106 63 42
140 83 53
38 21 22
99 59 41
88 49 34
37 25 26
34 30 28
40 36 33
42 38 35
48 44 41
54 49 45
54 49 45
71 67 52
55 50 46
56 51 47
55 50 46
55 50 46
54 49 46
55 50 46
55 50 46
55 51 46
56 51 47
56 51 47
54 50 46
54 50 46
54 49 46
54 49 46
71 67 53
48 44 42
45 42 40
40 37 36
34 33 31
20 19 19
47 51 39
28 30 30
27 28 30
60 64 47
31 30 30
34 32 32
38 35 34
50 47 44
50 46 44
53 49 46
54 49 46
55 50 46
54 49 46
55 50 46
55 50 46
55 50 46
80 72 54
54 49 46
55 51 47
55 50 46
54 50 46
55 51 47
80 73 65
121 112 97
105 86 74
54 45 41
57 48 44
128 76 57
74 68 59
57 54 47
83 80 65
96 89 78
64 58 53
81 73 54
100 89 61
55 50 46
55 50 47
55 50 46
100 89 61
56 51 47
81 72 54
54 49 45
55 50 46
54 49 45
55 50 46
79 63 52
53 47 44
49 43 41
47 41 39
45 39 38
76 58 48
46 40 38
48 41 39
50 44 42
51 45 43
50 43 41
53 47 44
53 47 44
54 49 45
149 42 37
112 17 16
117 16 16
172 24 18
118 16 16
118 16 16
118 16 16
96 26 24
63 34 31
36 33 31
34 31 28
28 25 23
37 34 32
36 33 30
41 37 34
42 39 35
50 45 41
50 45 42
49 44 41
52 47 43
52 48 44
55 50 46
54 49 45
54 49 45
55 50 46
54 50 46
55 50 46
56 51 47
54 49 45
55 51 46
55 50 46
54 49 45
53 49 45
50 47 42
54 49 45
62 100 38
31 60 23
75 143 38
75 142 37
57 109 31
58 112 32
34 67 26
56 51 47
56 50 46
56 51 47
56 51 47
56 51 47
56 51 46
56 51 47
60 54 49
63 57 51
55 50 46
67 61 55
58 53 49
72 65 58
61 55 50
63 58 52
65 59 53
57 50 45
60 55 49
64 58 52
60 54 49
55 50 46
55 50 46
54 49 45
55 50 46
56 51 47
55 50 46
56 51 47
56 51 46
55 50 46
56 51 47
56 51 47
56 51 46
55 51 47
56 51 46
55 50 46
56 51 47
55 50 46
55 50 46
55 50 46
56 51 47
56 51 47
55 50 46
55 50 45
56 51 47
55 50 46
56 51 47
55 50 46
55 50 46
55 50 46
56 51 46
56 51 47
54 50 46
55 50 46
52 48 44
51 48 44
49 46 42
46 43 39
33 35 29
31 36 29
31 34 27
27 30 23
28 32 25
24 27 21
21 22 17
26 24 21
30 28 25
40 37 33
46 42 38
45 41 37
48 43 39
51 46 42
49 44 40
48 44 39
52 47 43
48 43 38
52 37 27
71 45 23
68 42 21
79 47 23
71 46 22
66 42 21
70 45 22
72 45 23
73 47 23
74 47 23
85 53 24
103 71 25
75 47 23
152 96 31
75 48 24
75 48 24
78 50 25
80 52 25
80 51 26
77 49 25
147 92 33
141 88 32
139 87 31
139 87 31
82 51 23
184 115 39
139 87 31
101 61 26
142 89 33
232 145 46
255 201 61
237 142 45
255 172 52
185 115 39
255 178 54
158 98 33
210 122 39
141 89 32
255 186 56
255 175 52
255 199 59
255 225 66
255 206 61
255 192 58
255 230 68
255 215 63
255 157 48
255 170 51
255 174 52
182 112 39
70 61 38
48 41 30
49 42 32
53 46 36
47 42 38
51 46 39
74 66 46
46 41 37
45 40 37
47 43 39
52 45 40
80 70 50
97 86 57
50 45 41
52 47 42
52 46 42
51 46 43
51 45 41
52 46 42
54 49 45
80 71 53
79 70 51
54 49 45
54 49 45
55 50 46
53 49 45
54 49 45
99 88 59
54 49 45
55 50 46
53 48 44
54 49 45
53 48 44
70 56 45
54 49 45
53 48 44
54 49 45
54 49 45
52 47 44
80 71 53
54 49 45
99 88 60
99 84 61
106 96 75
75 68 60
72 65 58
255 255 255
255 255 255
255 255 255
255 255 255
255 255 255
255 255 255
255 255 255
255 255 255
255 255 255
255 255 255
255 255 255
255 255 255
255 255 255
255 255 255
255 255 255
255 255 255
255 255 255
255 255 255
255 255 255
255 255 255
255 255 255
255 255 255
255 255 255
255 255 255
255 255 255
255 255 255
255 255 255
255 255 255
255 255 255
255 255 255
255 255 255
255 255 255
255 255 255
255 255 255
255 255 255
255 255 255
255 255 255
255 255 255
255 255 255
255 255 255
255 255 255
255 255 255
255 255 255
255 255 255
255 255 255
255 255 255
255 255 255
255 255 255
255 255 255
255 255 255
255 255 255
255 255 255
255 255 255
255 255 255
255 255 255
255 255 255
255 255 255
255 255 255
30 21 24
39 35 33
42 35 33
76 67 49
50 45 42
53 48 44
52 47 44
55 50 46
105 90 60
55 50 46
105 90 60
81 72 54
55 50 46
57 51 46
57 51 46
56 51 47
55 51 46
56 51 47
54 50 46
55 50 46
55 50 46
56 51 47
55 50 46
55 50 46
54 49 45
54 50 45
56 51 47
80 71 53
64 53 47
74 57 47
52 47 44
52 47 43
49 44 41
51 46 43
44 39 36
70 61 41
46 34 28
27 24 22
20 17 17
17 12 12
62 54 32
23 20 19
26 23 22
67 59 39
41 36 33
76 67 49
48 43 40
53 48 44
54 49 45
51 46 43
54 49 45
54 49 46
56 51 47
55 50 46
56 51 47
56 51 47
55 50 46
55 51 47
56 51 47
56 51 47
56 51 47
55 50 46
54 49 46
53 48 45
71 67 53
49 46 43
50 46 43
41 38 37
39 37 35
82 76 49
31 31 27
20 19 19
23 22 23
36 34 33
63 61 46
39 37 36
48 44 42
50 46 44
52 48 45
52 48 45
54 50 46
54 50 46
55 51 47
54 50 46
55 50 46
55 50 46
55 51 47
54 50 46
53 49 45
55 50 46
55 50 46
54 49 46
53 48 45
81 75 66
118 109 94
132 113 91
80 70 66
137 117 95
125 115 101
123 114 99
110 101 88
68 62 56
54 49 46
54 49 46
55 50 46
56 50 47
55 50 47
56 51 47
55 50 46
56 50 47
53 48 44
56 50 47
56 51 47
72 57 47
54 49 45
54 48 45
79 63 52
51 46 43
53 46 44
80 71 53
80 63 52
51 45 42
53 47 44
53 47 44
55 48 45
63 51 46
55 49 46
53 48 44
79 35 32
110 15 15
111 15 15
169 23 18
116 16 16
119 17 16
117 16 15
118 16 16
116 16 16
109 19 18
63 40 36
45 41 38
56 52 39
46 42 39
42 38 35
47 43 40
48 44 40
49 45 41
53 48 44
52 48 43
52 48 44
54 49 45
54 50 46
55 50 46
55 50 46
52 48 44
55 50 46
56 51 47
55 50 46
54 49 45
53 49 44
53 49 44
52 48 44
49 46 41
50 46 42
50 46 42
44 44 37
71 135 34
73 138 35
29 57 22
74 140 37
31 62 24
32 63 24
55 50 46
56 51 47
55 50 46
56 51 47
55 50 46
55 50 46
54 49 45
58 53 48
64 59 53
61 55 50
69 62 55
59 54 49
61 56 50
58 53 48
64 58 53
58 53 48
164 146 84
55 50 45
61 55 50
60 50 45
55 50 46
55 50 46
56 51 47
56 51 47
55 50 46
56 51 47
55 50 46
55 50 46
56 51 47
55 50 46
55 50 46
55 50 46
55 50 46
55 50 46
56 51 47
56 51 47
56 51 47
55 50 46
56 51 47
56 51 47
55 51 46
55 50 46
55 50 46
55 50 46
55 50 46
55 50 46
56 51 47
56 51 47
55 50 46
55 50 46
53 49 45
53 49 45
54 50 46
50 47 43
49 46 42
46 43 39
43 40 37
33 32 29
26 26 23
21 22 19
19 19 17
11 11 10
17 16 15
21 19 16
23 22 19
30 28 25
43 40 36
44 39 35
43 38 34
52 47 43
50 45 41
48 44 40
48 43 39
50 45 41
49 45 41
48 43 39
94 47 26
112 68 26
69 44 22
73 48 24
69 44 22
69 44 22
68 43 21
87 55 25
77 47 23
83 52 23
67 42 21
81 50 23
71 46 23
104 53 24
138 86 31
79 51 25
76 48 24
77 48 24
68 42 21
140 87 31
72 46 23
75 48 24
217 136 43
185 115 38
71 45 22
105 46 22
142 88 32
124 76 27
215 119 39
166 103 31
255 170 51
186 115 37
180 112 36
247 154 47
216 134 42
227 141 45
255 173 52
233 143 44
255 177 53
255 159 48
255 189 56
255 239 70
230 134 41
255 158 47
255 184 54
255 173 51
255 186 55
247 152 46
30 25 21
33 29 26
31 28 25
69 61 40
42 38 35
50 43 35
54 46 39
45 41 37
46 41 37
78 69 47
49 43 39
47 42 39
90 74 50
51 45 41
50 45 41
53 48 44
51 46 41
79 70 52
53 47 43
51 46 42
78 70 51
51 46 42
71 57 46
53 46 42
52 47 43
72 56 44
53 48 44
54 49 45
54 49 45
89 71 51
54 49 45
92 77 54
53 48 44
80 72 53
55 49 45
53 48 44
116 103 67
80 72 54
54 49 45
115 102 66
55 50 47
80 72 54
100 89 61
80 71 53
55 50 46
54 49 45
255 255 196
255 255 255
255 255 255
255 255 255
255 255 255
255 255 255
255 255 255
255 255 255
255 255 255
255 255 255
255 255 255
255 255 255
255 255 255
255 255 255
255 255 255
255 255 255
255 255 255
255 255 255
255 255 255
255 255 255
255 255 255
255 255 255
255 255 255
255 255 255
255 255 255
255 255 255
255 255 255
255 255 255
255 255 255
255 255 255
255 255 255
255 255 255
255 255 255
255 255 255
255 255 255
255 255 255
255 255 255
255 255 255
255 255 255
255 255 255
255 255 255
255 255 255
255 255 255
255 255 255
255 255 255
255 255 255
255 255 255
255 255 255
255 255 255
255 255 255
255 255 255
255 255 255
255 255 255
255 255 255
255 255 255
255 255 255
255 255 255
255 255 255
255 255 255
255 255 248
39 35 33
42 37 35
127 112 69
98 87 59
78 70 52
56 48 44
53 48 44
54 49 45
55 50 46
54 49 45
56 51 47
55 50 46
56 51 47
56 51 47
56 51 47
56 51 47
100 89 61
55 50 46
100 89 61
56 51 47
56 51 47
56 51 47
55 50 46
56 51 47
81 73 54
116 103 66
56 51 47
81 72 54
54 49 45
66 55 48
65 53 47
63 52 46
71 53 46
85 72 52
82 69 48
54 42 37
47 34 29
36 32 30
35 29 27
31 28 26
68 60 40
30 27 25
45 41 38
50 44 40
48 43 40
50 45 42
78 69 51
79 71 52
52 47 43
55 50 46
54 49 46
54 49 45
56 51 47
56 51 47
55 50 46
56 51 47
56 51 47
54 50 46
54 50 46
55 51 47
56 51 47
55 50 46
54 50 46
52 48 45
79 65 50
74 41 37
104 62 40
93 58 41
76 32 27
61 37 34
42 39 37
65 63 48
46 43 41
42 39 38
74 67 49
46 43 40
53 48 45
54 49 46
80 72 54
55 50 47
55 50 46
55 51 47
56 51 46
56 51 47
56 51 47
56 51 47
55 50 46
55 50 46
55 50 46
55 51 47
54 49 46
55 50 46
80 72 54
62 56 51
89 82 71
114 105 90
116 106 92
93 85 74
83 76 66
53 48 45
55 50 46
80 71 53
80 72 54
55 50 46
55 50 46
56 51 47
56 51 47
55 50 46
65 51 46
56 51 47
56 51 47
56 51 47
56 51 47
54 49 46
55 50 46
54 49 46
55 50 46
55 50 46
55 49 46
53 47 44
55 49 46
54 48 44
55 50 46
55 50 46
53 48 45
54 49 45
62 45 42
162 23 18
167 23 18
234 32 21
255 45 28
113 16 15
116 16 15
114 16 15
116 16 15
116 16 15
112 16 15
93 31 29
50 46 42
49 45 41
61 57 45
49 45 41
52 47 43
53 49 44
52 47 43
52 48 44
54 50 46
55 50 46
55 50 46
80 71 53
56 51 46
54 49 45
56 51 47
54 50 45
55 50 46
52 47 43
54 49 45
54 50 46
52 48 44
54 49 45
49 45 41
50 46 42
45 42 38
44 41 37
29 39 23
23 45 17
72 136 34
27 51 20
72 136 34
31 60 23
56 51 47
55 50 46
55 50 46
56 50 46
56 51 47
55 50 46
55 50 46
54 50 45
61 56 51
60 53 48
57 50 45
63 58 52
58 53 49
61 56 51
63 58 52
54 49 46
58 53 48
57 52 47
64 57 51
78 73 59
55 50 46
53 48 45
55 51 47
54 49 46
56 51 47
55 50 46
55 50 46
55 50 46
53 47 44
55 50 46
55 50 46
54 49 45
54 48 45
55 50 46
56 50 46
55 49 45
56 51 46
56 51 46
55 50 46
56 51 46
55 50 46
55 50 46
56 51 46
55 50 45
54 50 46
54 49 45
54 49 45
55 50 46
54 50 45
54 50 45
54 49 45
54 50 46
52 48 44
49 44 40
52 48 44
50 46 42
43 40 36
37 35 32
34 32 28
30 29 26
28 27 25
24 23 21
23 22 19
35 32 29
36 32 28
39 35 31
41 37 33
43 40 36
48 43 39
49 44 40
48 42 38
50 46 41
49 44 40
47 42 38
47 42 38
45 40 36
53 43 35
59 38 21
55 35 18
60 37 19
63 40 20
66 41 21
94 57 23
70 44 22
65 42 21
76 48 23
73 45 22
64 42 20
79 50 25
102 63 28
143 89 33
76 47 23
71 44 22
70 43 22
87 54 24
74 46 23
155 97 34
152 81 25
149 93 33
142 87 30
77 49 25
223 139 45
164 94 33
184 115 38
88 55 25
255 171 52
143 89 31
189 117 38
169 91 33
145 88 30
255 172 52
255 176 54
255 171 52
255 172 52
255 206 62
211 121 38
255 199 59
245 152 46
255 187 55
239 142 42
255 188 57
255 168 49
210 131 41
68 60 39
33 29 26
36 32 29
44 35 30
49 43 35
70 62 42
47 43 39
48 41 34
45 40 36
79 58 40
48 43 38
46 40 36
76 67 48
52 47 43
67 51 37
53 47 43
51 46 42
48 43 39
49 43 39
53 48 44
69 54 43
52 47 42
53 48 44
53 48 43
54 49 45
52 47 43
55 50 46
53 48 44
54 49 45
55 49 43
100 89 61
81 72 54
80 71 52
55 50 46
70 56 45
71 57 46
55 50 46
55 50 46
80 72 53
80 72 54
80 72 54
53 48 45
71 56 46
70 56 45
53 48 44
53 48 45
54 49 45
255 255 255
255 255 255
255 255 255
255 255 255
255 255 255
255 255 255
255 255 255
255 255 255
255 255 255
255 255 255
255 255 255
255 255 255
255 255 255
255 255 255
255 255 255
255 255 255
255 255 255
255 255 255
255 255 255
255 255 255
255 255 255
255 255 255
255 255 255
255 255 255
255 255 255
255 255 255
255 255 255
255 255 255
255 255 255
255 255 255
255 255 255
255 255 255
255 255 255
255 255 255
255 255 255
255 255 255
255 255 255
255 255 255
255 255 255
255 255 255
255 255 255
255 255 255
255 255 255
255 255 255
255 255 255
255 255 255
255 255 255
255 255 255
255 255 255
255 255 255
255 255 255
255 255 255
255 255 255
255 255 255
255 255 255
255 255 255
255 255 255
255 255 255
255 255 255
255 255 255
75 65 47
49 42 40
48 43 40
53 48 44
54 49 45
57 50 46
80 71 53
54 49 45
53 48 45
55 50 46
56 51 47
81 72 54
64 52 45
70 69 51
56 51 47
100 83 59
100 89 61
81 73 54
81 73 55
56 51 47
55 50 46
56 51 47
81 72 54
55 50 46
55 51 46
56 51 47
53 48 45
55 50 46
54 49 46
55 50 46
53 49 45
54 49 45
52 48 44
55 50 46
101 80 58
50 45 41
49 45 41
46 42 39
43 39 36
73 65 45
47 42 39
75 67 48
47 43 39
74 66 47
52 47 43
52 47 43
53 48 44
80 72 54
54 49 45
55 50 46
55 50 46
56 51 47
67 60 48
56 51 47
56 51 47
56 51 47
73 69 54
55 50 46
56 51 47
55 51 47
55 50 46
55 50 46
73 69 55
165 58 40
95 27 19
142 40 22
99 28 19
99 28 19
98 28 19
120 34 20
80 37 32
48 44 42
49 45 42
49 45 42
53 49 45
52 47 44
54 49 46
54 49 46
54 50 46
80 72 54
56 51 47
55 50 46
55 51 47
55 50 46
55 50 46
56 51 47
55 50 47
55 51 47
55 50 46
55 50 46
55 51 47
54 50 46
52 47 44
55 50 46
56 51 47
55 50 46
55 50 46
55 50 46
53 48 45
55 50 46
55 50 46
54 49 45
55 50 46
55 50 46
55 50 46
56 51 47
56 51 47
56 51 47
55 50 46
55 50 46
55 50 46
55 50 46
56 51 47
55 50 47
55 50 46
55 50 46
56 51 47
81 72 54
56 50 46
55 49 46
55 49 46
54 49 45
55 49 46
55 50 46
56 50 46
63 58 46
147 41 36
239 33 22
255 42 26
163 22 17
167 23 18
196 26 19
113 16 15
167 23 18
112 16 15
110 15 15
111 16 15
104 16 16
59 46 42
54 49 45
55 50 46
53 48 44
54 49 45
54 49 45
54 49 45
54 49 45
53 49 45
53 48 44
55 50 46
55 50 46
55 50 46
55 51 46
54 50 46
54 50 45
55 50 46
55 51 46
54 50 45
51 47 43
53 48 44
53 48 44
48 44 40
50 46 42
44 41 37
36 34 30
37 36 31
19 38 15
52 99 26
85 161 39
23 46 18
23 44 17
73 52 43
56 51 47
55 50 46
100 89 61
55 50 46
81 73 55
56 51 47
59 52 48
69 62 55
64 57 51
57 50 45
54 49 45
54 49 46
58 53 48
54 49 45
52 47 43
60 54 49
71 65 61
169 102 91
64 58 53
55 50 46
55 50 46
56 51 47
55 50 46
55 51 46
55 50 46
56 51 47
55 50 46
56 51 46
56 51 46
56 51 47
56 50 46
56 51 47
55 50 46
55 49 45
55 50 46
55 50 46
56 51 46
55 50 45
56 51 47
56 51 47
56 51 47
56 51 47
55 51 46
55 50 46
55 50 45
55 50 46
55 50 46
54 49 45
53 48 44
53 48 44
53 49 45
54 49 44
52 48 44
52 48 43
50 47 42
44 41 37
44 41 37
44 42 38
39 37 33
40 38 34
40 37 33
41 38 34
40 37 33
42 38 34
44 40 36
46 42 38
45 41 37
50 45 41
46 41 37
49 45 41
43 38 34
48 43 39
48 43 39
45 40 37
49 44 40
44 39 36
46 39 34
55 35 17
59 36 18
104 66 19
69 44 22
60 38 19
66 41 21
74 48 24
67 41 21
68 43 21
69 43 22
71 46 23
126 58 23
68 42 21
137 85 30
70 43 21
83 52 23
87 52 23
74 45 22
77 47 24
107 51 23
63 38 19
138 86 31
139 88 30
143 87 30
218 136 43
80 48 21
139 87 31
143 89 31
255 201 59
175 96 33
195 115 36
216 134 42
189 117 38
156 85 29
194 112 36
142 88 30
223 138 43
255 213 62
255 212 62
186 113 34
255 169 50
213 132 40
214 133 40
230 133 42
32 28 25
75 65 43
27 24 21
59 42 27
41 35 31
47 42 35
39 35 31
73 65 45
41 37 34
46 41 37
47 42 38
81 59 42
77 69 50
61 45 37
49 44 40
53 48 44
52 46 41
77 68 49
54 47 42
91 75 52
51 46 42
79 71 52
69 55 44
54 48 44
89 74 50
53 47 43
55 50 46
80 71 53
79 71 52
52 47 43
56 51 47
80 71 53
79 70 51
81 71 52
55 50 46
54 49 45
54 49 45
71 57 46
99 88 60
80 71 53
55 50 46
55 50 45
100 89 61
99 88 60
81 72 54
80 71 53
100 89 61
255 255 247
255 255 255
255 255 255
255 255 255
255 255 255
255 255 255
255 255 255
255 255 255
255 255 255
255 255 255
255 255 255
255 255 255
255 255 255
255 255 255
255 255 255
255 255 255
255 255 255
255 255 255
255 255 255
255 255 255
255 255 255
255 255 255
255 255 255
255 255 255
255 255 255
255 255 255
255 255 255
255 255 255
255 255 255
255 255 255
255 255 255
255 255 255
255 255 255
255 255 255
255 255 255
255 255 255
255 255 255
255 255 255
255 255 255
255 255 255
255 255 255
255 255 255
255 255 255
255 255 255
255 255 255
255 255 255
255 255 255
255 255 255
255 255 255
255 255 255
255 255 255
255 255 255
255 255 255
255 255 255
255 255 255
255 255 255
255 255 255
255 255 255
255 255 255
255 255 255
255 255 255
255 255 255
98 87 59
78 69 51
79 71 52
53 48 45
68 52 49
56 51 47
55 50 46
56 51 46
55 50 46
56 51 47
116 103 67
81 73 55
56 51 47
56 51 47
56 51 47
81 73 55
81 73 54
56 51 47
81 73 55
81 73 55
56 51 47
56 51 47
55 50 46
56 51 47
56 51 47
54 49 45
55 50 46
55 50 46
80 72 53
55 50 46
55 50 46
80 72 54
86 73 53
51 46 42
78 70 51
85 72 52
77 69 50
51 46 43
50 45 41
52 47 43
48 43 40
54 48 44
61 50 44
79 71 52
77 69 50
79 71 53
55 50 46
54 49 46
55 50 46
55 50 46
56 50 46
81 73 55
55 50 46
56 51 47
81 73 54
55 50 46
56 51 47
55 50 46
54 49 46
55 50 46
79 71 53
80 36 30
201 56 27
176 49 25
204 56 28
98 28 19
97 27 19
97 27 19
96 27 19
96 27 19
85 32 26
53 49 45
54 49 45
55 51 47
53 48 45
54 50 46
54 50 46
55 51 47
55 50 46
54 50 46
55 50 46
55 50 46
55 50 46
55 50 46
56 51 47
56 51 47
55 50 47
56 51 47
55 50 46
55 50 46
54 50 46
55 50 46
55 50 46
55 50 46
54 49 45
54 49 45
55 50 46
54 50 46
55 50 46
79 71 53
55 50 46
56 51 47
56 51 47
55 50 46
55 50 46
55 50 46
56 51 47
56 51 47
55 50 46
55 50 46
56 51 47
56 51 46
55 50 46
56 50 46
55 50 46
56 51 47
56 51 47
55 49 46
55 50 46
56 50 46
56 50 46
60 47 44
55 50 46
56 50 46
54 49 45
194 33 25
235 32 20
203 28 19
240 33 22
100 14 13
164 23 17
103 14 14
165 23 17
107 15 14
109 15 15
101 14 14
105 15 14
66 43 39
53 48 44
54 50 46
55 50 46
54 49 45
57 52 47
54 50 45
55 49 45
56 51 47
55 50 46
53 48 44
55 50 46
53 48 44
56 51 47
55 50 46
55 51 46
55 50 46
54 50 46
54 50 46
53 49 45
52 47 43
52 48 43
48 44 40
45 42 38
41 38 34
34 32 28
38 35 32
25 25 21
20 28 17
17 34 13
25 48 16
19 37 15
109 64 43
87 56 42
59 51 46
54 49 45
55 50 46
55 50 46
81 72 54
55 50 46
79 73 65
111 102 89
70 62 53
65 60 53
54 49 45
61 55 49
48 43 39
42 34 31
71 59 53
117 108 95
95 87 76
54 49 45
54 50 46
55 50 46
54 49 45
55 50 46
55 51 46
56 50 46
55 50 46
55 50 46
56 51 47
55 51 46
55 50 46
55 50 46
54 49 45
55 51 47
54 49 45
55 50 46
56 51 47
55 50 46
55 50 46
56 51 47
56 51 47
55 50 46
55 50 46
55 50 46
55 50 46
55 50 46
55 50 46
54 49 45
54 49 45
53 48 44
54 49 45
52 48 43
55 50 46
52 48 44
52 48 44
51 46 42
49 45 41
49 46 41
44 41 37
47 44 39
50 45 41
50 46 41
48 43 39
60 46 39
45 40 36
50 44 40
50 45 41
45 41 37
48 43 39
49 44 40
47 43 38
47 43 39
48 43 39
45 41 38
44 39 35
42 37 33
42 37 33
43 38 34
46 39 33
55 36 20
61 40 20
63 40 20
62 37 19
62 39 19
59 37 18
64 40 20
68 42 21
74 45 22
70 44 22
95 65 20
73 44 22
137 67 26
72 43 22
74 47 24
74 45 22
74 46 23
140 87 32
63 39 20
92 56 24
249 156 50
88 54 25
136 85 30
98 61 26
64 39 20
255 170 51
240 142 44
186 118 37
140 86 29
147 91 33
129 77 26
138 83 28
179 111 35
218 133 40
255 215 64
175 109 33
238 138 43
255 174 52
174 108 33
255 168 50
218 135 40
136 84 27
33 24 16
29 25 23
58 42 29
35 31 27
35 31 28
37 33 30
79 68 45
42 37 34
41 36 32
84 68 41
46 41 37
62 47 35
75 67 47
48 43 39
48 41 37
64 49 38
68 53 42
48 43 39
51 46 42
52 47 43
52 47 43
78 69 50
82 61 44
54 48 44
82 60 42
52 47 43
70 56 45
54 49 45
53 48 44
52 47 43
79 70 52
54 49 45
82 72 53
80 72 53
56 50 45
53 48 44
92 77 53
70 56 45
54 49 45
82 73 54
71 57 46
110 93 61
92 77 54
54 49 45
61 49 45
100 89 60
55 50 46
54 49 46
255 255 255
255 255 255
255 255 255
255 255 255
255 255 255
255 255 255
255 255 255
255 255 255
255 255 255
255 255 255
255 255 255
255 255 255
255 255 255
255 255 255
255 255 255
255 255 255
255 255 255
255 255 255
255 255 255
255 255 255
255 255 255
255 255 255
255 255 255
255 255 255
255 255 255
255 255 255
255 255 255
255 255 255
255 255 255
255 255 255
255 255 255
255 255 255
255 255 255
255 255 255
255 255 255
255 255 255
255 255 255
255 255 255
255 255 255
255 255 255
255 255 255
255 255 255
255 255 255
255 255 255
255 255 255
255 255 255
255 255 255
255 255 255
255 255 255
255 255 255
255 255 255
255 255 255
255 255 255
255 255 255
255 255 255
255 255 255
255 255 255
255 255 255
255 255 255
255 255 255
255 255 255
255 255 255
55 50 46
55 50 46
79 70 52
81 72 54
54 49 46
53 48 44
55 50 46
116 102 66
81 72 54
68 52 49
56 51 47
56 51 47
81 73 55
56 51 47
56 51 47
81 73 55
81 72 54
80 72 54
56 51 47
81 72 54
81 73 54
81 73 55
56 51 47
55 50 46
81 73 54
81 73 54
56 51 47
81 72 54
55 51 46
56 51 47
55 50 46
54 49 45
56 51 47
80 72 53
79 71 53
54 49 45
54 49 45
73 56 48
53 48 44
64 53 47
53 48 44
55 50 46
54 49 46
54 49 45
100 89 61
55 49 46
55 50 46
56 51 47
55 50 46
54 49 45
55 50 47
55 50 46
55 50 46
55 50 46
55 50 46
56 51 47
56 51 47
56 51 47
56 51 47
56 51 47
191 64 41
200 55 27
174 48 25
229 63 30
173 48 24
174 48 25
94 27 19
139 39 22
96 27 19
126 34 20
92 26 18
66 43 39
54 50 46
87 83 60
55 50 46
55 50 46
55 51 47
55 51 47
56 51 46
55 50 46
81 72 54
55 50 46
56 51 47
54 50 46
56 51 47
56 51 47
55 51 47
55 51 47
55 51 47
55 50 46
54 49 46
54 50 46
55 50 47
54 50 46
54 50 46
55 50 46
55 50 46
55 50 46
55 50 46
55 50 46
56 51 47
55 50 46
55 51 46
54 50 46
56 51 47
55 51 46
54 50 46
56 51 47
54 49 45
56 51 47
56 51 47
55 50 46
55 50 46
55 50 46
56 50 47
56 51 47
56 50 46
55 49 45
55 51 46
56 50 47
56 50 46
56 51 47
53 47 44
54 49 45
54 49 45
148 25 19
95 13 13
157 22 16
157 21 16
237 32 21
98 13 13
162 22 17
104 14 14
97 13 13
105 15 14
102 14 14
96 13 13
64 39 36
53 48 44
54 49 45
55 50 46
55 50 46
54 50 46
55 50 46
56 51 47
56 51 47
54 49 45
56 51 47
55 50 46
56 51 47
55 50 46
55 50 46
55 50 46
54 49 45
58 54 47
78 75 51
88 85 54
90 88 55
91 88 56
78 75 50
59 56 43
44 41 37
43 40 37
33 31 28
27 26 23
20 19 17
15 15 13
13 18 11
14 24 11
106 62 41
156 89 47
93 56 39
55 50 46
54 49 45
55 50 46
55 50 45
55 49 45
57 52 48
77 71 63
97 89 76
104 96 85
91 81 79
106 91 89
61 49 43
75 60 53
114 102 89
107 98 85
55 51 47
54 49 46
55 50 46
55 50 46
55 50 46
56 51 47
55 51 47
55 50 46
55 50 45
56 51 47
56 51 47
56 51 47
55 50 46
56 51 47
55 50 46
55 50 46
56 51 47
56 51 47
55 50 46
55 51 46
53 49 45
56 51 47
55 50 46
56 51 47
55 50 45
55 50 46
54 49 45
54 49 44
56 51 46
55 50 46
55 50 46
54 50 46
55 50 45
53 48 43
51 46 42
52 47 43
54 49 45
52 47 43
50 46 42
47 42 38
51 47 43
49 44 40
49 45 40
50 46 42
47 43 39
51 47 43
49 44 40
51 47 42
51 46 42
52 47 43
47 42 39
49 45 41
50 45 41
46 41 37
47 42 38
48 43 39
47 42 38
41 37 34
43 38 34
45 40 36
36 32 28
43 36 31
50 33 19
55 34 18
63 37 19
63 40 20
66 41 21
60 38 19
68 41 21
82 50 22
66 36 18
69 41 20
114 71 23
67 40 20
63 38 19
138 85 30
140 87 31
72 46 23
219 135 42
150 97 33
106 67 20
66 40 21
146 87 30
220 137 42
122 75 23
146 82 27
137 84 29
243 139 43
90 54 22
144 87 29
204 118 35
183 112 34
151 86 31
255 172 51
255 169 50
181 111 34
176 109 34
213 124 35
136 89 28
216 134 41
228 137 40
213 117 36
30 26 23
65 58 36
69 61 40
71 61 39
33 28 25
37 31 28
83 66 42
38 34 31
77 68 46
46 40 35
45 41 37
44 39 35
46 42 38
48 43 39
44 39 35
49 44 40
49 44 40
49 44 40
67 52 40
69 55 44
54 49 45
81 59 42
89 73 49
50 45 41
78 70 51
78 69 50
100 89 60
80 71 52
52 47 43
57 50 45
116 103 67
54 50 45
67 52 45
93 77 54
82 73 54
92 77 53
99 88 60
80 72 53
54 49 44
55 50 46
80 71 53
55 50 46
55 49 45
54 49 45
55 50 46
58 51 46
81 73 55
80 72 54
255 255 170
255 255 255
255 255 255
255 255 255
255 255 255
255 255 255
255 255 255
255 255 255
255 255 255
255 255 255
255 255 255
255 255 255
255 255 255
255 255 255
255 255 255
255 255 255
255 255 255
255 255 255
255 255 255
255 255 255
255 255 255
255 255 255
255 255 255
255 255 255
255 255 255
255 255 255
255 255 255
255 255 255
255 255 255
255 255 255
255 255 255
255 255 255
255 255 255
255 255 255
255 255 255
255 255 255
255 255 255
255 255 255
255 255 255
255 255 255
255 255 255
255 255 255
255 255 255
255 255 255
255 255 255
255 255 255
255 255 255
255 255 255
255 255 255
255 255 255
255 255 255
255 255 255
255 255 255
255 255 255
255 255 255
255 255 255
255 255 255
255 255 255
255 255 255
255 255 255
255 255 255
255 255 255
255 255 255
255 255 157
54 49 45
55 50 46
54 49 45
55 50 46
81 72 54
55 50 46
56 51 47
80 72 54
100 89 61
55 50 46
100 89 60
81 73 54
81 73 55
100 89 61
55 50 46
81 73 55
56 51 47
56 51 47
55 50 47
81 73 54
81 73 54
56 51 47
56 51 47
55 50 46
56 51 47
55 50 46
56 51 47
56 51 47
55 50 46
54 49 45
80 72 53
56 51 47
55 50 46
56 51 47
56 51 47
81 73 55
55 50 46
81 72 54
54 49 45
55 50 46
56 51 47
54 49 45
55 50 46
55 50 46
55 50 46
81 72 54
54 49 45
81 72 54
56 51 47
56 51 47
56 51 47
56 51 47
56 51 47
56 51 47
54 49 45
55 51 46
55 50 46
55 49 45
56 51 47
182 52 30
170 47 24
255 74 33
201 56 27
226 63 29
202 56 27
172 48 24
92 26 18
127 34 20
96 27 19
91 26 18
85 29 23
54 49 45
56 51 47
56 51 47
56 51 47
56 51 47
56 50 46
56 51 47
55 50 46
55 51 47
56 51 47
56 51 47
56 51 47
56 51 47
55 51 47
56 51 47
56 51 47
54 50 46
81 72 54
56 51 47
56 51 47
55 50 47
55 50 46
55 50 46
55 50 46
81 72 54
54 50 46
56 51 47
55 50 46
56 51 47
56 51 47
55 50 46
55 50 46
55 50 46
55 50 46
55 50 46
55 50 46
56 51 47
56 51 47
55 51 46
55 50 46
55 50 46
55 50 46
56 51 47
55 50 46
56 51 47
55 50 46
55 49 46
56 51 46
73 50 46
53 48 45
55 50 46
55 50 46
53 47 43
141 28 23
149 20 14
255 42 25
255 36 22
81 11 11
89 12 12
98 13 13
92 13 12
88 12 12
97 13 13
100 14 14
94 13 12
59 45 42
54 49 45
53 48 44
56 51 47
56 51 47
55 50 46
55 50 46
55 50 46
54 49 45
56 51 47
54 49 45
55 50 46
55 50 46
54 50 46
55 50 46
54 49 46
122 115 59
90 86 54
95 92 56
125 108 58
97 94 57
97 94 57
98 95 58
97 95 57
85 83 52
54 59 41
43 40 36
38 35 32
27 25 23
29 27 24
27 26 23
22 21 19
102 59 39
98 56 37
255 146 64
61 47 40
54 49 45
53 47 43
54 49 45
53 48 44
55 50 46
54 49 45
71 65 58
108 99 86
122 112 96
125 115 99
124 113 97
110 100 86
76 69 61
54 49 45
55 50 46
80 72 53
54 49 45
55 50 47
55 50 46
55 51 47
56 51 47
55 50 46
54 49 45
54 49 45
56 51 46
54 49 45
54 50 46
56 51 47
55 50 46
55 50 46
58 50 46
56 51 47
55 50 46
55 50 45
56 51 47
56 51 46
56 51 47
56 51 47
54 49 45
55 50 46
55 49 45
56 51 47
56 51 47
54 49 45
55 50 46
53 48 44
55 50 46
55 49 45
52 47 42
55 50 46
53 48 44
52 47 43
51 46 42
53 48 44
54 49 45
52 48 43
50 45 41
51 46 42
49 44 40
51 46 42
51 46 42
49 44 40
50 45 41
62 48 40
48 43 39
50 46 42
47 42 38
45 40 36
43 38 35
48 42 38
46 41 37
44 39 35
42 37 34
40 35 32
41 37 33
40 35 31
38 33 30
47 34 25
51 32 15
96 45 21
62 38 19
58 32 16
52 31 15
70 42 21
64 38 18
72 44 22
70 39 18
81 50 22
78 42 19
85 51 23
63 38 19
64 38 19
72 42 21
64 35 17
95 59 20
141 70 26
79 44 22
172 92 29
121 52 19
223 133 40
219 136 42
130 81 27
214 133 41
212 132 40
214 133 41
133 83 28
131 81 27
143 87 28
212 131 40
147 92 27
217 135 41
217 134 40
191 119 36
218 135 40
135 82 27
63 55 33
26 22 21
31 25 22
61 43 27
71 61 39
36 31 28
42 35 30
37 33 30
74 65 45
73 65 45
76 54 35
66 50 38
75 65 44
75 66 47
75 66 47
48 43 39
98 77 47
65 50 38
67 53 42
51 47 43
51 46 42
79 70 51
52 47 43
69 55 44
50 45 41
80 55 43
52 46 41
77 68 49
70 54 42
79 71 52
54 49 45
53 48 44
68 53 46
80 71 53
109 93 61
53 48 44
55 50 46
54 49 45
56 51 46
55 50 46
54 49 45
54 49 45
81 72 54
99 88 59
56 50 46
55 50 46
110 93 61
82 72 53
56 51 47
255 255 255
255 255 255
255 255 255
255 255 255
255 255 255
255 255 255
255 255 255
255 255 255
255 255 255
255 255 255
255 255 255
255 255 255
255 255 255
255 255 255
255 255 255
255 255 255
255 255 255
255 255 255
255 255 255
255 255 255
255 255 255
255 255 255
255 255 255
255 255 255
255 255 255
255 255 255
255 255 255
255 255 255
255 255 255
255 255 255
255 255 255
255 255 255
255 255 255
255 255 255
255 255 255
255 255 255
255 255 255
255 255 255
255 255 255
255 255 255
255 255 255
255 255 255
255 255 255
255 255 255
255 255 255
255 255 255
255 255 255
255 255 255
255 255 255
255 255 255
255 255 255
255 255 255
255 255 255
255 255 255
255 255 255
255 255 255
255 255 255
255 255 255
255 255 255
255 255 255
255 255 255
255 255 255
255 255 255
255 255 255
90 73 57
55 50 46
55 50 46
89 73 56
116 103 67
55 50 46
62 61 46
100 89 61
55 51 46
81 73 55
56 51 47
81 73 55
55 50 46
56 51 47
56 51 47
57 52 47
88 75 56
56 51 47
56 51 47
56 51 47
56 51 47
81 72 54
55 51 47
80 72 54
56 51 47
56 51 47
56 51 47
56 51 47
56 51 47
56 51 47
55 50 46
56 51 47
85 75 55
55 50 46
81 73 54
56 51 47
55 50 46
56 51 47
66 54 48
55 50 46
55 50 46
81 72 54
80 72 53
56 51 47
55 50 46
55 49 46
56 51 47
55 50 46
55 50 46
56 51 46
54 49 45
55 50 46
56 51 47
55 50 46
54 50 46
55 50 46
55 50 46
55 49 45
53 48 44
239 64 29
255 79 35
255 82 36
255 79 35
240 66 30
137 38 21
88 25 17
86 24 17
88 25 17
85 24 17
87 25 17
80 24 18
56 51 47
55 50 46
55 50 46
55 50 47
56 51 47
56 51 47
56 51 47
55 50 47
56 51 47
56 51 47
55 51 47
56 51 47
55 50 46
56 50 46
55 50 46
56 51 47
56 51 47
55 50 46
55 51 47
56 51 47
55 50 46
55 50 46
55 50 46
55 50 46
55 50 46
54 50 46
55 50 46
55 50 47
55 50 46
56 51 47
55 50 46
56 51 47
54 49 45
56 51 47
56 51 47
56 51 47
56 51 47
56 51 47
56 51 47
55 50 46
55 49 45
56 51 47
55 50 46
55 50 46
55 50 46
56 51 46
56 51 47
54 49 45
53 48 44
52 47 43
53 48 44
49 44 40
51 45 42
48 31 28
255 35 21
227 31 19
72 10 9
165 21 15
150 20 15
87 12 12
88 12 11
89 12 12
87 12 12
86 12 12
70 27 25
54 48 44
52 47 43
56 51 47
55 50 46
54 48 45
55 50 46
54 50 46
55 50 46
55 50 46
55 50 46
55 51 46
56 51 47
55 50 46
56 51 47
56 51 47
63 58 46
127 116 61
94 90 54
94 92 56
173 165 74
97 94 57
96 94 57
95 93 57
96 94 57
95 93 56
82 80 51
45 42 38
43 40 36
45 42 38
43 40 36
38 36 32
41 38 34
197 113 54
152 87 45
148 85 43
187 107 50
54 49 45
55 50 46
54 49 45
54 49 45
55 50 46
54 49 45
55 50 46
54 49 45
59 54 49
58 53 48
56 51 46
56 51 46
53 48 44
54 49 45
54 49 45
54 50 46
54 49 45
55 50 46
55 50 46
55 50 46
55 50 46
55 51 47
56 51 47
54 49 45
53 49 45
55 51 46
55 50 46
56 51 47
55 50 45
55 51 46
56 51 47
55 50 46
56 51 47
56 50 46
55 49 45
55 50 46
56 51 47
56 51 47
55 50 46
55 50 46
55 50 45
55 50 45
54 49 45
55 49 45
55 50 46
52 48 43
54 49 45
54 50 45
51 47 43
54 49 45
55 50 45
54 50 45
52 47 43
54 48 44
53 48 44
54 50 46
51 47 43
53 48 44
50 44 40
51 45 41
50 45 41
49 44 40
51 46 43
50 45 41
48 43 39
49 44 40
47 42 38
47 42 38
49 44 40
46 41 37
43 38 35
43 38 35
44 39 36
42 37 34
40 35 31
41 36 32
42 37 34
28 25 22
36 30 26
83 37 20
54 33 16
61 39 20
61 36 17
59 35 17
69 42 20
65 39 19
106 47 21
69 38 18
68 40 20
64 37 19
64 35 17
60 35 18
67 39 19
69 41 20
119 55 21
134 82 28
174 93 31
193 112 35
188 117 36
74 46 20
160 87 28
182 113 36
161 90 28
54 28 14
129 80 27
196 114 36
50 29 15
217 134 40
255 167 49
218 135 40
244 151 45
138 84 26
214 132 38
36 23 17
29 26 24
51 34 18
28 24 22
38 30 23
31 25 22
38 34 30
37 31 27
42 35 31
58 42 29
39 33 29
41 34 29
43 39 35
74 65 46
50 43 39
46 42 38
77 67 47
45 40 37
89 73 49
81 59 41
95 84 54
50 45 41
49 44 40
52 47 43
50 45 41
101 80 52
91 76 52
91 76 52
92 76 53
89 73 51
54 49 45
84 63 46
53 48 44
78 65 52
81 71 53
54 49 45
100 89 61
54 49 45
53 48 44
80 72 53
93 78 55
53 48 44
81 72 53
99 89 61
51 53 48
48 59 51
89 82 58
51 56 49
55 51 47
138 118 72
100 89 61
255 255 255
255 255 255
255 255 255
255 255 255
255 255 255
255 255 255
255 255 255
255 255 255
255 255 255
255 255 255
255 255 255
255 255 255
255 255 255
255 255 255
255 255 255
255 255 255
255 255 255
255 255 255
255 255 255
255 255 255
255 255 255
255 255 255
255 255 255
255 255 255
255 255 255
255 255 255
255 255 255
255 255 255
255 255 255
255 255 255
255 255 255
255 255 255
255 255 255
255 255 255
255 255 255
255 255 255
255 255 255
255 255 255
255 255 255
255 255 255
255 255 255
255 255 255
255 255 255
255 255 255
255 255 255
255 255 255
255 255 255
255 255 255
255 255 255
255 255 255
255 255 255
255 255 255
255 255 255
255 255 255
255 255 255
255 255 255
255 255 255
255 255 255
255 255 255
255 255 255
255 255 255
255 255 255
255 255 255
255 255 255
81 72 54
56 51 47
116 103 67
68 52 49
56 51 47
56 51 47
81 73 55
100 89 61
116 103 67
99 88 60
81 73 54
56 51 47
81 124 59
41 77 45
32 86 44
38 81 45
44 73 45
79 77 54
81 73 54
55 50 46
100 89 61
81 73 55
100 89 61
56 51 47
56 51 47
55 50 46
55 50 46
81 73 55
56 51 47
55 51 46
81 73 55
56 51 47
56 51 47
56 51 47
100 89 61
55 50 46
55 50 46
56 51 47
81 72 54
55 51 46
81 73 55
55 50 46
55 50 46
55 50 46
55 51 47
55 50 46
56 51 47
56 51 47
55 49 46
55 50 46
55 50 46
55 50 46
54 50 46
55 50 46
54 49 45
68 51 46
55 50 46
80 71 53
55 50 45
217 60 26
255 72 31
255 84 36
224 62 28
79 22 15
170 47 24
136 38 21
120 32 18
118 32 18
79 22 16
86 24 17
76 21 15
55 50 46
54 49 45
55 50 46
56 51 47
56 51 47
55 50 46
56 51 47
56 51 47
56 51 47
56 51 47
56 51 47
56 51 47
55 50 47
56 51 47
55 50 46
56 51 47
55 50 46
56 51 47
55 50 46
56 51 47
55 50 46
56 51 47
54 49 46
54 50 46
80 72 53
55 51 46
56 51 47
81 72 54
56 51 47
55 51 46
55 51 47
55 51 47
56 51 47
81 73 54
56 51 47
56 51 47
56 51 47
55 50 46
56 51 47
56 51 47
56 51 47
56 51 47
56 51 47
54 49 45
55 50 46
55 50 46
55 50 46
55 50 46
54 48 44
53 48 44
51 46 42
50 44 40
47 41 38
47 38 35
185 26 17
141 19 13
140 19 13
73 9 9
147 20 14
79 11 10
70 10 9
78 11 10
75 10 10
80 11 11
50 38 35
49 44 41
53 47 44
54 48 44
54 49 45
55 50 46
55 50 46
56 51 47
55 50 46
56 51 47
55 50 46
54 50 45
56 51 47
55 51 46
56 51 47
56 51 46
130 124 60
88 85 52
204 193 81
139 133 65
93 90 55
95 92 56
95 93 56
92 91 55
93 91 55
95 92 56
92 89 55
73 71 49
53 48 44
48 44 40
47 43 39
52 47 43
49 45 41
226 129 58
151 86 43
191 109 51
73 42 28
55 49 45
54 49 45
53 48 45
56 51 47
55 50 46
53 48 44
53 48 45
54 49 45
55 50 46
53 48 44
54 49 45
53 49 45
54 49 45
52 47 44
55 50 46
54 49 45
55 50 46
55 51 47
55 50 46
56 51 47
55 50 46
55 50 46
54 50 46
56 51 46
57 51 47
55 51 46
56 50 46
55 51 47
55 50 45
55 51 46
54 49 45
55 50 46
55 51 46
56 51 47
56 51 46
65 52 45
55 49 45
56 50 46
81 73 55
55 50 46
55 50 46
54 49 45
54 49 45
55 50 46
56 51 46
55 50 46
54 48 44
54 50 45
55 50 46
53 48 44
50 46 42
54 49 45
52 47 43
55 50 45
51 46 42
51 46 42
49 44 40
51 46 42
53 48 44
47 42 38
51 46 42
48 43 39
49 44 40
51 45 41
51 45 41
49 44 40
50 45 42
47 42 38
43 39 35
46 42 38
44 39 35
36 31 28
40 36 33
41 37 33
39 35 31
38 34 31
35 31 29
30 26 23
32 29 26
30 26 23
34 25 18
52 32 16
51 31 15
60 36 18
58 31 15
102 64 17
61 35 17
52 29 14
66 35 17
49 26 13
66 37 18
60 34 16
122 53 19
64 37 18
170 90 28
51 28 14
73 42 17
71 43 19
153 61 20
74 45 20
208 119 37
119 52 19
60 34 16
226 132 40
133 82 26
98 43 17
186 115 35
140 86 28
174 108 33
50 25 13
180 112 34
30 18 11
25 19 15
20 16 13
28 22 18
29 26 24
28 25 22
31 27 25
33 27 24
32 28 26
37 30 26
64 48 35
64 47 34
43 36 32
48 32 29
43 38 35
44 40 36
73 64 44
80 69 49
47 42 38
66 51 40
49 44 40
90 74 50
89 73 49
83 62 45
51 46 42
51 44 40
50 46 42
53 47 43
79 71 52
68 54 42
51 46 42
92 76 53
71 57 46
71 57 45
54 49 45
99 88 60
92 76 53
91 76 53
55 50 46
55 50 45
100 89 60
100 89 61
54 49 45
53 48 44
77 74 54
38 62 52
56 97 65
50 79 58
108 186 102
81 140 83
71 119 74
88 103 66
255 255 220
255 255 255
255 255 255
255 255 255
255 255 255
255 255 255
255 255 255
255 255 255
255 255 255
255 255 255
255 255 255
255 255 255
255 255 255
255 255 255
255 255 255
255 255 255
255 255 255
255 255 255
255 255 255
255 255 255
255 255 255
255 255 255
255 255 255
255 255 255
255 255 255
255 255 255
255 255 255
255 255 255
255 255 255
255 255 255
255 255 255
255 255 255
255 255 255
255 255 255
255 255 255
255 255 255
255 255 255
255 255 255
255 255 255
255 255 255
255 255 255
255 255 255
255 255 255
255 255 255
255 255 255
255 255 255
255 255 255
255 255 255
255 255 255
255 255 255
255 255 255
255 255 255
255 255 255
255 255 255
255 255 255
255 255 255
255 255 255
255 255 255
255 255 255
255 255 255
255 255 255
255 255 255
255 255 255
255 255 255
255 255 255
255 255 198
56 51 47
116 103 67
55 50 46
56 51 47
80 72 54
55 50 46
81 73 54
56 51 47
100 89 61
50 62 46
70 217 70
83 255 81
83 255 81
78 242 77
41 129 51
28 90 43
29 87 43
43 72 45
56 51 47
55 50 46
56 51 47
81 73 54
81 72 54
56 51 47
81 73 55
81 73 55
56 51 47
56 51 47
100 89 61
54 50 46
56 51 47
56 51 47
55 50 46
54 49 45
81 72 54
89 76 56
55 50 46
81 73 55
81 73 54
100 89 61
55 50 46
81 73 55
81 72 54
55 50 46
56 51 47
55 50 46
81 72 54
55 50 46
80 72 53
55 51 46
81 72 54
81 73 55
81 73 54
94 106 43
95 108 43
60 63 40
58 57 44
52 46 43
215 60 27
193 53 23
165 45 21
164 45 20
164 46 22
132 37 19
78 22 16
77 22 15
75 21 15
76 22 15
71 20 14
72 24 19
54 49 45
54 49 45
54 50 46
55 50 46
54 48 44
56 51 47
56 51 47
56 51 47
55 51 47
56 51 47
56 51 47
55 50 46
56 51 47
56 51 46
55 50 46
56 51 47
55 50 46
55 50 46
56 51 47
56 51 47
56 51 47
55 50 46
55 50 46
56 51 47
55 50 46
56 51 47
56 51 47
55 50 46
56 51 47
55 50 46
55 50 46
56 51 47
56 51 47
56 51 47
55 50 46
56 51 47
55 50 46
56 50 46
55 50 46
55 50 46
56 51 47
56 51 47
56 51 47
55 50 46
81 72 54
73 50 46
55 50 46
55 50 46
52 46 42
52 47 43
49 44 41
48 43 39
39 33 30
41 36 33
42 29 27
227 30 18
71 9 8
65 9 8
65 9 8
139 19 12
70 9 9
65 9 9
61 8 8
49 33 31
50 44 41
52 46 42
54 48 44
55 50 46
55 50 46
53 48 44
55 50 46
55 50 46
55 50 46
56 51 47
55 50 46
55 50 46
55 50 46
55 50 46
56 51 47
119 110 56
195 183 75
128 121 56
189 176 74
135 129 62
171 163 73
136 130 64
85 82 50
92 90 55
90 88 53
91 111 54
86 84 52
80 77 51
54 49 45
54 49 45
51 47 43
54 49 45
51 47 43
90 53 36
189 107 49
144 81 40
138 78 37
50 45 41
53 48 44
53 48 44
54 49 45
54 49 46
55 50 46
52 48 44
52 47 43
55 50 46
52 47 44
53 48 45
55 50 46
55 50 46
54 49 45
55 50 46
54 49 46
54 49 45
55 50 46
55 50 46
55 50 46
55 50 46
55 50 46
55 50 46
55 50 46
55 50 46
56 51 46
81 72 54
55 50 45
56 51 47
55 50 46
55 50 46
56 51 47
55 50 46
55 50 46
55 50 46
56 51 46
55 50 46
55 50 46
56 50 46
55 50 45
55 50 45
54 49 44
54 49 45
54 49 45
54 49 45
54 49 44
54 49 45
54 48 44
52 47 43
53 48 44
54 49 45
54 49 44
52 47 43
54 49 45
50 45 41
54 49 45
53 47 43
52 47 43
48 43 39
52 47 43
49 43 39
50 45 41
50 45 41
51 46 42
51 46 42
47 42 38
48 43 39
49 44 40
50 45 41
47 42 38
41 36 32
42 37 34
40 35 31
39 34 30
42 37 34
35 31 28
27 23 21
33 29 26
32 29 26
30 26 24
25 22 20
33 29 25
36 22 12
44 26 14
127 78 24
70 42 17
72 41 17
49 30 14
160 101 27
140 84 27
103 56 20
71 40 18
72 38 19
113 67 19
49 27 13
132 81 27
128 79 25
47 28 14
135 83 27
55 33 16
140 84 25
53 30 15
59 29 14
127 79 25
57 37 16
70 44 19
131 79 26
60 37 15
123 77 24
57 28 13
20 14 11
16 13 11
21 19 17
23 20 18
24 21 18
31 27 24
88 78 45
54 38 24
54 38 24
35 30 27
61 45 32
89 78 46
62 48 36
42 36 32
44 40 36
47 40 35
79 56 38
95 84 55
74 64 44
50 43 38
80 57 37
50 43 38
89 72 46
88 72 47
52 47 43
79 71 52
53 48 44
69 54 42
68 54 43
78 69 50
68 54 43
82 59 41
115 102 65
55 50 46
71 56 44
69 55 44
71 57 46
54 48 44
109 92 60
92 76 53
54 49 45
79 71 52
99 88 59
79 70 52
49 52 46
48 75 55
76 126 74
76 126 75
100 172 96
100 172 96
108 186 102
148 254 133
121 203 110
255 255 255
255 255 255
255 255 255
255 255 255
255 255 255
255 255 255
255 255 255
255 255 255
255 255 255
255 255 255
255 255 255
255 255 255
255 255 255
255 255 255
255 255 255
255 255 255
255 255 255
255 255 255
255 255 255
255 255 255
255 255 255
255 255 255
255 255 255
255 255 255
255 255 255
255 255 255
255 255 255
255 255 255
255 255 255
255 255 255
255 255 255
255 255 255
255 255 255
255 255 255
255 255 255
255 255 255
255 255 255
255 255 255
255 255 255
255 255 255
255 255 255
255 255 255
255 255 255
255 255 255
255 255 255
255 255 255
255 255 255
255 255 255
255 255 255
255 255 255
255 255 255
255 255 255
255 255 255
255 255 255
255 255 255
255 255 255
255 255 255
255 255 255
255 255 255
255 255 255
255 255 255
255 255 255
255 255 255
255 255 255
255 255 255
255 255 255
82 73 55
56 51 47
56 51 47
56 51 47
56 51 47
81 72 54
81 73 54
80 72 54
53 54 46
67 201 67
83 255 81
50 157 57
50 157 57
58 182 62
50 157 57
40 128 50
26 86 42
27 86 42
47 63 44
56 51 47
56 51 47
81 72 54
80 72 54
55 50 46
81 73 54
56 51 47
56 51 47
56 51 47
81 73 55
56 51 47
81 72 54
55 51 47
66 55 49
100 89 61
56 51 47
56 51 46
55 50 46
55 50 46
81 73 54
56 51 47
55 50 46
55 50 46
81 72 54
55 50 46
55 51 46
55 50 46
55 50 46
90 73 54
69 52 47
55 51 46
81 73 54
97 111 42
102 123 32
71 88 26
72 88 26
71 88 26
71 88 26
69 84 28
157 68 28
141 36 16
156 43 19
126 35 17
105 28 14
67 19 13
69 20 13
130 41 19
68 19 14
65 18 13
61 17 13
59 33 29
53 48 44
55 50 46
55 50 46
54 49 45
54 49 45
56 51 47
55 50 46
56 51 47
56 51 47
56 51 47
55 50 46
56 51 47
56 51 47
56 51 47
55 50 46
56 51 47
56 51 47
55 50 46
56 51 47
56 51 47
56 51 47
56 51 47
55 50 46
56 51 47
56 51 47
55 51 47
56 51 47
56 51 47
56 51 47
56 51 47
56 51 47
56 51 47
55 50 46
55 50 46
56 51 47
56 51 47
56 51 47
56 51 47
56 51 47
55 50 47
56 50 46
56 51 47
55 50 46
56 51 47
54 49 45
56 51 46
73 49 45
54 49 45
85 45 41
52 46 42
48 42 39
50 44 41
62 34 31
40 35 32
30 25 23
28 22 20
33 12 11
132 18 11
41 5 6
48 6 7
49 6 6
48 14 13
41 32 30
48 35 32
47 42 39
51 45 41
53 48 44
52 46 43
53 48 44
54 49 45
55 50 46
54 49 45
55 50 46
55 50 46
55 49 45
56 51 47
56 51 47
55 50 46
54 50 46
119 112 53
128 122 58
165 156 67
196 186 78
129 123 58
133 127 61
89 87 53
89 87 53
92 82 50
87 85 52
89 86 53
99 94 53
82 80 50
53 49 45
53 49 45
55 50 46
53 49 45
51 47 43
147 84 43
83 47 32
71 41 28
54 35 27
53 48 44
51 46 43
54 49 45
55 50 46
52 47 44
53 48 44
55 50 46
54 49 45
53 48 45
54 49 45
55 50 46
55 50 46
53 48 45
54 49 46
55 50 46
56 51 47
55 51 47
56 51 47
56 51 47
54 49 45
55 51 46
55 50 46
55 50 46
55 50 46
56 51 46
55 50 46
55 51 47
56 51 46
56 51 47
60 54 50
57 52 48
68 62 56
65 59 54
72 67 59
67 61 54
55 50 46
56 50 46
55 50 46
56 51 47
54 48 44
55 50 46
54 49 45
55 50 45
54 49 45
54 49 45
54 50 45
53 48 44
54 50 45
53 48 44
54 49 44
52 47 43
53 48 43
55 50 45
55 50 46
52 47 43
49 44 39
52 47 43
52 47 43
53 48 43
52 47 43
50 44 40
49 44 41
47 42 38
50 45 41
46 41 37
48 43 39
45 40 36
45 40 37
48 44 40
48 42 38
42 37 33
42 37 33
42 37 34
42 37 34
35 31 28
39 35 32
37 32 29
39 35 32
24 21 19
37 33 30
29 26 24
27 24 22
29 25 23
20 16 13
27 19 13
34 23 15
36 21 10
55 28 12
125 77 23
47 26 13
55 25 12
73 40 16
68 27 12
53 30 14
67 42 18
115 48 17
69 38 15
44 27 14
132 80 25
43 25 13
130 57 18
36 20 10
127 79 25
33 20 10
69 42 17
125 77 24
37 22 12
22 14 7
47 29 11
14 12 11
62 55 32
65 55 30
24 22 20
24 21 19
79 63 36
32 26 21
32 28 25
34 30 28
56 40 26
31 27 25
37 33 30
34 29 26
130 106 60
106 88 53
66 48 35
109 83 50
77 68 48
66 49 36
86 71 45
47 40 36
49 44 41
91 75 51
75 67 47
69 54 43
67 52 40
116 94 59
70 54 43
114 100 63
55 49 44
69 55 44
78 69 51
98 87 58
90 73 71
94 75 73
105 83 80
107 82 75
90 76 61
56 50 46
82 72 53
54 49 45
80 71 53
55 50 46
80 71 52
97 88 60
58 80 50
50 78 58
55 96 65
81 140 83
129 222 118
136 233 124
148 254 133
136 233 123
126 220 116
255 255 255
255 255 255
255 255 255
255 255 255
255 255 255
255 255 255
255 255 255
255 255 255
255 255 255
255 255 255
255 255 255
255 255 255
255 255 255
255 255 255
255 255 255
255 255 255
255 255 255
255 255 255
255 255 255
255 255 255
255 255 255
255 255 255
255 255 255
255 255 255
255 255 255
255 255 255
255 255 255
255 255 255
255 255 255
255 255 255
255 255 255
255 255 255
255 255 255
255 255 255
255 255 255
255 255 255
255 255 255
255 255 255
255 255 255
255 255 255
255 255 255
255 255 255
255 255 255
255 255 255
255 255 255
255 255 255
255 255 255
255 255 255
255 255 255
255 255 255
255 255 255
255 255 255
255 255 255
255 255 255
255 255 255
255 255 255
255 255 255
255 255 255
255 255 255
255 255 255
255 255 255
255 255 255
255 255 255
255 255 255
255 255 255
255 255 255
81 72 54
55 50 46
99 89 60
56 51 47
114 90 65
55 50 46
55 50 46
56 51 47
86 252 79
103 255 96
102 255 96
102 255 96
98 255 93
88 255 85
83 255 81
50 155 55
61 192 63
27 87 42
26 83 41
52 71 44
56 51 47
55 50 46
55 51 46
56 51 47
56 51 47
56 51 47
56 51 47
56 50 46
56 51 47
56 51 47
56 51 47
55 51 47
56 51 47
104 95 61
56 51 47
56 51 47
81 73 55
81 73 55
81 73 54
55 51 46
81 72 54
56 51 47
55 50 46
56 51 47
81 73 55
55 50 46
55 50 46
56 51 47
56 51 47
90 73 54
98 114 40
102 123 30
147 177 38
127 153 34
72 88 26
104 125 31
70 86 26
71 88 26
70 86 26
155 63 23
154 43 19
120 33 15
54 16 10
77 21 13
59 18 12
64 18 12
62 17 12
106 28 15
54 19 15
53 45 41
52 46 43
53 48 44
54 49 45
54 49 45
54 49 46
54 50 46
56 51 47
55 50 46
55 50 46
81 73 55
55 50 46
55 50 46
56 51 47
56 51 47
56 51 47
55 50 46
55 50 46
56 51 47
55 50 46
55 50 46
56 51 47
56 51 47
56 51 47
56 51 47
56 51 47
56 51 47
56 51 47
56 51 47
56 51 47
55 50 46
56 51 47
56 51 47
81 73 54
56 51 47
55 50 46
56 51 47
56 51 47
56 51 47
56 51 47
55 50 46
56 51 47
56 51 46
55 50 46
55 50 46
56 51 47
56 51 47
72 49 45
73 49 45
53 48 44
55 50 46
52 47 43
50 44 41
68 43 39
62 35 32
58 33 31
37 28 26
19 15 14
12 9 9
19 10 9
23 19 17
22 18 16
27 23 21
37 32 29
41 36 33
48 43 39
51 45 42
53 48 44
52 46 42
56 51 47
54 49 45
54 49 45
53 48 44
55 51 46
53 48 44
55 50 46
55 50 46
52 47 44
54 49 45
54 49 45
156 146 62
122 115 52
163 154 66
102 100 48
166 158 69
167 158 69
83 81 50
85 83 51
84 82 50
84 81 50
85 84 51
81 79 49
79 77 48
56 51 47
55 50 46
55 50 46
54 50 46
55 50 46
73 42 28
182 103 46
75 40 25
53 38 32
50 45 41
51 46 42
52 47 43
52 47 43
54 49 45
54 49 45
54 49 45
54 49 45
55 50 46
55 49 45
55 50 46
54 49 46
56 51 46
55 50 46
55 50 46
55 50 46
55 50 46
56 51 47
55 50 46
56 51 47
55 50 46
56 51 47
55 50 46
56 51 47
55 51 46
56 51 47
54 48 44
55 50 46
66 60 54
59 53 49
72 66 58
65 59 54
65 59 54
59 54 48
65 59 53
64 58 52
62 57 52
53 48 44
55 50 46
54 49 45
54 49 45
55 50 46
55 50 46
52 47 43
79 71 52
54 49 45
55 50 46
55 50 45
54 49 44
51 47 43
53 48 44
53 48 44
53 48 44
51 46 42
53 48 44
53 48 44
50 46 42
51 46 42
52 47 43
48 43 40
55 50 46
51 46 42
49 44 40
49 44 40
46 41 37
48 43 39
47 42 38
48 43 39
42 37 33
43 38 35
47 42 39
40 34 31
39 34 31
43 38 35
39 35 32
36 32 29
38 33 30
34 30 28
28 24 22
41 28 24
34 30 28
31 28 25
29 25 22
21 18 16
23 20 18
24 21 19
24 17 13
35 22 13
38 22 11
41 22 11
39 22 11
41 26 13
53 17 8
134 83 26
45 27 13
128 78 24
59 36 14
36 18 9
132 82 25
60 24 9
38 22 11
56 31 13
33 19 10
35 20 10
19 13 8
13 9 7
60 53 30
11 8 7
61 53 30
19 16 14
19 16 14
22 20 18
78 62 34
42 31 23
35 29 25
27 20 15
99 82 46
108 95 56
38 33 30
84 68 42
36 32 29
41 36 33
70 62 42
62 45 33
41 36 33
98 76 46
45 39 35
106 89 55
46 41 37
47 42 38
66 52 40
49 44 41
67 52 40
47 42 38
67 52 41
89 73 49
94 67 44
52 47 43
56 49 44
66 51 44
62 49 47
188 112 71
121 92 86
133 104 98
135 105 98
132 103 97
124 97 94
94 74 73
56 48 45
57 50 45
92 77 54
80 71 53
54 49 45
66 86 55
69 99 65
36 64 54
56 97 66
76 126 76
129 222 118
147 253 132
143 246 129
184 255 161
149 255 133
255 255 255
255 255 255
255 255 255
255 255 255
255 255 255
255 255 255
255 255 255
255 255 255
255 255 255
255 255 255
255 255 255
255 255 255
255 255 255
255 255 255
255 255 255
255 255 255
255 255 255
255 255 255
255 255 255
255 255 255
255 255 255
255 255 255
255 255 255
255 255 255
255 255 255
255 255 255
255 255 255
255 255 255
255 255 255
255 255 255
255 255 255
255 255 255
255 255 255
255 255 255
255 255 255
255 255 255
255 255 255
255 255 255
255 255 255
255 255 255
255 255 255
255 255 255
255 255 255
255 255 255
255 255 255
255 255 255
255 255 255
255 255 255
255 255 255
255 255 255
255 255 255
255 255 255
255 255 255
255 255 255
255 255 255
255 255 255
255 255 255
255 255 255
255 255 255
255 255 255
255 255 255
255 255 255
255 255 255
255 255 255
255 255 255
255 255 255
55 50 46
56 51 47
80 72 54
55 51 46
116 103 67
80 72 53
56 51 47
102 129 65
90 255 84
140 255 127
132 255 121
115 255 106
88 255 85
83 255 81
77 240 76
49 154 55
53 159 54
25 82 40
24 79 38
47 64 44
54 49 45
56 51 47
56 51 47
55 50 46
55 51 46
56 51 47
56 51 47
56 51 47
56 51 47
116 103 67
56 51 47
56 51 47
56 51 47
56 51 47
81 73 54
54 50 46
56 51 47
81 72 54
81 72 54
56 51 47
55 51 46
56 51 47
81 72 54
55 51 46
55 50 46
56 51 47
56 51 47
55 50 46
54 49 45
142 167 48
163 195 39
235 255 53
126 152 34
70 86 26
126 152 34
71 87 26
102 123 30
69 86 26
68 84 25
64 80 24
154 46 19
119 31 14
51 14 10
46 12 9
48 13 9
52 15 11
55 16 11
47 13 9
45 34 31
50 45 42
51 46 43
50 45 41
54 49 45
53 48 44
55 50 46
55 50 46
56 50 46
55 50 46
55 50 46
55 50 46
56 51 46
56 50 47
55 50 46
56 51 47
55 50 46
55 51 46
56 51 47
55 50 46
81 72 54
56 51 47
56 51 47
56 51 47
56 51 47
56 51 47
56 51 47
56 51 47
56 51 47
81 73 54
56 51 47
55 50 46
56 51 47
55 51 47
81 73 54
55 50 46
55 51 47
54 50 46
56 51 47
55 50 47
56 51 47
56 50 46
56 51 47
55 50 46
55 49 46
56 51 47
55 51 46
56 51 47
56 51 46
55 50 46
53 48 44
53 47 43
55 49 45
46 41 38
51 46 42
67 41 37
65 38 35
36 32 29
37 32 29
37 33 30
29 24 22
27 22 20
29 25 23
37 32 30
41 36 33
44 39 36
46 40 37
50 45 42
50 45 41
52 46 42
51 46 43
55 50 46
54 49 45
54 49 45
53 48 44
53 48 44
54 49 45
55 49 45
54 50 46
51 47 43
53 48 44
115 109 51
58 55 35
216 204 80
126 119 55
125 119 55
129 122 57
75 73 45
72 70 44
79 75 47
77 73 45
77 74 46
72 69 43
66 63 44
54 49 45
55 50 46
56 51 47
55 51 46
54 49 45
139 78 37
59 33 23
128 73 33
44 38 35
47 42 39
49 44 40
50 45 41
50 46 42
53 47 43
55 50 46
53 48 44
54 49 45
54 49 45
55 50 46
55 50 46
56 51 47
55 50 46
56 50 46
54 49 45
55 50 46
54 49 45
54 49 45
56 51 47
56 51 47
56 51 47
56 51 46
55 50 46
54 49 45
55 50 46
55 50 46
56 51 47
56 50 46
60 54 50
65 60 52
57 52 47
71 65 58
62 56 51
70 64 57
57 52 46
64 59 53
63 58 52
57 52 47
80 72 53
54 49 45
55 50 46
54 49 45
54 49 45
55 50 46
55 50 45
54 49 45
54 49 45
54 50 45
64 46 46
76 45 49
80 41 48
79 39 47
79 41 48
69 42 45
55 47 44
53 48 44
52 47 43
53 48 44
50 45 41
52 47 43
51 46 42
49 44 40
51 46 42
48 43 39
49 43 39
50 45 41
49 44 40
46 41 37
45 41 37
45 40 36
44 39 36
45 40 36
38 33 30
43 38 34
36 32 29
37 33 30
34 30 27
28 25 23
35 30 27
31 28 25
38 34 31
29 26 24
30 27 24
23 19 17
21 18 16
20 18 16
23 17 12
17 15 13
5 3 1
15 13 12
18 12 9
19 14 10
22 14 9
24 15 9
19 12 8
25 14 9
63 34 12
43 22 8
62 53 29
15 9 4
34 22 10
14 6 1
13 11 11
8 7 6
10 9 8
60 53 30
60 53 30
27 21 19
14 12 11
28 23 20
27 23 21
27 24 22
67 58 36
24 18 15
67 59 38
73 50 30
34 29 26
37 31 27
59 44 32
61 47 35
85 70 43
38 34 31
103 86 52
73 65 45
93 82 52
84 69 43
94 74 47
86 70 45
65 49 37
70 54 42
75 66 47
97 86 57
81 56 39
111 84 50
50 43 39
81 60 42
78 69 50
82 60 42
97 86 57
84 65 50
234 125 45
255 205 75
171 116 94
140 109 101
141 110 101
139 108 100
133 104 98
125 98 94
88 68 66
53 48 44
54 49 45
91 76 53
55 50 44
76 115 72
54 93 62
69 110 70
78 131 79
90 155 88
127 211 113
122 209 112
185 255 161
192 255 168
179 255 157
255 255 255
255 255 255
255 255 255
255 255 255
255 255 255
255 255 255
255 255 255
255 255 255
255 255 255
255 255 255
255 255 255
255 255 255
255 255 255
255 255 255
255 255 255
255 255 255
255 255 255
255 255 255
255 255 255
255 255 255
255 255 255
255 255 255
255 255 255
255 255 255
255 255 255
255 255 255
255 255 255
255 255 255
255 255 255
255 255 255
255 255 255
255 255 255
255 255 255
255 255 255
255 255 255
255 255 255
255 255 255
255 255 255
255 255 255
255 255 255
255 255 255
255 255 255
255 255 255
255 255 255
255 255 255
255 255 255
255 255 255
255 255 255
255 255 255
255 255 255
255 255 255
255 255 255
255 255 255
255 255 255
255 255 255
255 255 255
255 255 255
255 255 255
255 255 255
255 255 255
255 255 255
255 255 255
255 255 255
255 255 255
255 255 255
255 255 255
80 72 53
54 50 46
56 51 47
62 61 46
56 51 47
53 49 45
80 72 54
86 149 62
121 255 112
109 255 100
136 255 124
111 255 103
114 255 105
83 255 80
65 200 65
64 200 65
52 153 54
50 155 54
28 98 38
38 66 40
55 51 46
56 51 47
55 50 46
55 50 46
56 51 47
56 51 46
56 51 47
56 51 47
56 51 47
55 50 46
56 51 47
81 72 54
56 51 47
56 51 47
81 73 54
92 77 54
56 51 47
100 89 61
55 51 46
56 51 47
56 51 47
56 51 47
55 50 47
56 51 47
99 88 60
55 50 46
55 50 46
54 49 45
56 51 47
143 171 38
235 255 53
164 197 40
149 178 37
196 235 46
68 83 25
73 108 26
67 83 25
68 84 25
67 82 25
65 80 24
57 59 19
32 12 10
77 23 9
40 11 8
43 12 9
43 12 9
34 13 11
29 21 19
46 36 32
45 40 37
49 44 40
51 46 42
54 49 45
55 50 46
55 49 45
55 50 46
55 50 46
55 51 46
56 51 46
56 51 47
55 50 46
56 50 46
56 51 47
56 51 47
55 50 46
56 51 47
56 51 47
81 73 54
56 51 47
55 50 46
55 51 47
56 51 47
56 51 47
55 51 47
56 51 47
56 51 46
56 51 47
56 51 47
56 51 47
55 50 46
56 51 47
56 50 46
56 51 47
56 51 47
56 51 47
56 51 47
56 51 47
56 51 47
56 51 47
54 50 46
56 51 47
56 51 47
81 72 54
55 50 46
56 51 47
56 51 47
56 51 47
55 50 46
54 49 45
55 50 46
53 47 43
53 47 43
51 45 41
50 45 42
68 43 39
48 42 39
48 43 40
42 36 34
43 38 35
42 36 33
39 34 31
40 34 31
45 40 37
49 44 40
49 43 40
49 43 39
52 46 42
52 47 43
53 48 43
54 48 44
55 49 45
54 49 45
54 49 45
54 49 45
53 48 44
53 49 44
52 46 42
52 47 43
49 45 41
46 42 38
186 175 68
158 149 61
189 178 70
216 204 80
70 68 42
123 121 54
79 76 47
79 76 47
75 73 46
68 66 41
66 64 40
55 51 40
56 51 47
56 51 47
54 49 45
55 49 45
54 49 45
47 26 19
44 26 19
31 24 21
35 31 28
41 37 34
49 44 41
48 43 40
50 46 42
54 49 45
52 47 43
53 48 44
54 49 45
54 49 45
55 50 46
55 50 45
55 50 46
55 50 46
56 51 47
55 50 46
56 51 47
54 49 45
56 51 47
55 51 46
55 50 46
55 50 46
55 50 46
55 50 46
55 50 46
55 50 46
56 51 47
54 49 45
66 61 55
68 62 56
65 59 53
64 58 52
71 65 58
71 64 57
67 61 54
72 66 58
67 60 53
58 52 47
55 50 46
57 52 47
54 49 45
55 50 46
54 49 45
55 50 46
54 49 45
54 48 44
53 48 44
54 49 45
73 44 48
85 41 51
83 40 49
84 40 50
84 40 49
83 39 48
121 57 56
74 36 43
64 38 38
53 48 43
51 46 42
53 48 43
50 45 41
50 45 41
50 45 41
50 45 41
48 43 39
50 45 41
47 42 38
42 38 34
46 41 37
45 40 36
47 42 39
41 36 33
42 37 33
44 39 35
39 35 32
38 34 30
37 33 30
29 25 22
35 31 28
35 31 28
36 32 29
30 27 25
30 27 24
27 22 20
31 27 24
23 19 17
24 21 19
64 57 35
18 16 14
14 12 11
63 55 31
18 16 14
62 54 31
10 8 7
4 3 1
8 7 6
11 8 7
8 7 6
12 10 9
8 7 6
15 13 12
60 53 30
12 10 9
4 2 1
15 12 11
22 19 17
48 32 16
28 22 17
54 34 14
78 62 34
72 57 33
34 24 19
28 24 22
28 24 22
33 27 23
60 43 29
70 61 41
84 55 27
61 45 32
66 48 34
63 45 33
59 43 30
62 47 35
86 70 46
46 42 38
62 47 35
65 51 39
66 49 37
69 50 35
101 80 52
79 58 40
48 43 38
89 74 50
96 76 51
98 65 43
51 46 42
81 60 42
91 76 52
93 76 51
90 75 52
198 106 37
255 193 63
255 196 88
138 107 99
142 110 102
142 110 102
140 109 101
135 106 99
129 101 96
104 100 80
50 46 44
70 55 44
70 56 45
69 54 43
84 131 77
34 59 50
87 131 81
91 157 87
129 221 116
123 212 112
174 255 153
193 255 168
210 255 180
255 255 255
255 255 255
255 255 255
255 255 255
255 255 255
255 255 255
255 255 255
255 255 255
255 255 255
255 255 255
255 255 255
255 255 255
255 255 255
255 255 255
255 255 255
255 255 255
255 255 255
255 255 255
255 255 255
255 255 255
255 255 255
255 255 255
255 255 255
255 255 255
255 255 255
255 255 255
255 255 255
255 255 255
255 255 255
255 255 255
255 255 255
255 255 255
255 255 255
255 255 255
255 255 255
255 255 255
255 255 255
255 255 255
255 255 255
255 255 255
255 255 255
255 255 255
255 255 255
255 255 255
255 255 255
255 255 255
255 255 255
255 255 255
255 255 255
255 255 255
255 255 255
255 255 255
255 255 255
255 255 255
255 255 255
255 255 255
255 255 255
255 255 255
255 255 255
255 255 255
255 255 255
255 255 255
255 255 255
255 255 255
255 255 255
255 255 255
255 255 255
255 255 209
79 71 53
55 50 46
80 72 54
99 89 60
80 72 54
81 72 54
68 171 61
129 255 118
149 255 134
140 255 127
143 255 128
107 255 99
110 255 102
82 253 78
57 176 58
38 119 45
23 73 36
25 81 38
36 63 38
57 51 47
54 50 46
56 51 47
55 50 46
56 51 47
81 73 54
55 50 46
55 50 46
55 50 46
56 51 47
56 51 47
81 72 54
81 73 54
100 89 61
81 72 54
100 89 61
81 73 55
56 51 47
100 90 61
56 51 47
81 73 55
56 51 46
81 73 54
54 50 46
55 50 46
90 73 54
81 73 55
54 49 45
91 102 43
196 233 45
237 255 53
235 255 53
123 148 32
194 232 45
144 172 36
98 119 28
66 82 25
67 83 25
64 79 24
64 80 24
54 66 22
20 17 16
18 13 12
62 53 30
19 13 12
17 12 11
30 27 25
36 32 29
39 34 32
48 43 40
49 44 40
49 44 40
52 47 43
54 49 45
55 50 46
54 49 45
56 51 46
56 51 47
56 51 47
55 50 46
56 51 47
55 50 46
56 51 47
56 51 47
56 51 47
55 50 46
56 51 47
56 51 47
56 51 47
55 51 46
56 51 47
56 51 47
56 51 47
81 72 54
56 51 47
81 73 55
55 50 46
55 50 46
56 51 47
56 51 47
56 51 47
56 51 47
56 51 47
55 50 47
56 51 47
56 51 47
56 51 47
56 51 47
56 51 47
56 51 47
55 50 46
56 51 47
56 50 46
56 51 47
55 50 46
56 51 46
56 51 47
81 72 54
74 51 46
55 50 46
54 49 45
72 48 44
52 47 43
53 47 43
55 49 45
52 47 43
50 44 41
51 46 42
51 46 42
45 39 36
48 43 40
47 42 38
49 43 40
49 43 40
52 47 43
79 71 52
53 47 43
54 49 45
53 48 45
53 48 44
89 81 55
55 50 46
54 49 45
55 50 46
63 49 45
49 45 40
63 58 43
48 44 40
45 41 37
43 39 36
113 107 47
46 43 28
117 111 49
119 113 50
137 121 51
61 60 37
60 59 34
68 66 42
61 58 36
55 53 33
59 57 38
53 48 44
54 49 45
53 48 44
56 51 47
54 49 45
56 51 46
28 19 16
21 17 15
29 25 23
38 33 31
36 31 28
44 39 35
45 40 37
52 47 43
51 47 43
52 46 42
55 50 46
55 50 46
54 49 45
56 51 47
55 50 46
56 51 47
56 51 47
55 50 46
55 50 46
56 51 46
55 50 46
55 50 46
56 51 47
56 51 47
56 51 47
56 51 47
54 49 45
55 50 46
56 51 46
56 51 46
59 54 49
68 58 52
66 60 54
60 55 49
62 56 51
61 56 50
64 58 53
59 54 48
59 54 49
63 57 52
55 49 45
58 52 46
57 51 46
54 49 45
55 50 46
54 48 45
54 50 46
55 50 46
56 51 46
55 50 45
75 41 47
82 39 50
85 41 51
85 41 50
84 40 50
123 58 58
81 38 47
80 38 47
73 33 40
142 66 55
53 38 37
51 46 42
51 46 42
52 47 43
47 42 38
49 44 40
77 68 49
47 42 38
48 43 39
49 44 40
43 38 34
43 39 35
44 39 35
45 40 36
45 40 37
43 38 34
42 37 33
41 36 33
39 35 31
38 34 31
41 36 33
55 40 33
37 33 30
36 32 29
30 26 24
26 23 21
34 30 27
25 20 18
63 55 33
24 20 18
27 24 22
24 21 20
22 18 16
18 15 13
18 16 14
21 18 17
14 12 11
16 14 13
60 53 30
9 7 6
17 15 14
16 14 13
16 14 13
19 16 14
16 14 13
60 53 29
23 20 19
29 20 12
27 20 17
19 16 14
65 57 35
29 23 21
24 20 18
60 41 25
66 58 36
54 37 23
54 37 24
32 28 25
73 49 26
83 68 42
36 29 25
88 58 29
136 108 59
44 38 34
42 34 29
66 48 35
63 48 36
80 56 36
79 57 39
63 48 36
78 56 38
98 77 47
97 86 57
97 76 52
90 75 51
77 55 42
68 54 42
89 73 49
108 92 59
53 47 43
81 73 53
68 53 42
75 49 36
254 135 44
241 135 66
171 116 95
137 107 100
140 109 101
139 108 100
255 255 175
255 255 202
240 183 127
101 97 82
63 75 48
81 60 43
50 45 41
70 56 45
55 86 57
39 64 48
74 117 68
99 171 92
142 244 125
137 237 122
191 255 166
173 255 150
203 255 176
255 255 255
255 255 255
255 255 255
255 255 255
255 255 255
255 255 255
255 255 255
255 255 255
255 255 255
255 255 255
255 255 255
255 255 255
255 255 255
255 255 255
255 255 255
255 255 255
255 255 255
255 255 255
255 255 255
255 255 255
255 255 255
255 255 255
255 255 255
255 255 255
255 255 255
255 255 255
255 255 255
255 255 255
255 255 255
255 255 255
255 255 255
255 255 255
255 255 255
255 255 255
255 255 255
255 255 255
255 255 255
255 255 255
255 255 255
255 255 255
255 255 255
255 255 255
255 255 255
255 255 255
255 255 255
255 255 255
255 255 255
255 255 255
255 255 255
255 255 255
255 255 255
255 255 255
255 255 255
255 255 255
255 255 255
255 255 255
255 255 255
255 255 255
255 255 255
255 255 255
255 255 255
255 255 255
255 255 255
255 255 255
255 255 255
255 255 255
255 255 255
255 255 255
79 71 53
54 49 45
55 50 46
54 49 45
99 88 60
79 71 52
123 189 77
122 255 111
137 255 124
132 255 119
110 255 99
217 255 113
166 177 85
116 178 80
96 78 62
84 75 57
23 72 34
20 66 33
37 56 36
54 49 45
52 48 43
53 49 44
53 49 45
53 49 45
56 51 47
62 61 46
100 89 61
56 51 47
56 51 47
100 89 61
100 89 61
55 50 46
56 51 47
56 51 47
62 61 47
56 51 47
104 96 61
100 89 61
81 72 54
81 72 54
56 51 47
55 50 46
69 52 47
62 61 46
55 50 46
54 49 45
54 49 45
125 136 46
255 255 63
255 255 57
234 255 53
196 234 45
144 173 36
162 194 39
162 194 39
100 121 29
99 120 28
62 79 24
59 74 22
59 75 23
34 30 28
29 25 23
31 27 25
34 30 28
29 25 23
33 29 26
40 36 33
40 35 32
47 42 39
47 42 38
51 46 42
52 46 42
52 46 43
56 51 47
54 49 45
55 50 46
55 50 46
55 50 46
55 50 47
55 50 46
55 50 46
55 51 46
56 51 47
56 51 47
56 51 47
56 51 47
56 51 47
56 51 47
56 51 47
55 50 46
56 51 47
56 51 47
56 51 47
56 51 47
56 51 47
56 51 47
56 51 47
56 51 47
55 51 46
56 50 46
56 51 47
56 51 47
56 51 46
56 51 46
56 51 47
55 50 46
56 51 47
56 51 47
56 51 47
56 51 47
56 51 47
81 72 54
56 51 47
56 51 47
56 51 46
56 51 47
56 51 47
55 51 47
74 51 46
54 49 45
55 50 46
53 48 44
54 49 45
54 49 45
79 70 52
55 50 46
52 46 43
53 48 44
53 48 44
52 46 42
53 48 44
52 47 43
54 49 45
53 48 44
53 48 44
54 48 44
55 50 46
54 49 45
55 50 46
55 50 46
54 49 45
52 47 43
53 48 44
53 48 44
52 48 44
51 46 42
47 43 40
39 35 32
37 33 31
34 32 29
38 37 25
42 40 26
46 46 29
49 47 29
48 47 29
55 53 33
57 55 35
56 55 35
44 43 29
46 42 38
51 47 43
54 49 45
53 48 44
55 51 46
53 49 45
54 50 46
24 21 19
27 24 22
35 31 28
40 36 33
50 45 42
45 41 37
48 43 40
54 49 45
52 47 43
52 47 43
55 50 46
54 49 45
56 51 47
55 50 46
56 51 47
56 51 47
55 50 46
55 50 46
56 51 46
56 51 47
54 49 45
55 50 46
55 50 46
56 51 47
56 51 47
55 50 46
55 50 46
56 51 47
55 51 47
55 51 46
56 51 46
65 58 52
62 57 52
63 57 51
60 54 49
57 52 47
56 51 46
56 51 46
63 58 52
162 143 80
66 58 52
54 49 45
54 49 45
54 48 45
54 49 45
54 49 45
55 50 46
55 49 45
53 48 44
61 48 46
83 40 50
80 39 48
81 39 48
84 40 51
84 40 50
122 57 58
80 39 48
122 58 58
197 91 76
73 34 43
143 66 55
51 44 41
50 45 41
49 43 39
53 48 44
47 42 38
50 45 41
51 45 41
45 41 37
55 43 39
49 45 41
44 39 35
49 45 41
44 40 36
40 36 33
47 42 38
43 38 34
42 38 34
41 37 33
42 37 33
36 32 28
35 31 28
73 65 45
41 37 34
31 27 24
33 29 27
30 26 24
32 28 25
28 24 22
26 22 20
65 57 36
21 18 16
20 18 16
33 28 24
27 20 16
18 15 13
21 18 17
63 55 32
24 18 13
22 15 10
21 18 17
28 20 16
23 20 18
54 38 24
41 21 16
53 36 21
31 22 16
24 21 19
31 24 20
81 64 35
30 22 18
26 23 21
69 59 37
32 26 23
31 27 25
69 60 39
37 31 27
102 86 51
58 42 29
86 71 46
63 45 30
39 33 30
100 67 37
45 41 37
107 81 46
45 41 38
91 63 37
90 62 38
48 43 39
75 66 47
77 68 49
81 60 42
76 68 49
97 85 55
54 47 42
71 56 44
68 53 40
50 45 41
51 46 42
82 61 44
94 67 44
82 61 44
73 45 32
59 39 36
108 83 80
128 100 95
132 103 97
134 105 98
134 104 98
255 255 255
255 255 255
255 255 255
128 134 85
48 63 49
47 43 40
50 46 42
52 47 43
69 98 60
75 113 70
76 122 71
106 187 96
95 162 86
125 216 112
153 255 134
202 255 174
181 255 158
255 255 255
255 255 255
255 255 255
255 255 255
255 255 255
255 255 255
255 255 255
255 255 255
255 255 255
255 255 255
255 255 255
255 255 255
255 255 255
255 255 255
255 255 255
255 255 255
255 255 255
255 255 255
255 255 255
255 255 255
255 255 255
255 255 255
255 255 255
255 255 255
255 255 255
255 255 255
255 255 255
255 255 255
255 255 255
255 255 255
255 255 255
255 255 255
255 255 255
255 255 255
255 255 255
255 255 255
255 255 255
255 255 255
255 255 255
255 255 255
255 255 255
255 255 255
255 255 255
255 255 255
255 255 255
255 255 255
255 255 255
255 255 255
255 255 255
255 255 255
255 255 255
255 255 255
255 255 255
255 255 255
255 255 255
255 255 255
255 255 255
255 255 255
255 255 255
255 255 255
255 255 255
255 255 255
255 255 255
255 255 255
255 255 255
255 255 255
255 255 255
255 255 255
53 49 45
79 79 53
80 72 54
114 101 64
78 70 52
114 101 64
96 86 57
96 255 88
142 255 128
125 255 108
255 255 145
255 233 139
255 226 136
224 147 100
224 147 100
125 84 77
115 87 72
59 65 44
44 52 40
52 49 44
52 48 44
54 50 46
56 51 47
54 49 45
56 51 47
80 72 53
56 51 47
81 73 55
80 72 54
82 68 52
56 51 47
56 51 46
56 51 47
100 89 61
100 89 61
56 51 47
55 50 46
80 72 54
81 73 54
81 73 54
56 51 47
81 72 54
55 50 46
54 50 45
55 50 46
81 72 54
54 49 45
96 108 45
245 255 54
255 255 65
204 232 45
221 255 50
155 184 37
160 192 38
92 112 26
121 145 31
66 81 23
80 93 22
55 68 21
48 59 19
44 39 36
41 36 33
38 34 31
40 36 33
42 37 34
38 34 31
46 41 38
46 41 38
48 43 39
53 48 44
52 47 43
53 47 44
53 48 44
53 48 44
56 51 47
55 50 46
55 50 46
54 49 45
55 50 46
81 73 55
81 73 54
55 51 46
81 73 54
56 51 47
56 51 47
56 51 47
55 50 46
56 51 47
55 50 46
56 51 47
55 51 47
56 51 47
56 51 47
55 50 46
56 51 47
55 50 46
55 50 46
55 50 47
56 51 47
56 51 47
56 51 47
56 51 47
55 50 46
56 51 47
56 51 47
56 51 47
56 51 47
55 51 47
56 51 47
56 51 47
56 51 47
56 51 47
56 51 47
56 50 46
56 51 47
56 50 46
56 51 47
56 51 47
81 73 55
55 50 46
55 50 46
54 49 45
55 50 46
80 71 53
66 49 45
56 50 46
54 49 45
55 50 46
54 49 45
53 47 44
56 50 46
52 47 43
55 50 46
53 48 44
55 49 45
55 49 45
55 51 46
54 49 45
54 48 44
54 49 45
55 50 46
54 49 45
54 50 46
50 46 42
53 48 44
51 46 42
49 45 41
46 42 37
37 34 31
32 30 27
33 29 27
19 19 13
29 28 18
40 37 24
42 40 26
42 42 26
38 36 24
40 39 29
41 38 34
48 44 40
48 44 40
47 43 39
50 46 42
54 49 45
54 49 45
53 48 44
35 31 28
38 34 32
44 39 36
43 39 35
52 46 43
51 46 42
53 48 44
53 48 44
55 50 46
53 47 43
54 49 45
54 49 45
55 50 46
55 49 45
55 50 46
61 53 45
73 58 42
83 64 42
77 60 42
60 52 45
56 51 47
55 50 46
55 50 46
55 50 46
55 50 46
56 51 47
55 50 46
56 51 46
56 50 46
54 49 45
54 49 45
58 52 48
58 52 46
59 53 49
63 57 51
58 53 48
61 55 50
62 56 51
56 51 47
59 53 48
54 49 45
58 52 48
70 62 55
56 51 47
54 49 45
53 48 44
54 49 45
54 49 45
55 50 46
68 42 45
80 39 48
79 38 48
82 39 50
80 39 48
122 57 58
81 39 49
176 82 72
119 56 56
121 55 54
72 34 42
190 88 69
139 71 58
78 69 50
50 44 40
50 44 40
50 45 41
52 47 43
53 48 44
50 44 40
49 44 40
46 40 36
52 47 43
46 40 37
47 41 38
47 43 39
40 35 32
41 36 33
42 38 34
44 39 35
43 39 35
36 32 29
42 37 34
38 33 30
40 36 32
39 34 31
34 29 26
32 28 25
45 33 28
76 45 33
81 46 33
74 44 33
50 29 23
39 25 19
64 56 34
26 23 21
24 19 17
66 57 34
22 19 17
31 17 16
24 21 19
63 55 33
37 29 24
92 72 43
44 37 33
45 37 34
39 33 29
66 47 32
59 40 25
84 66 38
56 38 24
55 39 25
37 27 21
29 23 21
81 65 39
32 27 24
45 30 26
73 49 28
34 27 24
39 35 32
41 36 33
103 86 52
78 55 37
75 53 33
48 38 33
79 57 39
105 88 55
122 83 46
88 71 47
68 52 40
77 68 49
67 52 41
70 54 42
101 80 51
72 55 43
79 70 52
81 59 41
70 55 44
66 52 40
83 61 44
70 54 42
82 60 43
54 49 45
95 55 34
58 35 35
103 71 69
181 94 84
123 97 93
126 99 95
125 99 94
255 255 255
255 255 255
255 255 255
204 169 99
84 96 60
72 64 45
51 46 42
47 43 39
42 39 36
70 105 60
77 116 65
76 132 72
90 153 82
124 214 110
181 255 157
196 255 169
192 255 166
255 255 255
255 255 255
255 255 255
255 255 255
255 255 255
255 255 255
255 255 255
255 255 255
255 255 255
255 255 255
255 255 255
255 255 255
255 255 255
255 255 255
255 255 255
255 255 255
255 255 255
255 255 255
255 255 255
255 255 255
255 255 255
255 255 255
255 255 255
255 255 255
255 255 255
255 255 255
255 255 255
255 255 255
255 255 255
255 255 255
255 255 255
255 255 255
255 255 255
255 255 255
255 255 255
255 255 255
255 255 255
255 255 255
255 255 255
255 255 255
255 255 255
255 255 255
255 255 255
255 255 255
255 255 255
255 255 255
255 255 255
255 255 255
255 255 255
255 255 255
255 255 255
255 255 255
255 255 255
255 255 255
255 255 255
255 255 255
255 255 255
255 255 255
255 255 255
255 255 255
255 255 255
255 255 255
255 255 255
255 255 255
255 255 255
255 255 255
255 255 255
255 255 255
98 88 59
99 88 60
79 71 52
129 115 72
78 81 51
113 101 63
93 84 53
70 206 64
102 255 87
255 255 156
255 255 176
255 255 170
255 255 170
255 226 136
224 147 100
180 119 88
124 83 76
120 81 74
85 62 57
51 46 42
54 49 45
50 46 42
54 50 45
54 50 46
80 72 54
55 50 46
81 72 54
80 72 54
55 50 46
56 51 47
56 51 47
56 51 47
81 72 54
116 103 67
56 51 47
55 51 46
55 50 46
56 51 47
56 51 47
56 51 46
62 61 46
81 73 55
99 88 60
54 50 45
99 89 60
88 71 52
52 47 43
53 48 44
189 212 41
218 255 48
95 114 26
206 245 46
159 190 37
133 161 31
93 113 26
117 141 29
52 65 20
53 66 20
46 60 18
44 47 28
45 40 36
48 44 40
49 44 40
50 45 41
47 42 39
51 45 42
49 44 40
49 44 40
50 46 42
55 50 46
54 49 45
54 49 45
55 50 46
54 49 45
54 49 45
55 50 46
56 50 46
56 51 47
55 50 46
55 51 47
56 51 47
54 50 46
55 50 46
56 51 47
55 50 46
56 51 46
56 51 47
81 73 55
55 50 46
56 51 47
56 51 47
53 50 46
49 47 45
77 77 57
43 44 43
47 46 44
49 47 45
54 50 46
56 51 47
56 51 47
56 51 47
56 51 47
55 51 47
56 51 47
56 51 47
55 50 46
56 51 47
55 50 46
56 51 47
56 51 47
56 51 47
56 51 47
56 51 47
56 51 47
56 51 47
81 72 54
56 51 47
56 51 47
56 51 47
87 50 45
56 51 47
57 51 47
56 51 47
55 50 46
55 50 46
55 50 46
55 50 46
55 50 46
55 50 46
57 51 47
56 51 47
56 51 46
55 50 46
56 51 47
56 51 47
55 50 46
54 49 45
81 72 54
55 50 46
55 51 46
54 49 45
53 48 44
55 50 46
66 61 47
80 72 53
51 46 42
48 44 40
43 39 36
44 40 37
40 36 33
48 45 27
23 21 19
17 16 14
17 16 14
15 14 11
24 22 20
24 22 20
30 28 25
38 35 31
42 39 35
47 42 39
50 46 42
54 49 45
54 49 45
54 50 45
55 50 46
49 44 40
49 44 41
48 44 40
49 44 40
51 46 42
53 48 44
53 48 44
55 50 46
52 47 43
54 49 45
56 51 46
55 50 46
55 50 46
70 57 43
96 71 39
114 81 35
116 83 35
115 82 35
168 117 41
112 79 34
149 105 45
60 52 45
55 50 46
55 50 46
55 50 46
55 50 45
54 49 45
56 51 47
54 49 45
55 50 46
79 71 52
57 51 46
64 58 51
60 54 49
58 53 48
54 50 45
62 57 52
57 52 47
64 58 52
58 53 48
57 51 46
66 60 54
102 79 67
55 51 46
53 48 44
52 47 43
79 70 52
55 50 45
53 48 45
68 35 43
79 38 48
78 38 47
79 38 47
77 37 47
149 70 63
120 56 56
75 36 45
149 70 63
117 55 54
169 79 65
144 67 58
138 68 55
47 43 39
52 47 43
50 46 42
51 46 41
52 47 43
48 43 39
46 41 37
48 43 39
48 42 38
48 43 39
47 42 39
43 38 35
58 44 39
50 45 41
48 43 39
45 38 33
40 36 33
41 36 33
46 41 37
39 35 32
37 32 28
42 37 33
39 35 31
68 59 38
86 51 38
119 65 45
114 61 43
156 75 45
117 64 45
223 120 61
174 93 50
62 37 29
31 24 20
30 23 19
64 56 34
63 55 32
25 21 18
36 29 23
36 31 28
87 69 42
134 87 40
63 46 34
66 49 36
174 111 44
61 46 34
49 43 39
67 52 40
28 24 22
67 57 34
58 40 26
57 41 28
70 61 40
74 52 32
75 51 30
44 38 34
92 81 51
64 48 35
119 77 34
42 38 35
77 53 33
106 88 53
77 68 47
114 92 55
69 54 42
99 77 47
48 43 39
62 46 42
63 40 35
92 55 42
112 84 51
55 48 43
52 46 43
90 74 51
71 54 42
51 46 42
69 55 44
56 47 42
83 61 44
57 49 43
51 45 42
50 41 40
77 46 35
148 56 36
255 107 73
108 81 83
116 89 89
141 98 77
241 183 96
255 255 222
255 255 249
218 163 102
101 79 53
71 58 44
46 41 37
41 37 34
80 61 41
32 41 32
52 95 49
78 125 67
90 155 82
107 183 93
156 255 135
136 233 118
153 255 133
255 255 255
255 255 255
255 255 255
255 255 255
255 255 255
255 255 255
255 255 255
255 255 255
255 255 255
255 255 255
255 255 255
255 255 255
255 255 255
255 255 255
255 255 255
255 255 255
255 255 255
255 255 255
255 255 255
255 255 255
255 255 255
255 255 255
255 255 255
255 255 255
255 255 255
255 255 255
255 255 255
255 255 255
255 255 255
255 255 255
255 255 255
255 255 255
255 255 255
255 255 255
255 255 255
255 255 255
255 255 255
255 255 255
255 255 255
255 255 255
255 255 255
255 255 255
255 255 255
255 255 255
255 255 255
255 255 255
255 255 255
255 255 255
255 255 255
255 255 255
255 255 255
255 255 255
255 255 255
255 255 255
255 255 255
255 255 255
255 255 255
255 255 255
255 255 255
255 255 255
255 255 255
255 255 255
255 255 255
255 255 255
255 255 255
255 255 255
255 255 255
255 255 255
114 101 64
56 61 45
115 102 66
99 95 60
77 76 50
103 97 58
92 83 52
87 71 47
255 255 168
255 255 208
255 255 214
255 255 187
255 255 181
255 255 157
255 242 143
181 120 89
176 116 85
116 78 72
112 75 70
51 46 41
53 48 44
54 49 45
80 72 53
56 51 47
54 50 45
56 51 46
80 72 54
56 51 47
55 51 46
81 72 54
55 50 46
55 50 46
81 73 55
81 72 54
54 50 45
56 51 47
80 72 54
56 51 47
55 51 46
55 50 46
80 72 54
56 51 47
55 50 45
79 71 52
52 48 44
98 87 59
75 68 48
45 43 37
184 214 51
208 252 46
159 190 36
159 190 36
174 214 41
49 63 19
46 56 17
53 66 20
47 59 18
58 104 20
44 54 17
47 45 37
53 48 44
50 46 42
49 44 40
49 45 41
52 47 43
50 46 42
53 48 44
53 48 44
54 49 45
54 49 45
54 49 45
55 50 46
55 50 46
55 50 46
55 50 46
56 51 47
55 50 46
55 50 46
55 50 46
55 50 46
56 51 47
56 51 47
55 50 46
56 51 47
56 51 47
56 51 47
55 50 46
55 50 46
56 51 47
55 50 46
77 70 53
87 88 62
61 62 50
42 43 43
42 44 44
42 44 43
42 43 43
43 44 43
52 48 45
56 51 46
55 50 46
55 50 46
55 50 46
55 50 46
56 51 47
56 51 47
56 51 47
56 51 46
56 51 47
56 51 47
55 50 46
55 51 46
56 51 47
56 51 47
56 51 46
56 51 46
55 50 46
55 50 46
56 51 47
56 51 47
55 50 46
56 51 47
56 51 47
55 50 46
56 51 47
54 49 45
131 82 61
89 57 55
102 60 59
102 60 60
101 60 59
93 58 57
78 54 52
55 50 46
55 49 45
56 51 47
55 50 46
55 50 46
55 51 46
68 63 49
55 50 46
56 51 47
53 48 44
53 48 44
53 48 43
53 48 44
50 46 41
48 44 40
44 40 36
45 41 38
39 36 32
37 34 31
30 28 25
31 28 26
30 27 25
30 28 25
33 31 28
38 35 31
44 41 37
45 41 37
49 44 40
51 46 42
51 46 42
55 50 46
53 48 44
53 49 45
49 44 40
54 49 45
52 47 43
54 49 44
55 50 46
55 49 45
53 48 44
55 50 46
54 49 45
55 50 46
55 50 46
55 49 45
77 61 43
110 79 36
115 81 35
115 82 35
115 82 35
112 79 34
115 81 35
167 116 41
106 74 32
153 105 37
64 54 45
55 50 46
54 49 45
55 50 46
54 49 45
56 51 46
55 50 46
54 49 45
58 53 48
79 71 63
60 54 49
54 49 44
58 52 48
61 56 50
67 61 54
55 51 46
56 51 47
55 50 46
76 69 61
119 108 95
96 88 78
53 48 44
54 49 45
55 49 45
52 46 42
55 50 46
54 49 45
65 35 41
73 35 44
92 47 46
75 36 46
71 34 44
118 56 56
75 36 46
114 54 52
147 69 62
194 90 74
116 54 51
67 31 36
135 64 51
49 45 41
57 45 41
51 46 42
51 46 42
52 47 43
49 44 40
48 43 39
47 43 39
77 68 49
48 43 39
46 41 37
45 40 36
40 35 31
46 41 37
41 36 33
45 40 36
44 40 36
46 42 38
44 39 36
40 35 32
42 35 32
45 39 35
41 36 33
101 58 42
121 66 46
126 69 48
123 68 48
126 69 49
226 122 63
122 67 47
255 158 74
255 174 79
255 153 69
35 31 28
65 57 35
56 38 24
66 57 35
53 48 43
49 43 38
74 52 39
71 56 42
53 38 32
92 70 50
77 67 47
49 44 39
57 51 45
61 55 49
84 68 42
33 29 27
59 43 31
55 39 26
85 68 42
70 61 40
84 68 42
86 69 42
115 91 52
62 47 35
46 38 33
89 72 45
77 54 35
79 56 37
74 49 37
114 92 54
116 93 55
72 40 35
138 54 39
144 54 39
113 49 41
238 101 60
115 49 41
150 68 47
141 73 47
96 78 50
52 46 42
51 46 42
69 54 43
51 45 42
52 46 42
52 46 43
52 46 43
68 49 40
65 44 39
82 40 29
103 68 48
134 101 67
69 48 43
182 86 63
57 49 22
119 80 44
174 131 84
147 115 75
129 94 63
120 103 62
69 55 41
95 84 55
91 77 52
59 44 32
30 45 30
41 68 42
75 129 68
70 121 65
102 174 90
95 166 84
112 194 99
255 255 255
255 255 255
255 255 255
255 255 255
255 255 255
255 255 255
255 255 255
255 255 255
255 255 255
255 255 255
255 255 255
255 255 255
255 255 255
255 255 255
255 255 255
255 255 255
255 255 255
255 255 255
255 255 255
255 255 255
255 255 255
255 255 255
255 255 255
255 255 255
255 255 255
255 255 255
255 255 255
255 255 255
255 255 255
255 255 255
255 255 255
255 255 255
255 255 255
255 255 255
255 255 255
255 255 255
255 255 255
255 255 255
255 255 255
255 255 255
255 255 255
255 255 255
255 255 255
255 255 255
255 255 255
255 255 255
255 255 255
255 255 255
255 255 255
255 255 255
255 255 255
255 255 255
255 255 255
255 255 255
255 255 255
255 255 255
255 255 255
255 255 255
255 255 255
255 255 255
255 255 255
255 255 255
255 255 255
255 255 255
255 255 255
255 255 255
255 255 255
255 255 255
98 89 58
53 49 44
77 70 51
97 94 58
99 101 61
128 124 70
112 112 63
137 118 66
255 255 221
255 255 225
255 255 232
255 255 198
255 255 192
255 241 143
255 169 109
255 168 107
177 117 86
112 77 69
112 75 69
78 58 53
51 47 43
99 88 60
53 49 45
55 50 46
55 50 46
54 49 45
55 50 46
81 73 55
81 72 54
55 50 46
130 116 73
81 72 54
56 51 47
81 72 54
56 51 47
55 50 46
56 51 47
55 51 46
55 50 46
55 50 46
55 50 46
61 61 45
54 49 45
80 71 53
62 61 46
78 70 51
96 85 56
46 42 39
47 48 31
137 164 32
177 211 39
119 143 28
138 165 32
91 109 23
84 102 21
103 135 26
32 40 12
38 46 14
37 41 25
43 39 35
49 44 40
50 46 42
50 45 41
53 48 44
52 48 44
54 49 45
54 49 45
53 48 44
54 50 45
55 50 45
55 50 46
55 50 46
56 51 46
55 50 46
55 50 46
55 51 46
55 50 46
55 50 46
56 51 47
55 50 46
56 51 46
81 72 54
55 50 46
81 73 55
56 51 47
56 51 47
55 50 46
56 51 47
54 49 45
89 89 61
97 98 66
74 76 56
60 62 50
41 42 42
42 44 43
41 43 43
42 43 43
42 43 43
40 41 41
51 48 45
55 50 46
56 51 47
56 51 47
54 50 46
56 51 47
55 50 46
56 51 47
56 51 47
56 51 47
56 51 47
55 50 46
55 50 46
56 51 47
55 50 47
56 51 47
55 50 46
56 51 47
73 50 46
56 51 47
56 51 47
56 51 47
56 51 47
56 51 46
56 51 47
57 49 46
90 57 53
148 86 68
102 60 59
103 61 60
102 60 59
103 61 60
103 61 60
103 61 60
91 58 56
69 63 49
56 51 47
55 50 46
56 51 47
56 51 47
55 50 46
55 49 45
55 50 46
55 50 46
56 51 46
53 48 44
54 50 45
51 46 42
50 46 42
51 46 42
49 45 41
46 42 38
47 43 39
47 43 40
41 38 34
40 37 33
38 34 31
45 41 37
42 39 35
46 42 38
49 45 40
52 47 44
52 48 43
53 49 45
53 49 45
54 50 46
55 50 46
53 48 44
52 47 43
54 49 45
56 50 46
53 49 45
54 49 45
54 49 45
55 50 46
56 51 46
55 50 46
55 50 46
66 54 44
108 78 35
114 81 35
113 80 35
115 82 35
112 80 34
115 82 35
164 115 40
165 115 40
107 76 33
158 108 36
97 68 30
60 53 45
54 49 45
55 50 46
80 72 54
80 71 53
80 72 54
54 49 45
55 50 46
63 58 52
82 81 60
66 61 54
67 61 55
83 74 56
62 56 51
71 65 57
76 69 62
72 62 57
83 73 63
108 98 85
57 52 47
52 47 43
53 49 45
54 49 45
55 50 46
53 47 44
51 46 42
65 37 42
69 33 43
68 33 42
70 34 43
66 31 40
72 35 44
69 33 43
127 62 54
171 80 67
143 67 57
140 65 54
165 77 61
98 48 40
48 42 39
59 45 41
49 44 40
78 69 50
47 42 38
49 44 40
49 43 40
50 45 41
48 43 39
48 43 40
50 45 41
42 37 34
48 43 40
45 40 37
44 39 35
48 43 40
75 67 48
57 43 35
43 38 35
74 66 47
45 41 37
37 32 29
90 53 40
123 68 48
125 69 49
125 70 49
127 70 50
125 69 48
124 69 48
255 143 71
255 142 70
228 123 62
255 139 67
81 61 37
29 25 23
34 30 27
53 37 32
63 56 49
71 54 46
47 39 34
43 38 34
72 46 32
51 46 41
86 75 55
76 62 49
63 56 48
52 46 41
68 54 42
74 66 45
42 35 30
108 96 57
62 47 35
39 33 28
87 70 44
63 48 36
82 56 34
69 51 37
45 38 34
43 38 35
97 76 46
46 41 37
79 56 38
80 58 41
145 69 39
142 54 39
110 47 40
205 87 54
115 50 42
255 108 61
255 152 82
255 143 78
255 125 70
235 116 67
72 57 45
95 67 44
82 61 44
90 75 51
84 61 43
54 46 41
74 56 43
68 50 37
86 50 36
84 59 46
79 45 37
66 44 40
50 39 39
51 35 34
31 25 23
102 75 51
108 83 58
90 68 49
93 76 49
103 95 56
238 249 72
152 149 49
188 196 59
181 189 56
66 60 38
59 46 30
43 78 35
24 40 30
48 83 44
35 65 37
65 65 37
255 255 255
255 255 255
255 255 255
255 255 255
255 255 255
255 255 255
255 255 255
255 255 255
255 255 255
255 255 255
255 255 255
255 255 255
255 255 255
255 255 255
255 255 255
255 255 255
255 255 255
255 255 255
255 255 255
255 255 255
255 255 255
255 255 255
255 255 255
255 255 255
255 255 255
255 255 255
255 255 255
255 255 255
255 255 255
255 255 255
255 255 255
255 255 255
255 255 255
255 255 255
255 255 255
255 255 255
255 255 255
255 255 255
255 255 255
255 255 255
255 255 255
255 255 255
255 255 255
255 255 255
255 255 255
255 255 255
255 255 255
255 255 255
255 255 255
255 255 255
255 255 255
255 255 255
255 255 255
255 255 255
255 255 255
255 255 255
255 255 255
255 255 255
255 255 255
255 255 255
255 255 255
255 255 255
255 255 255
255 255 255
255 255 255
255 255 255
255 255 255
255 255 255
142 126 77
129 115 71
106 105 62
130 125 73
140 128 75
48 59 40
75 68 48
255 255 159
255 255 242
255 255 240
255 255 204
255 255 217
255 255 162
255 255 169
255 246 138
210 119 86
116 78 68
143 97 68
107 73 67
85 60 56
76 68 49
78 74 52
49 45 41
52 47 43
53 48 44
55 50 46
54 51 45
79 71 52
55 50 46
54 50 46
81 73 55
74 64 50
55 50 46
56 51 47
116 103 67
81 73 54
116 103 67
56 51 47
62 61 47
85 80 54
56 51 47
80 72 53
79 70 51
52 48 44
50 46 41
82 77 50
101 93 58
41 38 34
53 34 29
33 31 26
113 129 35
28 35 11
81 97 20
30 37 11
43 56 13
73 83 17
31 39 13
34 37 23
44 40 36
46 42 38
48 44 40
49 45 40
65 47 43
53 48 44
53 48 44
51 47 43
53 49 45
56 51 46
65 51 46
81 73 54
55 50 46
54 49 45
55 50 46
56 51 47
55 50 46
56 51 47
55 50 46
55 50 46
55 49 45
56 51 47
55 50 46
81 73 55
81 72 54
81 73 54
56 51 47
56 51 47
56 51 47
55 50 46
52 48 45
85 86 59
87 88 61
97 98 66
107 108 71
60 61 49
41 42 42
41 43 43
41 42 42
40 41 42
40 41 42
41 42 41
55 50 46
56 51 47
56 51 47
56 51 47
57 52 47
56 51 47
56 51 47
56 51 47
56 51 47
91 76 56
56 51 47
55 51 46
56 51 47
56 51 47
55 50 46
55 50 46
56 51 47
56 51 47
55 50 46
56 51 47
56 51 47
56 51 47
54 49 45
55 50 46
79 51 50
183 105 77
149 86 69
98 58 58
102 60 59
150 87 70
102 60 59
101 59 59
103 61 60
102 60 59
87 56 55
55 50 46
55 50 46
55 49 45
56 51 47
56 51 47
56 51 47
55 50 46
56 51 47
55 50 46
56 51 47
56 51 47
54 49 45
54 50 46
53 49 45
55 50 46
48 44 40
49 45 41
48 44 40
50 46 42
49 44 41
47 43 39
51 47 42
48 44 40
49 45 41
51 47 43
51 47 43
48 44 40
54 49 45
55 50 46
55 50 46
55 51 46
54 49 45
55 51 46
56 51 47
54 49 45
72 56 47
56 51 47
56 51 47
55 50 46
55 50 46
55 51 46
55 49 45
91 68 39
110 78 34
110 78 34
111 79 34
112 79 34
111 79 34
113 80 34
109 77 33
235 162 48
160 111 38
100 70 30
195 134 40
141 100 45
54 49 45
55 50 46
80 71 53
54 49 45
80 71 53
80 72 54
54 49 45
54 49 45
79 73 62
110 101 88
113 105 91
106 94 84
100 93 83
107 98 87
114 104 92
122 111 98
119 109 95
69 63 56
53 48 44
53 48 44
51 46 43
53 48 44
53 49 45
52 46 43
54 49 45
58 43 43
59 28 36
58 28 35
63 30 38
110 52 49
63 30 39
64 30 39
143 67 58
142 66 58
143 67 58
106 49 46
137 64 52
47 31 31
48 43 39
48 43 39
44 39 36
48 43 39
63 49 45
46 40 36
75 66 47
50 45 41
48 43 39
49 43 38
49 44 40
44 39 36
48 43 39
49 44 40
44 39 35
42 37 34
44 39 36
47 42 38
47 42 39
44 39 36
40 35 32
41 36 33
114 64 46
119 66 47
124 69 49
125 69 49
120 67 47
182 100 57
121 68 48
255 143 70
255 143 71
255 203 91
255 213 94
109 61 38
30 26 23
53 33 27
81 59 43
79 60 47
55 49 43
86 64 45
70 56 42
48 41 35
44 35 31
110 93 59
70 56 43
163 144 81
69 55 43
50 43 37
42 37 33
63 46 33
65 48 35
78 54 35
87 71 47
86 70 45
67 51 39
44 39 36
47 38 33
76 67 47
65 49 36
57 43 37
99 77 49
68 51 38
86 49 37
110 46 38
143 54 40
146 56 42
166 71 49
165 70 48
255 134 74
255 134 74
255 197 102
255 190 99
255 151 81
126 99 59
121 90 54
83 61 44
72 57 45
70 54 42
83 62 44
96 67 42
49 43 40
58 40 31
42 32 33
105 68 47
85 60 45
99 68 51
79 51 44
99 68 50
105 77 56
132 97 66
151 139 50
136 142 48
94 101 43
219 230 67
255 255 80
255 255 76
255 255 89
255 255 91
188 193 60
86 77 44
104 92 52
107 102 57
133 118 65
79 81 44
255 255 255
255 255 255
255 255 255
255 255 255
255 255 255
255 255 255
255 255 255
255 255 255
255 255 255
255 255 255
255 255 255
255 255 255
255 255 255
255 255 255
255 255 255
255 255 255
255 255 255
255 255 255
255 255 255
255 255 255
255 255 255
255 255 255
255 255 255
255 255 255
255 255 255
255 255 255
255 255 255
255 255 255
255 255 255
255 255 255
255 255 255
255 255 255
255 255 255
255 255 255
255 255 255
255 255 255
255 255 255
255 255 255
255 255 255
255 255 255
255 255 255
255 255 255
255 255 255
255 255 255
255 255 255
255 255 255
255 255 255
255 255 255
255 255 255
255 255 255
255 255 255
255 255 255
255 255 255
255 255 255
255 255 255
255 255 255
255 255 255
255 255 255
255 255 255
255 255 255
255 255 255
255 255 255
255 255 255
255 255 255
255 255 255
255 255 255
255 255 255
255 255 241
148 138 79
107 99 63
79 78 52
115 114 66
115 114 66
49 59 42
77 84 51
255 178 104
255 255 218
255 255 243
255 255 220
255 255 220
255 255 182
255 255 148
255 206 124
217 143 94
122 81 71
108 80 64
137 100 60
82 58 53
48 44 40
54 50 45
54 49 45
53 48 44
79 70 52
54 50 46
56 51 47
54 50 46
56 51 47
80 72 53
86 80 54
100 89 61
81 73 55
99 88 60
55 51 47
62 61 47
55 50 46
62 61 47
56 51 47
81 72 54
100 89 60
83 74 54
93 92 53
80 71 53
52 48 44
51 47 42
47 43 39
43 40 35
46 48 30
68 62 39
87 77 45
25 36 14
20 25 7
37 46 11
22 29 10
20 25 10
27 28 19
35 32 29
37 34 31
46 42 38
47 43 39
49 45 40
52 49 42
52 48 44
53 48 44
56 51 46
53 49 45
56 51 47
63 51 46
55 50 46
55 51 46
56 51 47
55 50 45
56 51 47
55 50 46
55 50 46
56 51 47
55 50 46
53 49 45
55 50 46
56 51 47
55 50 46
56 51 47
55 50 46
55 50 46
56 51 47
55 51 46
55 50 46
51 57 43
96 97 64
96 97 65
93 93 62
39 40 40
39 40 40
40 41 41
39 40 40
39 40 39
40 41 41
39 41 41
39 40 40
47 44 42
56 51 47
81 73 54
55 50 46
55 50 46
55 50 46
56 51 47
56 51 47
56 51 47
55 50 46
55 50 46
56 51 47
55 50 46
56 51 47
55 50 46
56 51 47
56 51 47
55 50 46
56 51 47
56 51 47
55 50 46
54 50 46
54 48 44
67 50 48
238 136 90
180 103 72
96 56 56
99 58 57
174 98 72
102 60 59
102 60 59
102 60 59
99 58 58
102 60 59
96 57 57
69 51 49
55 50 46
55 51 46
55 50 46
56 51 46
56 50 46
55 50 46
56 51 47
56 51 47
56 51 47
55 50 46
55 51 46
54 49 45
54 49 45
54 49 45
53 48 44
54 49 45
66 61 47
52 47 43
51 47 43
50 45 41
53 48 44
54 49 45
53 49 44
54 49 45
53 48 44
54 50 46
56 51 47
55 50 46
54 49 45
55 50 46
56 50 46
55 50 46
55 50 45
55 50 46
55 50 46
55 50 46
55 50 46
56 50 46
55 50 46
56 51 46
55 50 46
97 68 30
107 75 33
108 76 33
109 77 33
111 79 34
111 79 34
107 76 33
108 77 33
106 75 32
172 110 36
255 219 61
231 159 46
197 140 51
80 71 53
55 50 46
53 48 44
55 50 46
54 49 45
53 48 45
54 49 45
54 49 45
55 50 46
71 65 58
107 98 85
122 112 97
121 111 97
127 116 101
119 110 95
106 97 83
55 50 45
53 48 44
53 48 44
53 48 44
53 48 44
53 48 44
51 46 42
52 46 43
52 47 43
50 45 42
48 25 30
59 28 36
51 25 32
58 28 35
61 29 37
57 27 35
56 27 34
140 65 55
140 65 56
47 22 28
99 48 41
36 32 29
40 35 32
46 41 37
46 42 38
59 45 41
47 42 38
51 46 42
50 45 41
44 40 36
48 43 39
47 42 38
48 43 39
48 43 39
52 41 36
50 45 42
47 42 38
46 41 37
41 36 32
43 39 35
45 40 36
45 41 37
47 42 38
60 42 35
137 65 45
145 85 48
119 66 47
179 97 55
117 65 46
182 99 57
132 71 48
176 96 53
225 122 63
255 140 68
255 200 88
255 135 62
57 32 27
37 33 30
61 45 32
64 47 34
48 42 37
50 45 40
57 50 43
45 39 35
52 45 39
53 48 43
255 236 120
47 38 34
75 60 47
95 84 53
51 42 39
78 56 37
42 37 34
67 50 37
87 72 47
77 55 36
48 41 37
92 59 38
65 50 38
91 63 40
98 83 53
68 50 38
68 52 39
91 64 40
125 43 36
104 45 38
137 49 41
164 70 48
238 100 60
165 70 48
255 113 65
208 87 54
255 152 82
255 169 90
255 142 77
224 98 57
93 66 42
70 55 44
50 45 41
51 46 42
83 72 50
49 44 41
78 55 40
47 36 32
34 28 27
64 48 35
87 65 45
103 71 52
69 47 41
99 65 48
103 71 51
112 87 51
134 142 49
93 101 43
136 145 50
196 206 62
255 255 99
255 255 99
255 255 126
255 255 128
255 255 116
150 147 65
107 94 57
92 86 52
112 110 65
140 130 76
255 255 212
255 255 255
255 255 255
255 255 255
255 255 255
255 255 255
255 255 255
255 255 255
255 255 255
255 255 255
255 255 255
255 255 255
255 255 255
255 255 255
255 255 255
255 255 255
255 255 255
255 255 255
255 255 255
255 255 255
255 255 255
255 255 255
255 255 255
255 255 255
255 255 255
255 255 255
255 255 255
255 255 255
255 255 255
255 255 255
255 255 255
255 255 255
255 255 255
255 255 255
255 255 255
255 255 255
255 255 255
255 255 255
255 255 255
255 255 255
255 255 255
255 255 255
255 255 255
255 255 255
255 255 255
255 255 255
255 255 255
255 255 255
255 255 255
255 255 255
255 255 255
255 255 255
255 255 255
255 255 255
255 255 255
255 255 255
255 255 255
255 255 255
255 255 255
255 255 255
255 255 255
255 255 255
255 255 255
255 255 255
255 255 255
255 255 255
255 255 255
255 255 219
119 112 68
122 124 70
116 103 66
116 117 67
147 139 79
128 114 70
142 132 76
255 233 129
255 255 202
255 255 223
255 255 235
255 255 211
255 255 191
255 255 185
255 178 99
174 114 80
162 106 73
216 142 90
93 63 58
80 58 53
52 48 43
52 48 44
54 50 45
54 51 45
54 50 46
55 50 46
55 51 46
55 50 46
99 88 60
55 50 46
100 89 61
80 72 53
55 50 46
55 50 46
81 73 54
56 51 47
55 50 46
100 89 61
81 73 54
55 51 46
55 50 46
81 72 54
80 72 54
81 72 54
68 69 46
49 45 41
83 78 51
85 83 48
97 87 57
91 81 50
66 59 37
40 32 26
34 33 25
24 24 17
24 23 21
19 18 15
36 34 30
40 38 32
75 73 45
43 40 36
49 45 41
49 45 41
48 44 40
54 49 45
54 49 45
80 72 53
53 49 45
53 48 44
55 50 46
54 49 45
56 51 47
99 89 60
55 50 46
56 51 47
54 49 45
55 50 46
55 50 46
56 51 47
56 51 47
56 51 47
56 51 47
55 50 46
56 51 47
55 50 46
55 50 46
55 50 46
54 49 45
81 72 54
80 77 51
115 116 73
132 133 84
58 59 47
73 74 54
74 75 54
58 59 47
38 40 40
38 39 39
39 38 38
38 40 40
38 38 39
41 40 39
56 51 47
56 51 47
55 50 46
55 50 47
56 51 47
55 50 46
55 51 47
56 51 47
56 51 46
55 50 46
81 72 54
56 51 47
56 51 47
55 50 46
56 51 47
56 51 47
55 50 46
56 51 47
56 50 46
54 48 45
55 50 46
54 49 45
71 47 45
138 80 62
178 103 73
208 120 81
94 55 55
93 54 53
143 83 65
98 58 58
95 56 55
98 58 57
98 58 58
95 56 56
98 73 58
55 50 46
56 51 47
56 51 47
56 51 47
55 50 46
55 51 46
81 73 55
55 50 46
55 51 46
55 50 46
55 50 46
56 51 47
54 49 45
55 50 46
55 50 46
55 50 46
54 49 45
52 48 44
54 49 45
53 49 45
55 50 46
55 50 46
52 47 43
53 49 45
54 49 45
52 47 43
55 50 46
54 49 45
55 50 46
55 50 46
56 51 47
55 50 46
54 49 45
55 49 45
55 51 46
56 51 46
56 51 46
55 50 47
55 50 46
55 50 46
57 49 44
102 71 31
100 69 31
140 81 34
105 75 33
105 75 33
104 74 32
98 69 30
158 110 38
255 182 53
94 66 29
255 179 51
228 156 45
187 129 38
53 48 44
55 50 46
80 71 53
80 71 53
53 48 44
54 48 44
51 45 40
53 48 44
53 48 44
54 48 44
53 48 44
59 54 49
66 60 53
64 58 52
54 49 45
53 48 44
55 50 46
52 47 44
53 48 44
53 49 45
53 49 45
55 50 46
52 47 43
49 45 41
52 47 43
49 44 40
49 42 40
48 27 31
48 23 30
83 39 32
44 21 27
51 24 31
51 25 32
49 24 27
101 47 42
29 14 19
28 23 21
35 31 29
33 29 26
45 40 37
45 40 37
48 42 39
49 44 40
45 40 36
49 43 39
50 45 41
50 45 41
45 40 36
49 43 39
51 47 43
50 43 39
47 43 39
50 45 41
46 41 37
45 40 36
53 46 41
46 41 37
44 39 36
42 37 33
75 46 36
105 58 42
116 65 46
110 61 44
118 66 47
116 65 46
224 122 63
111 61 44
108 60 43
172 93 51
255 188 85
97 50 36
250 134 62
209 118 64
37 31 28
55 39 34
44 39 35
46 40 35
78 68 48
96 79 54
64 48 36
59 40 27
74 52 38
77 67 48
235 207 107
50 43 37
52 46 39
72 54 42
110 79 44
50 42 36
75 67 48
64 48 35
50 42 37
97 76 47
66 50 38
91 63 39
76 66 46
79 65 41
67 52 40
99 77 48
150 87 55
129 44 37
105 45 39
106 46 39
108 47 40
255 112 64
255 112 64
255 112 64
255 168 88
255 176 92
255 143 77
255 168 88
255 141 75
78 69 51
98 86 57
91 75 51
68 54 43
51 45 42
78 70 51
73 65 45
45 38 35
44 32 30
31 26 25
30 21 20
31 24 20
117 90 55
115 86 54
141 115 67
138 111 39
88 95 41
195 205 62
92 99 42
255 255 76
255 255 88
255 255 126
255 255 118
255 255 136
255 255 126
255 255 113
151 136 80
130 123 72
115 107 66
113 101 63
255 255 202
255 255 255
255 255 255
255 255 255
255 255 255
255 255 255
255 255 255
255 255 255
255 255 255
255 255 255
255 255 255
255 255 255
255 255 255
255 255 255
255 255 255
255 255 255
255 255 255
255 255 255
255 255 255
255 255 255
255 255 255
255 255 255
255 255 255
255 255 255
255 255 255
255 255 255
255 255 255
255 255 255
255 255 255
255 255 255
255 255 255
255 255 255
255 255 255
255 255 255
255 255 255
255 255 255
255 255 255
255 255 255
255 255 255
255 255 255
255 255 255
255 255 255
255 255 255
255 255 255
255 255 255
255 255 255
255 255 255
255 255 255
255 255 255
255 255 255
255 255 255
255 255 255
255 255 255
255 255 255
255 255 255
255 255 255
255 255 255
255 255 255
255 255 255
255 255 255
255 255 255
255 255 255
255 255 255
255 255 255
255 255 255
255 255 255
255 255 255
255 255 192
121 107 67
115 103 66
129 120 72
116 111 66
99 106 60
154 142 81
71 58 45
255 219 116
255 255 196
255 255 241
255 255 214
255 255 203
255 255 190
255 255 162
255 249 137
218 143 92
166 110 73
89 60 49
98 69 55
61 46 43
52 47 43
52 47 43
55 50 46
54 49 44
55 50 46
54 50 46
81 72 54
54 49 45
55 50 46
56 51 47
55 50 46
100 89 61
56 51 47
100 89 61
80 71 53
104 95 61
56 51 47
56 51 47
55 50 46
100 89 61
81 73 54
80 72 53
89 86 53
55 50 46
52 48 44
62 60 46
98 88 57
76 68 49
46 42 38
57 56 41
79 75 46
51 52 36
36 35 28
34 32 28
93 83 53
71 64 44
36 33 30
72 64 44
46 43 38
75 68 48
47 44 39
55 50 46
54 50 46
53 48 44
55 50 46
55 50 46
55 50 46
56 51 47
55 50 46
55 50 46
55 50 46
55 50 46
56 51 47
81 72 54
56 51 47
56 51 47
55 50 46
55 50 46
56 51 47
56 51 47
55 50 46
54 49 45
81 72 54
55 50 46
54 49 45
55 50 46
52 47 43
53 49 45
82 83 54
104 110 67
101 101 64
56 56 43
78 76 53
66 65 45
37 38 38
35 37 37
37 38 38
37 38 37
35 36 37
35 36 37
38 38 37
56 51 47
56 51 47
55 50 46
56 51 47
56 51 47
55 50 46
55 51 47
55 50 46
55 50 46
56 51 47
55 50 46
57 52 47
56 51 47
56 51 47
56 51 47
55 50 45
55 50 46
54 49 45
55 50 46
65 50 46
54 49 45
55 50 46
255 146 92
234 134 87
144 83 65
236 135 88
87 51 51
91 53 53
91 54 53
96 56 55
97 57 57
94 55 55
96 57 56
91 54 54
85 50 50
56 50 46
56 51 47
55 50 46
68 62 48
55 50 46
56 51 47
56 51 47
55 50 46
56 51 47
55 50 46
55 50 46
55 50 46
55 50 46
56 51 46
55 50 46
53 48 45
55 50 46
55 50 46
54 49 45
54 49 45
81 73 55
56 51 47
55 50 46
55 51 46
55 50 46
55 50 46
55 50 46
54 50 45
55 50 46
56 51 47
56 50 46
56 51 47
55 50 46
56 51 47
56 51 47
55 50 46
55 50 46
56 51 47
55 50 46
55 50 46
56 50 45
134 75 31
135 76 32
102 72 31
99 70 31
100 71 31
156 109 37
97 69 30
155 109 36
156 109 37
194 134 41
255 255 69
144 99 31
172 114 32
56 50 44
81 72 54
51 46 42
52 47 43
52 46 41
53 47 42
51 45 41
50 44 40
53 48 44
54 49 45
54 50 46
53 49 45
52 48 44
54 49 45
54 49 46
54 49 45
53 48 44
53 48 45
54 49 45
53 48 44
53 48 45
53 48 44
51 46 42
52 47 44
49 44 41
47 42 39
45 41 38
36 29 29
38 26 28
35 16 21
31 15 19
42 20 27
38 18 24
36 15 19
36 19 23
17 13 13
28 24 23
35 30 28
41 37 34
46 41 38
56 42 38
47 41 38
49 44 40
52 47 43
77 68 49
49 43 39
51 46 42
52 47 43
49 44 40
52 47 43
51 45 41
49 45 41
48 43 39
47 42 38
50 45 41
43 38 34
46 40 37
45 40 36
59 44 39
64 44 37
100 55 40
109 61 44
107 60 42
112 62 44
108 60 43
110 61 44
118 65 43
167 90 49
170 92 50
218 117 59
255 199 87
255 183 79
55 36 30
63 46 33
70 52 41
62 44 32
86 74 53
47 42 37
66 51 39
85 47 32
80 31 26
80 30 24
131 35 22
118 83 49
88 30 25
75 65 59
99 83 60
43 38 35
91 71 45
76 67 48
67 50 37
60 44 36
66 50 39
51 45 41
67 52 38
58 50 41
76 66 46
111 84 52
54 44 38
112 48 35
93 39 33
101 44 38
169 71 49
109 48 39
193 73 49
161 69 47
255 151 81
255 183 96
255 160 84
255 197 102
255 146 77
255 198 101
146 87 57
118 96 60
130 106 63
107 90 56
54 45 40
75 66 47
104 82 55
68 46 41
48 40 36
124 109 65
70 61 41
38 32 28
120 94 59
94 82 52
74 77 36
112 94 38
134 142 49
220 230 68
167 176 55
255 255 95
255 255 95
255 255 115
255 255 125
255 255 143
255 255 154
255 255 137
158 153 69
116 106 67
98 88 59
194 174 100
142 129 78
255 255 255
255 255 255
255 255 255
255 255 255
255 255 255
255 255 255
255 255 255
255 255 255
255 255 255
255 255 255
255 255 255
255 255 255
255 255 255
255 255 255
255 255 255
255 255 255
255 255 255
255 255 255
255 255 255
255 255 255
255 255 255
255 255 255
255 255 255
255 255 255
255 255 255
255 255 255
255 255 255
255 255 255
255 255 255
255 255 255
255 255 255
255 255 255
255 255 255
255 255 255
255 255 255
255 255 255
255 255 255
255 255 255
255 255 255
255 255 255
255 255 255
255 255 255
255 255 255
255 255 255
255 255 255
255 255 255
255 255 255
255 255 255
255 255 255
255 255 255
255 255 255
255 255 255
255 255 255
255 255 255
255 255 255
255 255 255
255 255 255
255 255 255
255 255 255
255 255 255
255 255 255
255 255 255
255 255 255
255 255 255
255 255 255
255 255 255
154 136 82
154 140 82
162 143 83
142 131 77
143 126 78
127 109 69
110 92 60
152 134 79
153 109 66
255 238 133
255 255 209
255 255 196
255 255 178
255 255 155
255 255 146
255 185 106
177 121 69
255 181 101
147 98 60
83 57 45
46 41 37
49 45 41
52 47 43
53 49 45
55 50 46
54 50 45
99 88 60
56 51 47
55 50 46
100 89 61
81 72 54
55 50 46
55 51 46
81 72 54
81 73 54
100 89 61
55 50 46
56 51 47
81 72 54
56 51 47
86 81 54
56 51 47
100 89 61
54 50 45
81 73 55
85 80 53
79 70 52
60 59 45
59 58 43
53 48 44
97 86 57
83 78 51
96 86 56
45 42 38
49 45 41
74 66 46
75 68 48
48 44 40
76 68 48
50 46 41
76 69 49
54 49 45
54 49 44
55 50 46
54 50 45
54 50 45
80 72 54
55 50 46
81 72 54
81 72 54
55 50 46
55 50 46
55 50 46
56 51 47
56 51 47
56 51 47
56 51 47
56 51 47
55 51 46
56 51 47
54 49 45
80 72 53
54 49 45
54 49 45
80 71 53
80 72 53
52 47 43
52 47 43
51 46 43
104 105 66
76 76 52
84 85 56
83 84 56
66 65 45
32 32 32
56 57 44
34 33 34
36 36 36
34 34 34
34 35 35
32 34 35
54 46 42
80 72 54
56 51 47
55 50 46
54 50 45
55 51 47
55 50 46
56 50 46
55 50 46
56 51 47
56 51 47
56 51 47
57 51 47
56 51 47
56 50 46
56 51 46
55 50 46
55 50 46
54 49 45
53 48 44
54 49 45
54 49 45
50 45 41
168 96 64
233 132 85
204 117 76
134 78 58
79 46 46
139 80 62
90 53 53
108 64 54
85 50 49
87 51 51
90 54 53
86 51 50
85 51 51
56 51 47
56 51 47
55 50 46
55 50 46
56 51 47
56 51 46
56 51 47
55 50 46
55 50 46
56 51 47
56 51 47
55 50 46
56 51 47
56 51 47
56 51 46
56 51 47
55 50 46
55 50 46
55 51 46
55 50 46
56 51 47
54 50 46
55 50 46
56 51 47
54 49 45
56 51 46
56 51 47
55 51 46
53 48 44
55 50 46
102 59 63
103 59 64
146 85 70
66 52 50
56 51 47
56 51 47
54 49 45
55 50 46
55 50 46
55 50 46
55 50 46
76 53 30
88 60 27
90 62 27
96 66 29
155 107 36
80 57 25
90 64 28
85 61 26
149 103 33
88 63 27
227 157 45
138 95 29
136 95 37
52 47 42
52 47 44
51 46 42
53 48 44
52 47 43
52 47 43
53 47 43
53 48 44
54 49 45
54 49 45
53 49 45
55 50 46
54 50 46
51 46 42
53 48 45
53 48 45
53 48 44
54 49 45
50 45 42
51 47 43
52 47 44
54 49 45
50 45 41
51 46 42
52 47 44
48 43 40
50 38 34
37 33 31
40 32 29
28 23 23
24 18 19
20 16 16
23 13 16
19 15 15
22 16 15
45 30 26
44 32 29
37 32 29
42 38 35
45 40 37
69 48 43
49 45 41
48 43 39
50 45 41
62 49 44
50 45 42
49 44 40
49 44 40
52 47 43
48 44 40
53 48 44
49 44 40
54 44 39
50 45 41
46 40 36
46 41 37
50 45 41
46 39 35
44 39 35
56 45 40
92 51 36
108 60 43
103 57 41
106 59 42
99 55 39
103 57 41
94 53 38
253 137 65
206 111 53
219 117 56
206 110 51
155 83 42
111 96 56
106 85 51
104 77 53
80 71 63
43 35 30
43 32 28
79 25 19
91 22 15
94 23 15
138 33 18
96 23 16
199 48 23
198 47 23
141 58 46
156 54 40
65 50 39
55 48 41
87 71 47
79 56 37
82 59 40
76 54 41
68 50 37
59 48 44
90 62 44
79 57 39
81 60 42
51 46 42
77 42 37
125 39 32
92 39 34
100 43 37
99 43 37
104 45 39
164 70 46
251 100 59
255 131 70
255 182 95
255 161 84
255 191 98
255 180 92
194 103 61
105 69 44
111 92 58
101 80 52
118 85 51
78 69 51
69 53 42
112 96 63
72 58 45
66 49 39
66 46 43
71 54 41
112 91 60
49 44 39
120 97 39
107 93 40
89 96 41
165 173 54
238 250 70
255 255 99
255 255 102
255 255 106
255 255 136
255 255 146
255 255 150
255 255 137
255 255 93
155 139 83
129 117 71
129 115 71
194 172 99
255 255 255
255 255 255
255 255 255
255 255 255
255 255 255
255 255 255
255 255 255
255 255 255
255 255 255
255 255 255
255 255 255
255 255 255
255 255 255
255 255 255
255 255 255
255 255 255
255 255 255
255 255 255
255 255 255
255 255 255
255 255 255
255 255 255
255 255 255
255 255 255
255 255 255
255 255 255
255 255 255
255 255 255
255 255 255
255 255 255
255 255 255
255 255 255
255 255 255
255 255 255
255 255 255
255 255 255
255 255 255
255 255 255
255 255 255
255 255 255
255 255 255
255 255 255
255 255 255
255 255 255
255 255 255
255 255 255
255 255 255
255 255 255
255 255 255
255 255 255
255 255 255
255 255 255
255 255 255
255 255 255
255 255 255
255 255 255
255 255 255
255 255 255
255 255 255
255 255 255
255 255 255
255 255 255
255 255 255
255 255 255
255 255 255
255 255 255
175 155 91
104 89 61
154 136 82
143 135 78
127 113 69
112 93 61
158 140 81
147 127 74
173 148 85
103 92 52
255 199 113
255 247 139
255 222 126
255 202 117
194 126 77
255 187 107
207 135 81
134 97 60
100 74 47
55 44 41
47 42 39
48 44 40
54 49 45
53 49 44
53 49 44
55 50 46
55 50 46
55 50 46
55 50 46
81 72 54
100 89 61
100 89 61
116 103 67
81 73 54
55 50 46
56 51 47
81 73 54
56 51 46
56 51 47
56 51 47
81 73 55
81 72 54
81 72 54
54 50 45
55 50 46
81 72 54
99 89 60
54 49 45
101 91 59
58 55 44
98 88 58
83 79 52
82 77 49
98 87 59
78 71 51
77 69 50
76 69 49
53 49 44
79 71 52
79 71 52
54 50 44
79 71 53
80 72 53
54 50 45
53 49 44
80 72 54
54 50 45
55 51 46
54 50 46
55 50 46
81 73 54
116 103 67
55 50 46
56 51 47
55 50 46
55 50 46
55 50 46
54 49 45
55 50 46
55 50 46
55 50 46
55 51 46
55 49 45
55 50 46
52 48 44
54 49 45
52 47 43
50 45 41
47 41 37
88 87 56
63 58 42
61 56 40
95 74 50
46 40 36
45 40 36
57 55 40
63 54 38
34 34 32
29 29 29
31 32 33
27 28 29
46 42 40
54 50 46
53 48 44
55 50 46
55 50 46
56 51 47
56 51 47
55 50 46
54 49 45
54 49 45
56 51 47
55 50 46
56 51 47
55 50 46
55 50 46
55 50 46
55 50 46
54 49 45
55 50 46
54 50 46
54 49 45
52 47 43
52 47 43
227 130 81
219 126 78
175 101 70
135 77 58
91 53 49
80 47 46
81 47 47
78 46 45
82 48 47
79 49 47
83 49 49
73 43 43
75 47 47
55 50 46
54 49 45
55 50 46
56 51 47
55 50 46
56 51 47
56 51 47
56 51 47
55 50 46
56 51 47
56 51 47
56 51 47
56 51 47
55 50 46
56 51 47
56 51 47
56 51 47
56 51 47
56 51 47
56 51 47
56 51 47
56 51 47
56 51 47
55 50 46
55 50 46
56 51 47
56 51 47
56 51 47
55 51 46
55 51 46
114 63 69
111 61 67
110 60 66
108 60 66
85 52 54
56 50 46
54 49 45
54 49 45
55 50 46
54 49 45
54 49 45
59 47 36
120 60 25
93 61 27
83 57 25
85 61 27
86 61 27
85 61 27
147 102 33
143 99 31
140 98 30
139 96 29
138 95 29
49 40 32
48 43 39
50 45 41
50 45 41
50 44 40
52 47 42
52 47 42
54 48 43
55 50 46
54 49 45
54 49 46
53 48 45
54 49 45
53 48 44
53 48 45
55 50 46
53 48 44
53 48 44
55 50 46
55 50 46
79 71 53
54 50 46
54 49 45
54 49 46
50 45 42
50 45 41
47 42 39
44 39 37
42 37 35
33 29 27
28 25 23
24 21 20
29 26 25
26 23 22
25 22 20
29 26 24
51 37 33
56 43 39
44 39 35
47 42 39
49 44 40
61 47 42
47 41 37
51 46 42
50 45 41
51 46 42
51 46 42
52 47 43
52 47 42
52 47 43
50 45 41
50 45 41
50 44 40
49 44 40
47 41 37
49 43 40
52 46 42
48 42 39
48 42 38
43 36 33
48 43 39
120 69 34
85 47 34
94 52 38
88 49 35
96 53 38
82 46 33
165 89 48
165 89 48
91 48 31
156 83 42
153 80 38
78 61 38
135 111 62
83 51 35
91 80 49
106 96 76
76 70 61
83 34 28
94 23 16
95 23 16
96 23 16
95 23 16
139 33 19
139 33 19
255 63 28
245 58 27
255 63 28
216 69 42
67 52 41
49 44 40
113 77 44
49 44 41
49 44 40
80 57 39
93 66 43
66 47 39
94 67 44
52 46 42
52 45 41
101 41 34
82 35 30
86 37 32
123 41 35
155 66 44
153 65 43
158 67 43
198 82 49
255 111 62
255 169 88
255 165 86
255 142 74
255 140 73
96 85 55
107 90 56
52 44 40
81 70 52
90 70 50
53 47 43
50 45 42
115 98 64
97 81 56
110 84 51
51 45 42
81 65 49
96 82 56
77 69 49
73 76 33
103 87 38
144 139 46
128 136 46
255 255 74
255 255 84
255 255 92
255 255 115
255 255 138
255 255 151
255 255 146
255 255 135
255 255 115
150 132 78
189 168 96
143 129 79
160 145 84
255 255 255
255 255 255
255 255 255
255 255 255
255 255 255
255 255 255
255 255 255
255 255 255
255 255 255
255 255 255
255 255 255
255 255 255
255 255 255
255 255 255
255 255 255
255 255 255
255 255 255
255 255 255
255 255 255
255 255 255
255 255 255
255 255 255
255 255 255
255 255 255
255 255 255
255 255 255
255 255 255
255 255 255
255 255 255
255 255 255
255 255 255
255 255 255
255 255 255
255 255 255
255 255 255
255 255 255
255 255 255
255 255 255
255 255 255
255 255 255
255 255 255
255 255 255
255 255 255
255 255 255
255 255 255
255 255 255
255 255 255
255 255 255
255 255 255
255 255 255
255 255 255
255 255 255
255 255 255
255 255 255
255 255 255
255 255 255
255 255 255
255 255 255
255 255 255
255 255 255
255 255 255
255 255 255
255 255 255
255 255 255
255 255 255
255 255 255
158 134 80
140 127 76
143 127 78
129 115 72
152 131 79
183 158 92
142 116 72
133 115 71
106 82 55
111 96 56
161 111 65
255 173 99
255 206 118
255 182 104
255 172 100
216 140 83
173 118 68
150 100 55
42 40 30
44 38 34
45 40 37
46 41 38
48 43 40
52 47 44
54 49 45
99 88 60
80 72 53
55 50 46
81 73 55
56 51 47
56 51 47
80 72 54
56 51 47
100 89 61
56 51 47
81 72 54
55 51 46
55 51 46
81 72 54
55 50 46
81 72 54
81 73 55
81 72 54
80 72 54
55 50 46
55 51 46
56 51 47
100 89 61
81 73 53
55 51 46
74 64 50
55 50 46
80 71 53
53 49 45
60 60 45
79 71 53
80 72 53
53 49 44
55 50 46
52 48 43
53 48 44
54 49 45
53 49 44
55 50 46
56 51 47
56 51 47
55 50 46
54 50 45
56 51 47
56 51 47
55 50 46
60 62 52
77 86 69
89 102 81
99 114 90
85 98 78
85 93 68
58 58 50
80 72 54
55 50 46
79 71 52
51 46 42
49 43 38
55 48 41
49 43 37
52 47 35
49 46 34
54 48 38
54 48 38
64 55 45
69 58 48
74 64 52
67 61 48
74 64 52
74 63 51
57 46 39
53 44 38
48 40 34
46 39 33
44 38 33
37 33 30
46 41 37
52 47 44
53 48 45
55 50 46
56 51 47
52 47 44
55 50 46
54 49 45
55 51 47
55 50 46
55 50 46
56 51 47
55 50 46
55 50 46
56 51 47
55 50 46
54 50 46
51 47 43
54 49 45
53 48 45
54 49 45
49 44 41
49 44 40
120 71 49
56 33 34
229 131 82
130 74 54
71 41 41
133 76 57
72 42 41
72 42 42
90 52 49
76 45 45
76 45 44
108 41 40
62 46 43
55 51 46
54 49 45
56 51 47
56 51 47
56 51 47
55 49 46
56 51 47
55 50 46
55 50 46
55 51 46
55 50 46
55 50 46
56 51 47
55 50 46
56 51 47
55 50 46
56 51 46
62 52 47
55 51 46
56 51 47
55 50 46
55 50 46
56 51 47
55 50 46
55 51 47
56 51 47
55 50 46
56 51 47
55 50 46
55 50 46
112 62 68
113 63 68
110 61 67
233 126 96
231 124 94
77 50 50
54 49 45
54 49 45
54 49 45
54 49 45
53 48 44
50 45 41
110 54 27
72 49 22
124 68 28
74 52 23
76 53 24
69 50 22
71 51 22
186 128 37
135 93 28
188 129 36
179 123 35
42 36 32
46 42 38
46 42 38
50 45 41
52 47 43
53 48 44
53 48 44
54 49 45
53 48 44
52 47 43
55 50 46
54 49 45
55 50 45
53 48 44
54 49 45
54 49 45
54 49 45
54 49 45
55 50 46
54 49 45
54 49 45
54 49 45
54 49 45
53 48 44
52 47 43
51 47 43
50 45 42
47 43 39
54 46 41
40 36 33
44 40 37
44 40 37
37 33 31
73 65 46
40 35 33
39 34 32
41 36 33
46 41 38
48 43 39
62 48 44
50 44 40
52 46 42
52 47 43
55 50 46
53 48 44
51 46 42
53 48 44
51 46 42
51 46 41
53 48 44
53 48 43
48 42 39
49 44 40
49 44 40
50 44 40
47 42 37
51 46 42
50 44 40
48 42 38
48 42 38
47 41 37
43 36 33
90 50 34
126 70 32
86 48 35
86 47 33
153 84 44
77 42 31
86 46 33
81 43 27
176 84 40
53 28 21
91 78 46
42 35 31
71 62 40
86 71 46
85 56 38
72 40 33
94 23 16
92 22 16
94 23 16
93 23 16
94 23 16
138 33 18
171 41 21
199 47 23
255 72 32
244 58 26
240 60 31
82 58 39
50 43 39
49 43 39
49 44 40
82 61 44
50 44 40
49 44 40
83 60 42
50 44 41
65 49 38
64 49 37
50 43 38
83 36 28
73 31 27
123 41 32
151 64 40
108 46 35
196 83 48
227 96 54
195 82 47
255 109 60
255 145 75
255 146 75
199 98 55
107 90 56
96 84 55
107 91 58
123 105 65
60 48 42
98 87 58
75 61 47
127 109 69
103 87 57
53 47 43
54 48 44
77 63 50
57 50 45
52 47 43
74 78 31
87 89 37
90 97 40
163 147 49
239 239 69
238 249 69
255 255 91
255 255 106
255 255 125
255 255 143
255 255 141
255 255 136
255 255 100
174 154 90
193 171 98
166 149 86
203 181 104
255 255 255
255 255 255
255 255 255
255 255 255
255 255 255
255 255 255
255 255 255
255 255 255
255 255 255
255 255 255
255 255 255
255 255 255
255 255 255
255 255 255
255 255 255
255 255 255
255 255 255
255 255 255
255 255 255
255 255 255
255 255 255
255 255 255
255 255 255
255 255 255
255 255 255
255 255 255
255 255 255
255 255 255
255 255 255
255 255 255
255 255 255
255 255 255
255 255 255
255 255 255
255 255 255
255 255 255
255 255 255
255 255 255
255 255 255
255 255 255
255 255 255
255 255 255
255 255 255
255 255 255
255 255 255
255 255 255
255 255 255
255 255 255
255 255 255
255 255 255
255 255 255
255 255 255
255 255 255
255 255 255
255 255 255
255 255 255
255 255 255
255 255 255
255 255 255
255 255 255
255 255 255
255 255 255
255 255 255
255 255 255
255 255 255
255 255 222
128 109 70
207 185 105
186 164 96
182 158 92
154 137 82
142 120 74
145 120 74
115 101 63
142 124 74
131 107 62
117 98 58
191 142 79
64 57 33
113 73 47
145 96 48
82 54 37
100 75 47
41 29 23
37 32 30
46 39 35
47 41 38
47 42 39
50 46 42
52 47 43
99 88 59
54 49 45
54 49 45
81 73 55
55 50 46
56 51 47
56 51 47
130 115 73
100 89 61
81 72 54
81 72 54
100 89 61
53 53 43
69 84 44
98 90 58
54 52 44
55 50 46
130 116 73
55 50 46
56 51 47
55 50 46
56 51 47
81 72 54
85 80 54
55 51 46
99 89 60
55 51 46
100 89 61
53 49 45
55 51 47
54 49 45
99 88 60
53 48 44
86 81 54
54 50 46
55 51 46
53 49 44
56 51 47
54 50 45
54 49 46
55 50 46
80 72 53
81 73 55
55 50 46
81 72 54
78 70 51
87 115 56
97 112 88
106 122 95
110 126 97
111 128 97
109 126 96
105 121 94
95 110 87
55 55 47
80 72 52
52 50 37
62 53 40
64 56 44
60 52 43
75 64 52
87 74 61
99 84 69
100 86 70
101 86 70
101 87 70
102 87 71
102 87 71
102 87 71
101 87 71
101 87 71
101 86 70
100 86 70
97 83 68
92 79 64
87 74 61
74 61 51
55 45 38
56 42 36
59 45 41
58 48 45
53 48 44
55 50 46
55 50 46
55 50 46
56 51 47
56 51 47
56 51 47
53 48 45
56 51 47
55 50 46
54 50 46
53 48 44
54 49 45
54 49 45
56 51 47
52 47 43
48 43 40
48 43 40
47 42 39
46 39 37
66 39 35
197 112 69
128 74 53
127 73 51
62 34 34
61 35 34
62 37 36
53 31 30
67 40 39
61 36 36
62 38 39
53 48 44
55 50 46
53 49 45
54 49 45
56 51 47
55 50 46
55 50 46
55 51 46
54 49 45
56 51 47
56 51 47
55 50 46
55 51 47
56 51 47
56 51 46
55 50 46
55 50 46
56 51 46
55 50 46
56 51 47
55 51 47
67 62 48
56 51 47
56 51 47
56 51 47
55 50 46
55 51 47
56 51 47
56 51 47
56 51 47
56 51 47
111 61 68
163 89 79
161 88 78
197 106 85
230 124 94
255 137 98
65 49 48
54 49 45
54 49 45
55 49 45
53 48 44
49 44 40
51 46 42
48 35 23
58 39 17
57 40 18
66 46 20
66 47 21
142 99 31
181 125 34
86 58 20
39 29 16
31 27 24
36 32 29
43 38 34
45 40 37
48 43 39
52 47 43
70 57 44
53 48 44
56 51 46
54 49 45
54 49 45
54 49 45
54 49 45
54 49 45
55 51 47
54 49 45
56 51 47
54 49 45
55 50 46
54 49 45
55 50 46
72 59 46
54 49 45
54 49 46
54 49 45
53 48 44
53 48 44
52 47 44
53 48 44
47 42 39
50 45 42
46 42 38
48 43 39
45 41 38
46 42 38
51 47 43
48 43 40
45 40 37
48 43 39
49 44 41
51 46 41
51 46 42
53 48 44
52 47 43
51 46 42
54 49 45
61 48 43
51 46 42
52 47 43
53 48 43
62 48 43
50 45 41
52 47 43
52 46 42
50 45 41
52 46 41
52 45 39
50 44 40
47 41 38
49 44 40
43 37 34
43 37 33
40 35 32
39 31 28
58 32 24
67 37 28
71 39 29
89 48 32
70 37 27
152 82 41
65 35 26
63 30 19
58 34 22
118 88 50
64 43 32
65 43 32
41 34 31
50 44 40
77 24 19
90 22 15
90 22 15
90 22 15
91 22 15
92 22 16
91 22 15
197 47 23
244 58 27
243 58 26
255 76 33
255 72 31
155 51 37
55 48 43
68 53 41
53 46 42
49 41 37
52 47 43
70 55 44
44 39 35
47 42 38
67 53 41
67 53 41
47 42 38
63 36 31
80 33 26
93 38 30
154 65 39
164 69 42
185 78 44
229 97 54
117 49 34
255 110 59
255 172 88
255 119 61
95 72 41
109 75 47
53 42 38
71 52 45
81 70 51
100 89 61
109 90 60
68 48 41
54 48 43
102 81 53
81 72 53
54 49 44
84 57 43
96 81 57
65 49 41
83 87 36
82 80 30
142 131 42
101 106 41
217 227 64
255 255 78
228 237 66
255 255 102
255 255 117
255 255 129
255 255 145
255 255 126
195 191 79
191 168 96
141 125 75
152 139 79
169 153 87
255 255 155
255 255 255
255 255 255
255 255 255
255 255 255
255 255 255
255 255 255
255 255 255
255 255 255
255 255 255
255 255 255
255 255 255
255 255 255
255 255 255
255 255 255
255 255 255
255 255 255
255 255 255
255 255 255
255 255 255
255 255 255
255 255 255
255 255 255
255 255 255
255 255 255
255 255 255
255 255 255
255 255 255
255 255 255
255 255 255
255 255 255
255 255 255
255 255 255
255 255 255
255 255 255
255 255 255
255 255 255
255 255 255
255 255 255
255 255 255
255 255 255
255 255 255
255 255 255
255 255 255
255 255 255
255 255 255
255 255 255
255 255 255
255 255 255
255 255 255
255 255 255
255 255 255
255 255 255
255 255 255
255 255 255
255 255 255
255 255 255
255 255 255
255 255 255
255 255 255
255 255 255
255 255 255
255 255 255
255 255 255
255 255 255
255 234 126
194 172 100
176 155 92
193 167 97
199 170 99
102 90 61
154 121 76
133 112 69
173 145 84
138 118 72
222 187 106
193 166 95
124 103 62
114 95 54
117 92 55
88 76 44
112 95 55
43 31 26
76 64 42
76 65 45
75 67 48
51 47 40
80 70 50
79 70 52
79 71 52
54 50 46
81 72 54
99 88 60
100 95 61
56 50 46
56 51 46
56 50 46
80 72 54
116 103 67
81 73 54
82 107 46
78 110 36
63 91 31
77 111 34
77 111 34
43 64 26
46 60 33
52 54 42
56 51 47
55 50 46
80 72 53
56 51 47
55 50 46
80 72 54
104 95 61
56 51 46
55 50 46
81 72 54
99 89 60
79 71 52
55 51 45
81 72 54
80 72 53
81 73 54
55 50 46
55 51 46
56 51 47
80 72 54
100 89 61
56 51 47
56 51 47
56 51 47
92 88 59
81 73 55
53 50 45
59 71 51
95 111 86
106 122 95
112 128 98
114 131 99
116 133 100
115 132 100
84 89 68
65 69 54
48 39 31
56 43 34
70 58 48
90 77 63
98 84 68
101 86 70
102 87 71
103 88 71
104 89 71
105 89 72
105 90 72
106 90 72
106 90 72
106 90 72
106 90 72
106 90 72
106 90 72
105 90 72
105 90 72
104 89 72
104 89 72
103 88 71
101 87 71
100 86 70
93 80 65
100 86 64
63 48 40
56 40 35
43 37 34
51 46 42
54 49 45
56 51 47
54 50 46
56 51 47
55 50 46
54 49 45
56 51 47
69 55 48
68 54 47
53 48 44
54 49 45
52 47 43
77 69 50
77 56 46
47 41 38
43 39 36
38 34 31
34 24 24
118 67 45
45 26 26
43 25 25
56 31 28
109 59 42
81 48 34
51 31 30
51 29 29
50 31 31
46 41 38
51 46 42
53 48 44
54 49 45
52 47 43
55 50 46
54 49 45
55 50 46
55 50 46
56 51 47
55 50 46
55 50 46
56 51 47
56 51 47
56 51 47
56 51 47
56 51 46
56 51 47
55 50 46
56 51 47
56 51 47
56 51 47
55 50 46
56 51 47
56 51 47
56 51 47
55 51 46
56 51 47
70 53 47
56 51 46
55 50 46
56 51 47
108 60 66
158 86 76
106 59 64
157 85 75
154 84 72
149 81 68
82 49 51
53 49 45
52 47 43
53 48 44
52 47 43
50 45 41
43 38 34
39 35 31
35 29 23
51 35 18
48 32 14
107 53 20
40 28 13
45 33 16
28 20 11
26 20 16
32 28 25
35 31 28
45 41 37
67 53 39
52 47 43
69 55 42
70 57 44
53 48 44
53 48 45
55 50 46
52 47 42
54 49 45
56 51 46
55 50 46
72 59 46
55 50 46
56 51 47
56 51 47
55 50 46
55 50 46
55 50 46
55 50 46
53 48 44
55 50 46
55 49 45
57 50 45
53 48 44
52 47 43
50 45 42
51 46 42
51 47 43
52 47 43
49 44 40
51 46 42
48 43 40
50 45 41
50 45 41
50 45 41
50 44 41
53 48 44
53 48 44
50 45 41
51 45 41
61 48 43
53 48 44
80 71 53
54 49 45
53 48 44
54 49 45
54 49 45
51 45 42
52 47 43
54 49 45
51 46 42
54 49 44
52 47 43
50 44 40
49 45 41
49 44 40
51 46 42
49 44 40
44 38 34
45 40 37
41 36 33
27 22 20
35 26 23
45 25 19
49 27 20
63 31 22
48 27 21
27 16 13
23 17 15
30 26 23
35 30 27
43 35 30
41 37 34
47 42 39
72 47 36
84 20 14
86 21 15
88 21 15
95 23 16
90 22 15
135 32 18
198 47 23
132 32 17
255 75 33
255 63 28
255 71 31
255 75 32
212 59 36
69 54 43
91 75 51
68 53 42
70 54 42
77 69 50
49 44 41
67 52 41
69 54 43
51 43 39
43 35 32
45 38 33
78 54 33
65 29 25
79 33 26
108 33 25
137 58 35
80 34 27
139 59 36
230 97 52
170 71 41
160 66 37
108 83 51
102 82 50
75 65 45
78 68 48
108 88 58
69 52 41
124 108 66
74 55 43
102 80 52
83 61 43
78 69 50
79 70 51
69 51 45
53 48 43
68 49 42
47 43 38
78 70 39
94 94 34
71 75 30
97 91 33
235 245 66
180 186 54
255 255 79
255 255 88
255 255 103
255 255 129
255 255 117
255 255 114
184 163 93
198 177 99
172 151 86
176 157 90
154 136 81
203 179 103
255 255 255
255 255 255
255 255 255
255 255 255
255 255 255
255 255 255
255 255 255
255 255 255
255 255 255
255 255 255
255 255 255
255 255 255
255 255 255
255 255 255
255 255 255
255 255 255
255 255 255
255 255 255
255 255 255
255 255 255
255 255 255
255 255 255
255 255 255
255 255 255
255 255 255
255 255 255
255 255 255
255 255 255
255 255 255
255 255 255
255 255 255
255 255 255
255 255 255
255 255 255
255 255 255
255 255 255
255 255 255
255 255 255
255 255 255
255 255 255
255 255 255
255 255 255
255 255 255
255 255 255
255 255 255
255 255 255
255 255 255
255 255 255
255 255 255
255 255 255
255 255 255
255 255 255
255 255 255
255 255 255
255 255 255
255 255 255
255 255 255
255 255 255
255 255 255
255 255 255
255 255 255
255 255 255
255 255 255
255 255 255
203 179 103
195 172 100
173 150 89
215 185 107
168 148 87
190 162 95
137 124 75
190 162 95
199 170 99
198 165 97
167 133 81
117 101 63
185 150 88
180 156 90
154 131 75
154 134 77
162 143 82
107 89 55
94 82 52
114 100 61
98 86 56
79 70 52
78 70 51
54 49 45
83 72 53
81 72 54
80 71 53
80 71 53
80 71 53
100 89 61
81 73 55
56 51 47
81 72 54
99 88 60
121 168 52
164 233 60
120 171 47
120 171 47
62 90 30
90 129 38
43 64 26
43 63 26
42 62 26
77 76 48
56 51 47
100 89 61
81 72 54
81 73 55
81 72 54
55 51 46
56 51 47
80 72 54
55 50 46
56 51 47
55 50 46
55 51 46
80 72 53
54 50 46
56 51 47
55 50 46
54 50 45
100 89 60
55 50 46
100 89 61
81 73 54
55 50 46
57 63 48
56 51 46
81 72 54
64 70 46
80 92 72
102 118 93
109 125 96
113 130 98
111 128 96
94 103 77
57 44 35
50 43 35
66 56 46
89 76 63
99 85 70
102 87 71
103 88 71
104 89 72
105 90 72
106 90 72
107 91 73
108 92 73
108 92 73
108 92 73
109 93 73
109 93 74
109 93 74
109 93 74
109 93 74
109 93 74
109 93 74
108 92 73
108 92 73
107 92 73
107 91 73
106 90 72
105 90 72
104 89 72
102 87 71
100 86 70
87 74 61
71 60 49
47 38 29
48 42 35
54 48 43
55 51 46
56 51 47
56 51 47
55 51 46
56 51 47
55 50 46
53 48 44
54 49 45
53 49 45
53 47 44
53 47 44
51 46 42
47 43 39
44 39 37
36 32 29
31 28 26
26 20 20
114 65 41
39 22 23
116 66 43
40 23 25
39 23 24
71 43 28
41 28 28
43 38 36
45 40 37
47 42 39
51 46 43
51 46 43
54 49 45
55 50 46
55 50 46
55 50 46
55 50 46
55 50 46
56 51 47
56 51 47
55 50 46
56 51 47
56 51 47
56 51 47
55 51 47
56 51 47
56 51 47
56 51 46
56 51 47
55 50 46
55 50 46
56 51 47
56 51 47
56 51 46
56 51 47
56 51 47
56 51 47
55 50 46
55 50 46
55 51 47
104 58 64
105 58 64
157 85 75
155 84 73
255 152 108
155 84 69
82 45 49
54 47 43
51 46 42
52 47 43
47 42 38
51 42 39
43 39 36
41 36 33
33 29 26
24 21 19
20 16 14
20 17 15
31 24 17
18 15 13
22 20 17
34 30 28
56 42 26
80 60 37
46 41 37
50 45 41
51 46 41
70 57 43
54 49 45
53 48 44
55 50 45
55 50 46
55 50 46
54 49 45
54 49 45
55 50 45
55 50 46
54 49 45
54 49 45
55 50 46
54 49 45
55 50 46
55 50 46
54 49 45
54 49 45
55 50 46
54 49 45
54 49 45
54 49 45
53 48 45
52 46 43
52 47 43
53 48 44
53 48 44
53 48 43
51 46 42
55 49 44
51 45 42
53 48 44
54 49 45
53 48 44
53 48 43
53 48 44
55 49 45
54 49 44
53 47 43
53 47 43
53 48 44
51 46 42
55 49 45
51 46 42
53 47 43
53 48 44
53 48 44
54 49 45
52 47 43
51 46 42
51 46 42
53 48 43
52 46 42
51 45 41
49 44 40
50 45 41
44 39 36
46 41 38
38 32 29
31 26 24
34 30 27
27 23 22
25 21 20
17 13 12
24 20 18
37 29 26
31 26 25
42 37 34
71 62 42
52 45 41
42 37 34
90 61 44
84 56 37
81 20 14
83 20 14
83 20 14
85 21 15
83 20 14
87 21 15
85 21 14
196 47 22
243 58 26
255 72 31
255 71 31
255 71 31
238 65 38
52 48 43
49 44 40
51 45 41
91 75 50
82 60 43
92 76 52
50 45 41
66 51 40
52 43 38
64 48 36
45 40 36
43 38 34
43 35 32
53 34 19
36 18 16
55 23 20
135 55 32
71 30 23
91 36 24
133 54 30
93 78 46
103 83 51
74 62 41
125 90 57
126 92 58
68 48 41
70 50 44
87 60 45
80 71 53
98 66 47
123 105 64
52 47 41
79 70 52
68 55 44
69 50 43
88 68 50
51 46 42
70 56 41
59 61 29
65 70 28
119 126 38
182 175 50
110 116 39
170 175 50
255 255 76
255 255 93
255 255 121
255 255 108
255 255 96
158 143 78
183 162 93
163 148 81
210 186 106
208 182 103
195 174 100
255 255 255
255 255 255
255 255 255
255 255 255
255 255 255
255 255 255
255 255 255
255 255 255
255 255 255
255 255 255
255 255 255
255 255 255
255 255 255
255 255 255
255 255 255
255 255 255
255 255 255
255 255 255
255 255 255
255 255 255
255 255 255
255 255 255
255 255 255
255 255 255
255 255 255
255 255 255
255 255 255
255 255 255
255 255 255
255 255 255
255 255 255
255 255 255
255 255 255
255 255 255
255 255 255
255 255 255
255 255 255
255 255 255
255 255 255
255 255 255
255 255 255
255 255 255
255 255 255
255 255 255
255 255 255
255 255 255
255 255 255
255 255 255
255 255 255
255 255 255
255 255 255
255 255 255
255 255 255
255 255 255
255 255 255
255 255 255
255 255 255
255 255 255
255 255 255
255 255 255
255 255 255
255 255 255
255 255 255
255 255 252
207 180 103
185 164 96
194 172 100
194 172 100
176 155 92
155 137 83
145 127 77
167 147 87
140 119 74
142 126 77
134 119 74
174 149 88
138 118 73
118 102 64
158 132 79
140 119 73
112 99 62
139 123 73
95 84 54
114 101 63
155 137 81
114 101 65
114 101 64
129 115 72
79 71 52
116 103 66
119 108 67
130 115 72
165 146 87
116 103 67
100 89 61
56 51 47
56 51 47
139 193 58
164 233 60
150 214 56
157 224 58
119 171 46
62 90 30
73 102 32
42 62 26
42 62 25
40 60 25
42 61 27
51 52 42
116 103 67
100 89 61
55 51 46
80 72 53
56 51 47
116 103 67
80 71 53
56 51 47
56 51 47
81 73 54
80 72 53
56 51 47
55 50 46
55 50 46
56 51 47
53 49 45
55 50 46
54 50 45
55 50 46
56 53 47
79 77 53
56 51 47
80 72 53
55 51 46
42 49 39
80 95 73
255 255 196
255 255 199
106 112 82
61 60 44
58 46 36
64 52 42
90 74 61
100 86 70
102 87 71
104 89 71
105 90 72
106 91 72
107 91 73
108 92 73
109 93 74
110 93 74
110 94 74
111 94 74
111 95 74
112 95 75
112 95 75
112 95 75
112 95 75
112 95 75
112 95 75
112 95 75
112 95 75
111 94 74
110 94 74
110 93 74
109 93 74
108 92 73
107 91 73
106 90 72
104 89 72
103 88 71
101 87 71
95 82 67
76 65 53
51 42 30
117 44 33
53 48 43
56 51 47
56 51 47
56 51 47
55 50 46
54 49 45
53 48 45
55 50 46
80 72 53
52 47 43
50 45 42
47 43 39
44 39 36
41 36 34
35 32 30
25 19 18
21 19 18
19 16 15
16 10 11
23 15 15
32 22 22
27 22 21
27 23 22
39 35 32
50 46 38
61 58 39
64 61 41
68 65 42
63 59 41
55 51 44
54 49 45
55 50 46
56 51 47
56 51 47
55 50 46
56 51 47
56 51 47
55 50 46
56 51 47
55 51 46
56 51 47
56 51 47
56 51 47
56 51 47
56 51 47
56 51 47
56 51 47
55 50 46
56 51 46
56 51 47
56 51 47
56 51 47
56 51 47
56 51 47
55 50 46
55 50 46
105 58 65
155 84 73
154 84 73
95 53 58
255 137 97
90 49 54
255 150 104
54 45 42
51 45 41
52 47 43
46 41 38
48 43 39
43 39 35
45 40 37
39 35 32
33 29 26
30 26 23
34 30 27
26 23 20
28 24 21
33 29 26
38 34 30
41 37 33
67 54 40
67 54 40
53 48 44
53 48 43
55 50 45
54 49 44
72 59 46
56 51 47
53 48 44
52 47 43
53 48 44
55 50 45
55 50 46
55 50 46
54 49 45
54 49 45
55 50 46
56 51 47
55 49 45
55 50 46
54 49 45
56 51 46
56 50 46
55 50 46
55 50 46
53 48 44
53 48 44
53 48 44
55 50 46
53 48 44
53 48 44
54 49 44
51 45 41
50 44 40
53 48 44
55 50 45
54 49 45
52 47 43
52 47 43
79 70 52
55 50 45
54 49 45
54 49 44
53 48 44
52 46 42
55 50 45
54 49 45
52 47 44
54 49 45
53 48 44
54 49 45
53 48 43
51 46 42
54 48 44
52 47 43
49 43 39
52 47 43
50 44 40
52 46 42
52 47 43
49 44 40
48 43 39
50 44 41
42 37 34
40 34 31
56 41 33
67 58 37
37 33 30
35 30 27
39 34 31
40 36 33
48 43 40
42 37 33
42 37 34
66 51 40
71 51 40
50 40 36
92 21 15
76 18 13
90 21 14
83 20 14
84 20 14
167 40 20
81 20 14
220 52 24
195 46 22
239 57 25
255 79 34
255 101 42
255 83 42
62 43 39
78 69 50
78 69 51
80 70 50
77 68 48
61 46 40
68 53 41
88 73 48
64 49 37
47 41 38
66 45 39
44 37 33
37 28 24
31 25 23
63 54 32
16 8 8
62 53 29
64 54 31
65 55 33
70 59 37
78 39 29
98 67 43
133 91 56
90 70 50
76 65 46
110 89 59
124 104 66
78 65 52
125 104 67
119 102 65
133 110 66
117 92 60
78 70 51
79 70 51
89 70 51
68 54 43
66 46 39
44 40 36
59 45 32
67 70 28
73 76 27
148 154 46
153 160 46
247 255 68
172 180 47
202 212 56
168 171 54
149 141 65
166 149 79
176 161 84
196 175 98
206 183 102
186 165 94
184 163 94
203 179 103
255 255 176
255 255 255
255 255 255
255 255 255
255 255 255
255 255 255
255 255 255
255 255 255
255 255 255
255 255 255
255 255 255
255 255 255
255 255 255
255 255 255
255 255 255
255 255 255
255 255 255
255 255 255
255 255 255
255 255 255
255 255 255
255 255 255
255 255 255
255 255 255
255 255 255
255 255 255
255 255 255
255 255 255
255 255 255
255 255 255
255 255 255
255 255 255
255 255 255
255 255 255
255 255 255
255 255 255
255 255 255
255 255 255
255 255 255
255 255 255
255 255 255
255 255 255
255 255 255
255 255 255
255 255 255
255 255 255
255 255 255
255 255 255
255 255 255
255 255 255
255 255 255
255 255 255
255 255 255
255 255 255
255 255 255
255 255 255
255 255 255
255 255 255
255 255 255
255 255 255
255 255 255
255 255 255
255 255 255
255 255 147
165 146 87
165 146 87
185 164 96
165 146 87
143 127 78
182 158 93
209 182 105
192 167 97
118 104 67
201 175 101
130 115 72
113 95 62
133 118 72
139 119 73
154 135 80
111 93 61
129 114 70
124 105 64
116 103 66
114 101 65
125 109 68
79 70 52
99 88 60
80 72 54
81 72 54
116 103 67
129 114 71
81 72 54
116 103 66
100 89 61
99 89 60
54 50 45
109 110 62
157 224 58
157 226 58
143 204 54
111 159 44
100 143 40
89 127 37
62 90 30
61 89 30
40 59 24
55 78 27
40 59 24
46 88 30
56 51 47
80 72 53
80 71 53
56 51 47
80 71 53
55 50 46
81 73 54
56 51 47
55 51 46
81 73 55
86 80 54
81 73 55
54 50 46
55 50 46
55 50 46
80 72 54
81 78 55
76 129 58
75 140 60
74 140 59
52 99 51
51 94 50
53 86 50
98 96 60
77 87 53
255 255 139
255 255 255
255 255 175
83 74 34
66 55 41
85 73 60
100 86 70
102 87 71
104 89 71
105 90 72
106 91 72
108 92 73
109 93 74
110 93 74
111 94 74
112 95 75
112 95 75
113 96 75
114 96 75
114 96 75
114 97 76
114 97 76
114 97 76
114 97 76
115 97 76
114 97 76
114 97 76
114 97 75
114 96 75
113 96 75
113 96 75
112 95 75
111 94 74
110 94 74
109 93 74
108 92 73
106 91 73
105 90 72
103 88 71
101 86 70
91 78 64
66 56 46
57 46 33
59 39 32
53 48 44
55 50 46
56 51 47
63 58 47
79 71 52
80 71 53
54 49 45
52 47 43
52 47 43
51 46 43
49 44 41
62 47 40
43 38 36
36 30 28
34 31 28
28 25 23
23 20 19
24 20 19
24 20 19
30 26 25
37 33 28
61 58 35
76 74 40
76 74 40
76 74 39
77 74 40
77 75 40
76 74 40
69 65 42
57 53 46
55 50 46
55 50 46
55 50 46
56 51 47
56 51 47
56 51 47
56 51 47
54 49 45
56 51 47
56 51 47
55 50 46
56 51 47
55 50 46
56 51 46
56 51 47
55 50 46
56 51 47
56 51 47
56 51 47
55 50 46
81 73 55
56 51 47
55 51 47
55 50 46
101 56 63
90 50 56
96 53 59
193 104 81
221 119 84
142 76 62
183 98 71
48 41 38
48 44 40
49 45 41
47 42 38
50 45 41
44 40 36
43 38 35
62 45 38
43 38 35
42 36 32
41 37 33
41 37 34
47 42 38
42 37 33
60 45 39
49 44 39
67 53 39
51 46 42
52 46 42
54 49 45
53 48 44
74 62 45
55 50 45
55 50 46
53 49 45
56 51 47
55 50 46
54 49 45
56 51 47
56 51 46
55 50 46
56 51 47
56 51 47
55 50 46
55 50 46
55 50 46
54 49 45
55 50 46
55 50 46
56 51 47
54 49 45
56 51 47
55 50 46
55 50 46
54 49 45
54 49 45
56 51 47
54 49 45
63 50 46
55 50 46
53 48 44
53 48 44
56 51 47
55 50 46
54 49 45
52 46 42
54 49 45
55 50 46
55 50 46
55 50 45
51 46 42
52 47 43
52 47 43
53 48 44
64 61 45
52 47 43
53 48 44
52 47 43
54 49 45
62 49 44
55 49 45
54 48 44
52 47 43
53 49 45
54 49 45
53 48 44
50 44 41
49 43 40
48 43 40
49 44 41
45 39 36
47 41 37
46 41 37
44 39 36
50 42 37
45 39 36
47 41 38
71 51 41
46 40 36
50 45 41
65 48 36
50 44 40
57 45 38
100 27 16
74 18 13
71 17 12
72 17 12
73 18 12
72 17 12
73 18 13
83 20 13
191 46 21
255 67 29
255 66 28
255 70 29
85 45 31
100 84 54
76 66 47
48 43 39
52 47 43
71 57 46
50 45 41
85 67 47
79 70 50
106 88 54
93 66 42
67 52 41
106 77 46
63 48 36
42 33 29
91 80 49
38 25 22
78 60 38
88 78 46
41 32 29
121 98 59
71 62 42
112 97 59
90 70 49
115 101 64
91 72 52
129 94 61
99 88 60
79 71 52
80 71 53
93 77 54
55 50 46
109 92 59
54 49 45
101 77 51
78 70 50
67 53 41
76 68 48
41 38 34
42 38 31
29 27 23
31 33 16
78 83 25
167 153 44
122 103 33
175 171 68
102 95 44
167 150 78
155 140 73
133 125 61
140 129 69
209 190 99
170 153 85
194 174 96
227 201 113
221 199 108
226 202 111
255 255 255
255 255 255
255 255 255
255 255 255
255 255 255
255 255 255
255 255 255
255 255 255
255 255 255
255 255 255
255 255 255
255 255 255
255 255 255
255 255 255
255 255 255
255 255 255
255 255 255
255 255 255
255 255 255
255 255 255
255 255 255
255 255 255
255 255 255
255 255 255
255 255 255
255 255 255
255 255 255
255 255 255
255 255 255
255 255 255
255 255 255
255 255 255
255 255 255
255 255 255
255 255 255
255 255 255
255 255 255
255 255 255
255 255 255
255 255 255
255 255 255
255 255 255
255 255 255
255 255 255
255 255 255
255 255 255
255 255 255
255 255 255
255 255 255
255 255 255
255 255 255
255 255 255
255 255 255
255 255 255
255 255 255
255 255 255
255 255 255
255 255 255
255 255 255
255 255 255
255 255 255
255 255 255
235 207 118
194 172 100
185 164 96
185 164 96
194 171 99
186 164 96
185 164 96
185 164 96
175 155 91
176 155 92
203 179 103
195 172 100
153 135 81
144 127 78
160 134 82
142 126 77
130 116 72
130 115 72
115 102 65
114 101 64
154 136 82
144 127 78
175 154 91
115 103 66
130 115 72
79 71 52
129 114 71
100 89 61
130 115 72
116 103 67
100 89 60
100 89 61
100 89 60
152 192 70
178 254 65
198 255 71
165 233 60
119 170 46
100 143 40
99 143 39
60 86 28
38 56 23
38 57 23
39 58 24
35 52 22
36 54 22
54 50 45
55 50 46
100 89 61
81 73 54
80 72 54
80 72 53
116 103 67
55 51 46
56 51 47
81 73 54
56 51 47
56 51 47
56 51 47
55 50 46
56 51 47
53 60 46
120 220 78
74 139 59
74 140 59
52 99 51
51 98 51
51 98 51
68 124 54
51 97 50
64 82 50
77 84 33
49 42 28
59 45 34
71 60 50
97 84 69
101 87 70
103 88 71
105 89 72
106 91 73
108 92 73
109 93 74
110 94 74
111 95 74
112 95 75
113 96 75
114 96 75
114 97 76
115 98 76
115 98 76
116 98 76
116 98 76
116 99 76
116 99 76
117 99 76
117 99 77
117 99 76
116 98 76
116 98 76
116 98 76
115 98 76
115 97 76
114 97 76
113 96 75
112 95 75
112 95 75
111 94 74
109 93 74
108 92 73
106 91 73
105 89 72
103 88 71
100 86 70
85 73 60
52 46 36
50 36 28
54 45 41
55 50 46
56 51 47
55 50 46
55 50 46
55 50 46
53 48 44
68 54 47
56 49 45
51 46 42
75 66 47
49 44 40
44 39 36
42 38 35
41 37 34
39 35 33
37 33 31
41 37 34
39 35 31
105 99 43
73 70 38
75 73 39
75 72 39
76 74 39
76 74 39
77 75 40
76 73 39
76 73 39
71 68 40
55 51 45
55 50 46
54 49 46
54 50 46
56 51 47
55 50 46
55 49 46
55 50 46
56 51 47
56 51 47
56 51 47
56 51 47
56 51 47
56 51 47
56 51 47
55 50 46
56 51 47
55 50 46
55 50 46
56 51 47
55 50 46
55 50 46
55 51 47
56 51 47
91 51 57
82 46 51
86 48 53
82 46 49
192 102 79
138 74 58
133 73 56
52 48 44
45 40 36
49 43 40
48 43 40
64 47 40
50 44 41
50 45 41
45 41 37
44 39 35
45 40 36
51 47 42
45 41 37
68 55 41
51 46 42
51 47 43
51 46 42
52 47 42
72 59 44
65 66 41
80 86 39
86 93 39
86 94 39
85 93 39
80 86 41
70 73 42
56 51 46
54 49 45
56 51 47
55 50 46
55 50 46
56 51 47
56 51 47
55 50 46
55 50 46
56 50 46
55 50 46
55 50 46
81 72 54
54 49 45
56 51 47
56 51 46
55 50 46
55 50 45
55 50 46
54 49 45
56 51 46
56 50 46
53 49 45
55 50 45
54 49 45
54 49 45
53 48 44
56 51 46
54 49 45
53 48 44
80 71 53
55 49 45
55 50 46
54 49 44
54 47 42
54 49 45
54 48 44
81 72 54
54 48 44
55 49 45
54 47 43
54 49 45
53 48 44
51 46 41
61 48 43
80 71 53
54 48 44
54 49 45
64 51 46
52 46 42
50 45 41
51 46 42
53 47 43
50 44 40
48 43 39
49 44 40
49 44 41
51 46 42
51 46 42
50 45 41
52 47 43
50 45 41
49 44 40
52 46 42
49 44 40
68 47 36
72 52 42
51 46 42
51 38 35
61 15 11
68 16 12
71 16 11
65 16 11
123 29 16
122 29 15
61 15 11
199 45 20
255 61 26
255 71 30
255 63 30
73 64 44
114 91 53
85 68 48
49 43 39
87 69 48
69 53 42
99 88 59
48 43 39
115 101 64
107 89 56
79 70 51
77 51 38
65 50 38
111 97 59
42 37 34
77 65 44
43 37 35
71 63 43
115 99 61
44 38 35
99 85 56
111 94 61
79 68 49
130 103 63
80 70 51
103 74 51
127 93 61
100 89 61
110 91 61
137 118 71
55 50 45
83 53 46
103 88 59
154 136 81
70 51 42
128 114 70
114 101 63
114 101 63
106 86 55
77 69 46
73 67 41
57 36 23
33 33 17
63 57 31
86 77 42
112 102 53
152 136 73
125 111 64
195 178 92
213 187 104
168 153 82
215 192 106
189 168 95
182 164 91
209 190 100
192 173 96
230 204 114
255 255 174
255 255 255
255 255 255
255 255 255
255 255 255
255 255 255
255 255 255
255 255 255
255 255 255
255 255 255
255 255 255
255 255 255
255 255 255
255 255 255
255 255 255
255 255 255
255 255 255
255 255 255
255 255 255
255 255 255
255 255 255
255 255 255
255 255 255
255 255 255
255 255 255
255 255 255
255 255 255
255 255 255
255 255 255
255 255 255
255 255 255
255 255 255
255 255 255
255 255 255
255 255 255
255 255 255
255 255 255
255 255 255
255 255 255
255 255 255
255 255 255
255 255 255
255 255 255
255 255 255
255 255 255
255 255 255
255 255 255
255 255 255
255 255 255
255 255 255
255 255 255
255 255 255
255 255 255
255 255 255
255 255 255
255 255 255
255 255 255
255 255 255
255 255 255
255 255 255
255 255 255
255 255 193
227 201 114
219 194 111
175 155 91
219 194 111
165 146 87
233 203 116
211 187 107
154 137 82
195 172 100
163 141 85
173 150 89
130 115 72
163 141 84
153 131 80
175 155 91
151 130 78
130 115 73
116 103 67
129 114 71
143 126 78
116 103 67
130 115 72
117 103 66
99 88 60
154 136 82
100 90 59
99 88 60
140 120 75
55 50 46
100 89 60
99 88 60
115 102 66
117 110 67
138 193 56
214 255 76
150 213 55
142 203 53
74 107 31
99 142 40
75 108 32
58 84 27
66 91 28
44 55 22
40 58 23
36 53 22
40 74 24
77 71 49
54 49 45
81 73 54
80 72 53
80 72 54
81 72 54
80 72 54
56 51 47
55 50 46
81 72 54
55 50 46
54 50 46
55 50 46
81 72 54
55 56 47
141 255 88
142 255 90
107 199 73
107 199 73
93 173 67
74 140 59
51 98 51
51 97 50
49 94 49
51 65 35
57 46 29
59 51 38
83 71 58
100 86 70
102 87 71
104 89 72
106 90 72
107 91 73
109 93 73
110 93 74
111 94 74
112 95 75
113 96 75
114 97 76
115 97 76
116 98 76
116 98 76
117 99 77
117 99 77
118 100 77
118 100 77
118 100 77
118 100 77
118 100 77
118 100 77
118 100 77
118 100 77
118 100 77
117 99 77
117 99 77
117 99 77
116 98 76
115 98 76
115 97 76
114 96 75
113 96 75
112 95 75
111 94 74
109 93 74
108 92 73
106 90 72
104 89 72
102 87 71
97 83 68
69 60 49
49 46 36
64 47 39
55 50 46
54 49 45
56 51 47
54 49 45
54 49 45
54 50 46
51 46 42
61 56 45
52 47 43
65 51 44
51 46 42
46 42 39
51 46 42
49 45 41
49 44 41
47 42 39
103 97 42
123 108 43
128 119 48
108 103 44
158 149 56
77 74 40
75 72 39
75 72 39
76 74 40
74 72 39
74 72 39
64 62 40
55 50 46
55 50 46
81 72 54
55 50 46
56 51 47
56 51 47
55 50 46
55 50 46
56 51 47
55 50 46
56 51 47
56 51 46
56 51 47
55 50 46
56 51 47
55 50 46
56 51 47
56 51 47
56 51 47
56 51 47
56 51 47
56 51 47
56 51 47
86 48 54
76 42 47
77 43 47
68 38 41
182 98 72
214 115 78
177 98 69
45 40 37
48 42 39
61 46 40
51 46 42
54 48 44
49 44 40
52 47 43
51 47 43
49 44 40
53 48 44
51 46 42
50 45 41
51 46 42
49 44 40
53 48 44
53 48 44
58 55 43
82 88 39
87 94 39
88 96 40
88 96 40
88 96 40
86 94 39
126 135 46
85 92 38
149 157 49
56 52 44
56 51 47
55 50 46
54 49 45
56 51 46
65 62 47
56 51 47
56 50 46
55 50 46
55 50 46
54 49 45
55 50 46
54 49 45
54 49 45
54 49 45
56 51 46
56 51 47
54 49 45
55 51 46
80 72 53
56 50 46
55 50 46
55 50 46
54 49 45
80 72 53
80 71 53
54 49 45
54 49 45
55 50 46
51 46 42
55 50 46
54 48 44
54 49 45
87 75 53
53 48 44
53 48 43
56 50 46
54 49 45
53 47 43
79 70 51
54 49 45
54 49 45
53 48 44
54 49 45
71 57 46
80 71 53
54 49 45
54 49 45
54 50 46
55 50 46
52 47 43
53 48 44
55 49 45
54 49 45
56 51 46
53 48 44
52 46 42
53 48 44
54 48 44
50 45 41
53 48 44
51 45 41
51 45 42
66 51 39
50 43 39
48 43 39
45 39 35
44 38 34
46 18 15
67 16 10
60 15 10
59 14 10
71 17 11
127 30 15
61 15 11
192 45 21
236 56 24
185 44 19
130 47 27
82 63 43
72 63 43
78 51 39
79 69 50
78 68 50
64 46 41
99 88 59
70 55 44
54 48 44
89 69 48
68 53 42
70 56 45
86 68 48
78 69 51
96 85 56
87 69 50
77 68 49
96 84 55
96 85 56
118 91 60
92 73 53
98 87 58
103 75 53
146 118 73
94 74 54
121 93 62
116 103 66
56 51 47
55 49 45
105 77 56
187 157 92
124 106 67
137 118 71
133 117 71
142 126 76
115 102 66
98 87 59
140 124 74
127 113 69
47 43 36
111 99 58
112 100 59
97 87 50
93 84 48
157 141 76
113 102 58
174 155 85
167 149 82
180 161 89
241 216 118
148 134 76
227 201 114
238 211 117
174 157 87
207 185 104
255 235 130
245 217 121
235 208 117
255 255 255
255 255 255
255 255 255
255 255 255
255 255 255
255 255 255
255 255 255
255 255 255
255 255 255
255 255 255
255 255 255
255 255 255
255 255 255
255 255 255
255 255 255
255 255 255
255 255 255
255 255 255
255 255 255
255 255 255
255 255 255
255 255 255
255 255 255
255 255 255
255 255 255
255 255 255
255 255 255
255 255 255
255 255 255
255 255 255
255 255 255
255 255 255
255 255 255
255 255 255
255 255 255
255 255 255
255 255 255
255 255 255
255 255 255
255 255 255
255 255 255
255 255 255
255 255 255
255 255 255
255 255 255
255 255 255
255 255 255
255 255 255
255 255 255
255 255 255
255 255 255
255 255 255
255 255 255
255 255 255
255 255 255
255 255 255
255 255 255
255 255 255
255 255 255
255 255 255
249 220 124
155 137 83
255 232 130
227 201 114
219 194 111
219 194 111
165 146 87
155 137 83
235 207 117
176 155 92
154 137 83
189 162 95
155 137 83
194 171 99
149 124 77
130 115 72
143 127 78
176 155 92
143 127 78
116 103 67
102 90 61
142 126 77
154 136 82
143 127 78
81 72 54
116 103 67
142 126 77
130 115 72
84 80 54
116 103 67
115 102 65
60 62 46
116 105 65
80 71 53
167 222 66
181 255 65
143 204 52
156 222 57
118 168 44
126 180 47
87 125 35
35 51 21
54 75 25
34 50 21
54 86 25
35 51 21
35 68 21
50 68 40
100 89 61
55 51 46
55 50 46
55 50 46
55 50 46
55 50 46
55 51 46
100 89 61
55 50 46
54 50 45
81 72 54
55 51 46
55 50 46
119 217 76
142 251 86
108 201 73
107 199 73
107 198 72
91 171 65
50 95 50
50 95 49
49 86 44
118 128 34
117 65 40
83 95 49
92 79 65
100 86 70
103 88 71
104 89 72
106 91 72
108 92 73
109 93 74
111 94 74
112 95 75
113 96 75
114 97 75
115 98 76
116 98 76
116 99 76
117 99 77
118 100 77
118 100 77
119 100 77
119 101 78
119 101 78
120 101 78
120 101 78
120 101 78
120 101 78
120 101 78
120 101 78
119 101 78
119 101 78
119 100 77
118 100 77
118 100 77
117 99 77
116 99 76
116 98 76
115 97 76
114 96 75
113 96 75
111 95 74
110 94 74
108 92 73
107 91 73
105 89 72
103 88 71
100 86 70
73 63 52
46 43 34
49 42 36
55 49 45
80 72 54
53 48 44
81 64 51
55 50 46
54 49 45
53 48 44
51 46 42
51 47 43
51 46 43
51 46 42
51 47 43
49 44 40
52 48 43
97 91 45
174 163 58
157 148 55
132 124 48
71 68 36
70 68 37
75 72 39
111 105 45
75 73 39
73 70 38
72 70 38
72 70 38
69 68 36
59 55 46
55 50 46
55 50 46
56 51 47
55 50 46
55 50 46
56 51 47
56 51 47
56 51 47
55 50 46
56 51 47
56 51 47
56 51 47
55 50 46
56 51 47
55 50 46
56 51 47
56 51 47
55 50 46
56 51 47
55 50 46
56 51 47
55 50 46
66 37 42
75 40 45
138 74 59
217 117 82
54 30 34
38 26 27
42 37 35
62 45 39
64 46 40
65 46 40
46 41 37
49 44 40
70 53 47
50 45 41
61 49 45
54 49 44
53 47 43
53 48 43
54 49 45
55 50 46
53 48 43
53 47 43
55 51 44
80 86 39
86 93 39
86 94 39
87 94 40
86 94 39
87 95 39
83 91 38
125 133 45
82 89 37
202 213 60
149 157 49
100 77 52
56 50 46
55 50 46
55 50 46
55 50 46
100 89 61
55 50 46
55 50 46
54 49 45
55 50 46
54 49 45
54 49 45
55 50 46
55 50 46
55 50 46
53 48 44
80 72 53
56 50 46
56 51 47
55 50 46
54 49 45
53 48 44
54 49 45
54 49 45
53 48 45
54 49 45
80 72 53
55 50 46
54 49 44
54 49 45
55 50 46
54 49 45
53 48 44
55 50 46
54 49 45
54 49 45
53 49 45
54 49 45
55 49 45
80 71 53
80 71 52
80 71 53
54 48 44
50 45 41
54 49 45
53 48 44
53 48 44
55 49 45
55 50 46
55 50 46
80 71 52
54 48 44
53 48 45
53 47 43
54 49 45
51 46 42
53 48 43
53 48 44
53 47 43
52 46 42
51 45 41
52 46 42
54 48 44
45 39 35
48 43 39
74 51 39
45 40 36
43 34 31
46 19 16
46 11 8
51 12 9
54 13 10
65 15 10
48 11 8
52 12 9
107 26 13
75 29 24
38 34 31
71 61 41
88 49 36
83 46 40
99 87 58
90 73 49
105 86 56
120 101 64
114 101 64
84 62 45
90 75 51
82 71 51
129 114 70
91 75 51
83 70 51
86 69 49
99 88 59
79 71 52
104 79 54
137 115 71
70 50 44
99 88 60
92 74 54
99 88 59
125 104 67
110 90 61
130 115 72
125 105 68
130 116 73
116 103 67
109 92 60
132 107 66
100 89 60
153 130 78
138 119 72
79 71 53
116 103 65
129 115 70
144 128 77
141 125 75
100 90 57
132 107 65
141 125 74
142 126 75
154 137 79
141 125 73
195 173 97
175 155 89
174 154 89
171 154 86
192 172 95
212 191 101
244 219 118
206 183 103
237 211 117
230 204 115
235 208 117
255 249 139
232 206 112
255 255 166
255 255 255
255 255 255
255 255 255
255 255 255
255 255 255
255 255 255
255 255 255
255 255 255
255 255 255
255 255 255
255 255 255
255 255 255
255 255 255
255 255 255
255 255 255
255 255 255
255 255 255
255 255 255
255 255 255
255 255 255
255 255 255
255 255 255
255 255 255
255 255 255
255 255 255
255 255 255
255 255 255
255 255 255
255 255 255
255 255 255
255 255 255
255 255 255
255 255 255
255 255 255
255 255 255
255 255 255
255 255 255
255 255 255
255 255 255
255 255 255
255 255 255
255 255 255
255 255 255
255 255 255
255 255 255
255 255 255
255 255 255
255 255 255
255 255 255
255 255 255
255 255 255
255 255 255
255 255 255
255 255 255
255 255 255
255 255 255
255 255 255
255 255 255
255 255 149
203 179 103
249 220 124
249 220 124
235 207 118
203 179 104
219 194 111
185 164 96
204 180 104
211 187 107
219 194 111
194 172 100
169 148 87
143 127 78
176 156 92
143 126 78
126 107 68
175 155 91
176 155 92
154 137 83
130 115 72
144 129 78
100 89 61
116 103 67
145 132 61
123 111 63
178 166 45
167 153 59
167 157 34
86 78 50
116 103 66
58 56 47
79 70 52
118 108 66
99 88 59
158 212 64
197 255 70
172 241 61
107 153 40
86 125 33
57 82 25
97 135 37
34 49 20
35 54 20
35 66 20
65 88 26
34 65 19
40 42 16
53 50 44
54 50 45
55 50 46
56 51 46
54 49 45
54 50 46
56 51 47
80 72 54
54 49 45
55 50 46
54 53 45
72 72 53
54 50 45
93 153 63
171 255 103
170 255 103
130 242 82
101 185 67
66 120 52
47 90 47
47 89 46
45 80 43
75 79 29
95 60 42
59 47 39
96 83 68
101 86 70
103 88 71
105 89 72
107 91 73
108 92 73
110 93 74
111 94 74
112 95 75
113 96 75
115 97 76
115 98 76
116 99 76
117 99 77
118 100 77
118 100 77
119 101 77
120 101 78
120 101 78
120 102 78
121 102 78
121 102 78
121 102 78
121 102 78
121 102 78
121 102 78
121 102 78
121 102 78
120 102 78
120 101 78
120 101 78
119 101 78
119 100 77
118 100 77
117 99 77
116 99 76
115 98 76
115 97 76
113 96 75
112 95 75
111 94 74
109 93 73
108 92 73
105 90 72
103 88 71
101 86 70
86 74 61
44 41 34
56 35 36
58 49 45
55 50 46
54 49 45
55 50 46
56 51 47
54 49 45
70 56 49
54 49 45
54 49 45
52 47 43
52 47 43
52 47 44
52 47 43
97 92 43
206 193 65
95 85 37
176 166 59
66 63 34
133 125 48
69 67 36
73 70 38
72 70 37
71 69 37
72 70 38
73 70 38
88 81 38
62 59 40
55 50 46
54 49 45
56 51 47
56 51 47
55 50 46
55 51 46
81 73 55
55 50 46
56 51 47
56 51 47
55 50 47
55 51 46
56 51 47
56 51 47
56 51 47
55 50 46
55 50 46
56 51 47
56 51 47
55 50 47
56 51 47
56 51 47
61 34 39
54 29 33
53 29 34
51 28 33
30 18 20
30 26 25
36 29 28
43 38 36
47 42 38
48 43 39
47 42 38
54 49 45
53 47 43
54 49 45
53 48 43
53 48 43
54 49 45
54 48 44
55 50 46
54 49 45
54 49 45
55 50 46
73 77 42
84 91 38
86 92 38
90 90 39
97 89 40
98 85 39
95 89 39
94 86 39
85 91 38
124 132 45
82 89 38
150 159 47
146 153 51
100 89 61
54 49 45
55 50 46
53 48 44
54 50 45
56 51 47
55 50 46
56 51 47
55 50 46
54 49 45
54 49 45
55 50 46
56 51 47
54 49 44
55 50 45
55 50 46
56 51 46
55 50 46
56 51 47
55 51 46
54 49 45
55 50 46
55 50 46
55 50 46
56 51 46
56 51 46
55 50 45
54 48 44
54 49 45
55 50 45
54 49 45
55 50 45
54 49 45
53 48 44
53 48 44
55 50 46
53 48 44
55 49 45
54 49 44
54 49 45
79 71 52
54 49 44
55 50 46
55 50 45
54 49 45
55 50 45
53 48 44
55 50 46
64 49 44
53 48 44
55 50 46
53 48 43
55 50 46
53 48 44
54 49 44
53 48 44
54 49 45
54 49 45
53 48 44
51 45 41
51 45 42
52 47 43
48 43 40
47 41 38
46 41 38
42 37 34
40 34 31
33 29 27
40 22 20
36 13 11
34 12 11
55 15 10
42 10 8
28 11 10
20 17 16
35 29 26
37 33 30
72 39 34
62 43 38
75 46 39
77 68 49
90 74 50
70 56 45
92 76 53
66 49 44
73 49 44
54 49 44
92 76 53
109 92 60
100 88 59
99 88 60
98 87 58
81 72 54
129 114 71
80 71 53
82 72 53
99 88 59
55 50 46
130 115 72
81 72 54
100 89 61
110 90 61
116 103 67
55 50 45
116 103 67
100 89 61
55 50 46
142 126 77
115 102 66
138 119 73
154 137 82
130 116 71
80 72 54
129 115 70
115 102 65
130 116 71
227 201 114
143 127 76
203 180 102
194 172 97
193 171 98
177 161 87
175 155 90
159 143 81
183 165 92
226 202 111
177 157 87
210 188 104
206 184 104
238 211 118
249 220 124
242 213 121
255 238 133
213 192 105
215 191 108
249 220 124
255 255 255
255 255 255
255 255 255
255 255 255
255 255 255
255 255 255
255 255 255
255 255 255
255 255 255
255 255 255
255 255 255
255 255 255
255 255 255
255 255 255
255 255 255
255 255 255
255 255 255
255 255 255
255 255 255
255 255 255
255 255 255
255 255 255
255 255 255
255 255 255
255 255 255
255 255 255
255 255 255
255 255 255
255 255 255
255 255 255
255 255 255
255 255 255
255 255 255
255 255 255
255 255 255
255 255 255
255 255 255
255 255 255
255 255 255
255 255 255
255 255 255
255 255 255
255 255 255
255 255 255
255 255 255
255 255 255
255 255 255
255 255 255
255 255 255
255 255 255
255 255 255
255 255 255
255 255 255
255 255 255
255 255 255
255 255 255
255 255 255
255 255 255
255 232 130
242 214 121
255 226 127
255 232 130
225 197 112
185 164 96
227 201 114
203 179 103
242 214 121
175 155 92
176 155 92
175 155 91
179 157 91
211 186 107
143 126 78
143 127 78
131 116 72
185 163 96
116 103 67
185 163 95
143 126 77
130 116 72
100 89 61
255 241 61
255 255 42
255 255 36
231 217 25
206 194 23
99 96 16
98 95 16
88 85 26
119 107 63
99 88 60
128 114 70
113 101 63
66 81 40
163 232 58
155 221 56
117 166 42
74 104 29
85 122 33
30 44 18
32 46 19
49 68 22
30 44 18
64 86 25
45 62 18
34 45 24
52 48 44
53 49 44
55 50 46
53 48 44
55 50 46
56 51 47
53 49 45
55 50 46
56 51 47
54 49 45
55 50 46
55 50 46
55 51 46
105 183 66
161 255 97
141 255 87
72 135 54
106 197 71
110 199 68
106 197 70
70 126 51
48 38 30
56 43 33
70 54 42
93 81 66
101 86 70
103 88 71
105 90 72
107 91 73
108 92 73
110 93 74
111 94 74
112 95 75
114 96 75
115 97 76
116 98 76
117 99 77
118 100 77
118 100 77
119 101 78
120 101 78
120 102 78
121 102 78
121 102 78
121 103 78
122 103 79
122 103 79
122 103 79
122 103 79
122 103 79
122 103 79
122 103 79
122 103 79
122 103 79
121 102 78
121 102 78
120 102 78
120 101 78
119 101 78
119 100 77
118 100 77
117 99 77
116 98 76
115 97 76
114 96 75
112 95 75
111 94 74
109 93 74
108 92 73
106 90 72
103 88 71
101 86 70
90 77 63
49 39 37
106 61 43
58 48 44
54 49 45
55 50 46
55 50 46
55 50 46
56 51 47
55 50 46
55 50 46
56 51 47
52 47 43
54 49 45
50 46 42
114 106 50
209 195 66
65 62 32
155 145 53
131 123 47
65 63 34
68 66 35
70 67 36
70 68 37
66 64 34
68 65 35
69 67 36
65 63 35
60 57 39
81 73 54
54 49 45
56 51 47
55 50 46
55 50 46
56 51 47
54 50 46
81 73 54
55 50 46
55 50 46
56 51 46
56 51 47
55 50 46
56 51 47
56 51 47
56 51 47
56 51 47
56 51 47
55 50 46
56 51 47
56 51 46
56 51 47
41 22 26
41 23 27
27 15 18
16 11 12
17 13 13
30 26 25
35 31 29
80 54 45
43 38 35
51 46 42
69 52 46
51 46 42
53 48 44
73 55 48
53 48 44
55 49 45
54 49 45
72 59 46
55 50 46
55 50 46
55 50 46
57 52 47
78 84 37
84 87 37
99 85 40
106 84 41
106 84 41
106 84 41
106 84 41
105 82 40
101 80 39
159 160 50
178 188 54
220 232 64
148 155 48
54 49 45
55 50 46
53 49 44
55 50 46
55 50 46
54 49 45
56 51 46
55 50 46
56 51 47
54 49 45
55 50 46
81 73 54
55 50 46
55 50 46
56 51 47
55 50 46
55 50 46
60 55 44
71 66 43
74 69 44
66 60 43
55 50 46
55 50 46
56 51 46
55 50 46
54 49 45
55 50 45
55 50 46
55 50 45
55 49 45
54 49 45
56 51 46
80 71 53
56 51 46
69 63 45
53 48 44
53 48 43
54 49 45
55 50 46
55 49 45
54 49 45
80 71 52
54 49 45
80 71 53
78 69 50
54 49 44
55 50 45
53 48 44
69 55 44
54 49 45
55 50 46
52 47 43
58 51 46
55 50 46
53 48 44
55 50 46
54 49 45
80 71 53
51 46 42
53 47 43
52 46 42
52 47 43
49 44 40
46 41 38
45 40 36
46 40 37
47 30 27
39 32 27
33 29 27
25 21 19
24 21 19
65 55 33
30 23 21
68 58 37
28 24 22
69 61 40
99 65 43
52 45 41
77 53 41
53 43 40
88 71 52
78 69 50
112 76 50
102 81 52
52 48 44
109 93 60
100 89 61
110 93 61
54 49 45
70 56 45
53 47 43
92 77 53
70 55 44
124 106 67
80 72 54
80 71 53
124 104 67
92 77 54
130 104 66
112 91 61
154 137 82
116 103 67
80 72 54
100 89 61
115 102 65
130 115 72
130 114 71
130 115 72
100 89 61
114 98 65
80 72 53
154 137 82
165 146 86
100 89 60
190 166 95
129 114 71
130 116 72
114 102 65
116 103 66
150 128 78
134 120 70
163 147 83
184 163 95
212 187 107
179 160 92
180 161 91
175 155 91
227 200 114
206 184 104
198 176 100
207 183 104
198 176 100
255 254 142
255 243 136
234 207 117
255 248 139
219 194 111
255 255 255
255 255 255
255 255 255
255 255 255
255 255 255
255 255 255
255 255 255
255 255 255
255 255 255
255 255 255
255 255 255
255 255 255
255 255 255
255 255 255
255 255 255
255 255 255
255 255 255
255 255 255
255 255 255
255 255 255
255 255 255
255 255 255
255 255 255
255 255 255
255 255 255
255 255 255
255 255 255
255 255 255
255 255 255
255 255 255
255 255 255
255 255 255
255 255 255
255 255 255
255 255 255
255 255 255
255 255 255
255 255 255
255 255 255
255 255 255
255 255 255
255 255 255
255 255 255
255 255 255
255 255 255
255 255 255
255 255 255
255 255 255
255 255 255
255 255 255
255 255 255
255 255 255
255 255 255
255 255 255
255 255 255
255 255 255
255 229 127
249 220 124
254 222 125
235 207 118
219 194 111
143 127 78
227 200 114
219 194 111
203 179 103
185 164 96
185 163 96
176 156 91
219 194 111
185 164 96
185 164 96
130 115 73
161 140 83
165 146 87
165 146 87
166 148 87
170 151 87
185 164 96
88 76 54
255 255 47
255 255 43
255 255 41
255 255 40
231 216 25
177 166 21
98 95 16
167 154 20
130 119 17
94 90 18
133 119 66
114 103 62
53 53 42
129 118 69
103 107 52
86 124 31
88 128 32
84 120 31
30 44 18
56 80 24
52 75 22
25 36 15
50 70 22
25 36 15
30 45 17
47 64 37
51 47 43
53 48 44
52 47 43
59 64 48
51 47 43
55 50 46
52 48 43
54 49 45
54 49 45
53 49 45
55 50 46
54 50 45
53 49 44
51 69 43
151 255 91
177 255 105
130 241 81
72 131 54
84 129 52
70 122 49
47 41 31
72 58 35
59 51 39
93 80 66
101 86 70
103 88 71
105 89 72
107 91 73
108 92 73
110 93 74
111 95 74
112 95 75
114 96 75
115 97 76
116 98 76
117 99 77
118 100 77
119 100 77
119 101 78
120 101 78
121 102 78
121 102 78
122 103 79
122 103 79
122 103 79
123 103 79
123 104 79
123 104 79
123 104 79
123 104 79
123 104 79
123 104 79
123 104 79
123 103 79
122 103 79
122 103 79
121 103 78
121 102 78
120 102 78
120 101 78
119 101 78
118 100 77
117 99 77
116 98 76
115 98 76
114 97 76
113 96 75
111 95 74
110 93 74
108 92 73
106 90 72
103 88 71
101 86 70
89 76 63
46 39 31
49 43 31
51 46 42
55 50 46
63 58 47
54 49 45
52 47 44
53 48 44
53 48 44
54 49 45
53 48 44
52 48 43
52 47 43
50 48 32
127 120 45
151 142 50
152 143 51
65 62 33
57 54 29
65 62 33
103 97 40
62 59 32
65 63 34
65 62 34
64 62 33
85 78 36
59 56 38
54 49 45
55 50 46
55 50 46
56 51 47
55 50 46
54 50 45
56 51 47
55 50 46
54 49 45
56 51 47
56 51 47
56 51 47
56 51 47
55 50 46
56 51 47
56 51 47
56 51 47
56 51 47
55 50 46
56 51 47
56 50 46
56 51 47
15 12 12
18 16 15
17 13 13
31 27 26
28 24 23
39 32 30
39 32 30
43 38 35
47 42 39
52 47 43
54 49 45
52 47 43
53 48 44
53 48 44
71 55 48
54 49 44
80 71 53
72 56 49
56 50 46
53 48 44
56 50 46
59 57 44
76 76 33
101 81 40
104 82 40
105 83 41
107 85 41
106 84 41
105 83 41
189 146 53
104 82 40
99 78 39
90 75 35
118 125 41
114 121 38
107 109 47
65 62 46
55 50 46
55 50 46
53 48 44
80 71 53
56 51 47
54 49 45
55 50 46
65 51 45
81 73 54
54 49 45
56 50 46
52 48 43
54 49 45
70 65 43
92 86 41
105 98 38
106 100 38
106 99 38
105 99 37
100 93 36
84 77 37
62 57 44
55 50 46
55 50 46
54 49 45
56 51 47
54 49 45
55 49 45
55 50 46
55 50 46
55 50 46
56 51 46
55 50 46
54 49 45
54 48 44
72 58 47
55 51 46
54 49 45
55 49 45
54 49 45
55 50 46
55 50 46
55 50 46
55 49 45
55 50 46
53 48 44
54 50 45
54 49 45
53 48 44
84 63 46
54 49 45
55 50 46
52 47 43
55 50 46
51 45 41
79 71 52
54 49 44
54 49 45
80 71 53
53 48 44
79 68 48
49 44 40
50 45 41
45 40 37
74 66 47
43 39 35
40 35 32
40 35 32
37 33 30
33 27 25
39 34 31
91 80 50
44 36 33
43 38 35
63 46 41
65 43 38
51 46 42
70 48 43
81 71 53
87 70 51
106 88 59
81 72 54
55 49 45
56 51 47
80 71 53
79 70 51
101 89 60
55 50 46
115 102 66
54 48 43
82 72 53
100 89 61
72 52 46
80 71 53
100 88 59
135 115 72
100 90 60
143 126 78
161 139 82
100 89 60
100 89 61
145 120 73
116 103 66
137 116 72
143 126 77
130 115 72
130 115 73
130 115 72
100 89 61
130 115 72
142 126 77
165 146 87
143 127 78
165 145 86
143 126 78
165 146 87
194 171 99
159 142 82
181 162 91
154 137 83
175 154 90
176 155 91
175 155 91
211 186 107
242 214 121
242 214 121
215 191 107
223 198 111
234 207 117
203 179 103
235 207 117
215 191 108
255 229 127
255 243 136
249 220 124
255 255 206
255 255 255
255 255 255
255 255 255
255 255 255
255 255 255
255 255 255
255 255 255
255 255 255
255 255 255
255 255 255
255 255 255
255 255 255
255 255 255
255 255 255
255 255 255
255 255 255
255 255 255
255 255 255
255 255 255
255 255 255
255 255 255
255 255 255
255 255 255
255 255 255
255 255 255
255 255 255
255 255 255
255 255 255
255 255 255
255 255 255
255 255 255
255 255 255
255 255 255
255 255 255
255 255 255
255 255 255
255 255 255
255 255 255
255 255 255
255 255 255
255 255 255
255 255 255
255 255 255
255 255 255
255 255 255
255 255 255
255 255 255
255 255 255
255 255 255
255 255 255
255 255 255
255 255 255
255 255 255
255 255 255
255 255 206
227 201 114
255 237 133
255 232 130
249 220 124
255 226 127
255 243 136
203 179 104
185 163 96
211 187 107
203 179 103
194 172 100
203 179 104
194 171 99
185 164 96
166 148 87
185 164 96
154 136 82
130 115 72
155 137 82
165 146 87
185 163 96
130 116 72
255 255 88
255 255 59
255 255 47
255 255 44
255 255 35
206 193 23
223 207 24
178 167 21
130 119 17
96 92 16
93 89 15
91 87 19
102 98 57
52 57 39
113 100 63
124 111 63
70 99 28
53 76 20
25 33 13
53 76 22
23 34 14
24 35 15
31 46 17
29 41 15
35 50 16
37 76 24
42 39 35
48 43 40
49 45 41
50 46 42
53 49 44
55 50 46
52 48 44
53 49 44
60 73 47
54 50 45
54 49 45
52 47 43
71 62 48
72 63 48
91 152 60
127 238 77
160 255 96
151 255 90
113 207 71
99 177 62
44 38 31
59 44 33
64 47 37
84 71 59
100 86 70
102 88 71
104 89 72
106 91 72
108 92 73
109 93 74
111 94 74
112 95 75
114 96 75
115 97 76
116 98 76
117 99 77
118 100 77
119 100 77
119 101 78
120 102 78
121 102 78
121 102 78
122 103 79
122 103 79
123 104 79
123 104 79
123 104 79
124 104 79
124 104 79
124 104 79
124 104 79
124 104 79
124 104 79
124 104 79
123 104 79
123 104 79
123 104 79
122 103 79
122 103 79
121 103 78
121 102 78
120 101 78
119 101 78
118 100 77
118 99 77
116 99 76
115 98 76
114 97 75
112 95 75
111 94 74
109 93 74
107 91 73
106 90 72
103 88 71
100 86 70
86 74 61
45 43 31
50 48 31
53 48 44
56 51 47
54 49 45
55 50 46
52 47 43
52 48 44
61 56 45
52 47 43
53 48 43
49 45 41
94 88 42
96 90 36
48 45 25
51 48 26
96 91 36
59 56 30
56 54 29
55 53 29
52 50 27
63 61 33
61 58 32
59 57 31
61 60 33
54 50 38
55 50 46
55 51 46
55 50 46
55 50 46
54 50 46
55 50 46
55 50 46
55 50 46
55 51 46
53 49 45
56 51 46
56 51 47
56 51 47
56 51 47
55 50 46
56 51 47
56 51 47
56 51 47
56 51 47
56 51 47
56 51 47
56 51 47
40 36 33
31 27 26
40 36 33
37 32 31
42 36 34
64 47 41
48 43 40
67 50 43
52 48 44
53 47 44
54 49 45
54 48 45
55 50 46
55 50 46
71 55 49
55 49 45
54 49 45
56 51 47
54 50 45
55 50 46
54 49 45
60 53 43
101 80 39
104 82 40
105 83 41
104 82 40
105 83 41
104 83 41
104 82 40
103 82 40
153 119 47
245 188 62
207 157 53
179 140 48
156 170 44
47 45 35
53 48 44
53 48 44
53 49 44
55 50 46
53 49 45
53 49 44
56 51 47
55 50 46
55 50 46
54 49 45
55 50 46
56 51 47
54 49 45
67 62 44
101 95 38
105 99 38
107 101 38
105 99 38
106 100 38
154 143 44
153 141 44
150 139 43
187 171 48
132 120 45
56 51 47
54 49 45
55 50 46
80 72 53
55 50 46
55 49 45
53 48 44
55 50 46
56 50 46
55 50 46
55 50 45
53 48 44
55 50 46
55 50 46
55 50 45
55 50 46
80 71 53
71 57 46
53 48 44
55 49 45
56 51 47
53 48 44
52 47 43
79 71 52
58 51 46
54 49 44
54 48 44
53 48 44
80 71 53
54 49 44
54 49 45
54 48 44
54 49 45
54 48 44
80 72 53
98 87 58
53 48 44
55 49 45
83 69 50
51 46 42
50 45 41
49 45 41
50 45 41
43 37 34
75 66 47
73 64 45
76 66 47
113 100 63
76 68 49
77 68 49
61 42 37
79 70 51
114 88 59
96 71 51
89 72 53
86 50 44
55 48 44
55 48 44
99 88 60
54 48 44
55 49 45
116 103 67
72 58 47
72 53 46
80 71 53
115 102 65
100 89 61
100 89 60
100 89 61
55 50 46
99 88 60
115 102 66
70 56 45
81 73 54
100 89 61
54 49 45
92 77 54
56 50 46
143 126 78
101 90 61
165 146 87
130 115 72
133 110 68
82 73 54
111 92 62
116 103 67
154 137 82
167 141 83
175 155 91
100 89 61
150 129 77
176 155 92
160 137 82
184 163 95
165 146 87
116 103 67
175 155 91
208 180 105
148 133 78
185 164 96
185 163 95
176 155 92
211 187 107
249 220 124
227 200 114
219 194 110
255 254 142
255 235 130
242 213 120
255 232 130
255 243 136
255 254 141
255 255 142
255 255 255
255 255 255
255 255 255
255 255 255
255 255 255
255 255 255
255 255 255
255 255 255
255 255 255
255 255 255
255 255 255
255 255 255
255 255 255
255 255 255
255 255 255
255 255 255
255 255 255
255 255 255
255 255 255
255 255 255
255 255 255
255 255 255
255 255 255
255 255 255
255 255 255
255 255 255
255 255 255
255 255 255
255 255 255
255 255 255
255 255 255
255 255 255
255 255 255
255 255 255
255 255 255
255 255 255
255 255 255
255 255 255
255 255 255
255 255 255
255 255 255
255 255 255
255 255 255
255 255 255
255 255 255
255 255 255
255 255 255
255 255 255
255 255 255
255 255 255
255 255 255
255 255 255
255 255 255
255 255 255
255 255 152
255 226 127
255 248 139
227 200 114
219 194 111
211 187 107
203 179 104
203 179 104
219 194 111
194 172 100
194 172 100
194 172 100
203 179 103
163 141 85
165 146 87
175 155 91
176 151 90
165 146 87
203 179 103
194 172 100
165 146 87
143 126 77
194 172 100
255 255 64
255 255 53
255 255 45
255 255 43
255 255 28
255 255 28
141 134 18
176 165 21
165 152 19
140 133 18
89 85 14
88 84 14
107 98 49
81 80 48
94 87 52
76 79 41
65 60 36
89 80 43
48 69 19
24 35 12
17 25 10
29 41 14
16 23 10
17 25 11
24 25 19
33 32 28
42 39 35
43 40 36
51 46 42
48 45 40
53 48 44
53 60 43
54 50 45
53 49 45
53 49 45
53 54 44
53 49 44
52 48 43
48 44 40
52 48 44
78 72 51
105 195 63
128 239 77
101 189 65
126 224 74
67 62 40
53 42 34
61 45 34
76 64 53
99 85 70
102 87 71
104 89 71
106 90 72
107 91 73
109 93 74
111 94 74
112 95 75
113 96 75
115 97 76
116 98 76
117 99 77
118 100 77
119 100 77
119 101 78
120 102 78
121 102 78
122 103 79
122 103 79
123 103 79
123 104 79
123 104 79
124 104 79
124 105 80
124 105 80
124 105 80
125 105 80
125 105 80
125 105 80
124 105 80
124 105 80
124 105 80
124 104 79
124 104 79
123 104 79
123 103 79
122 103 79
122 103 79
121 102 78
120 102 78
119 101 78
118 100 77
117 99 77
116 99 76
115 98 76
114 97 75
112 95 75
111 94 74
109 93 74
107 91 73
105 90 72
103 88 71
100 86 70
76 66 54
57 54 34
45 40 30
80 71 53
54 50 45
54 49 45
53 48 44
53 49 44
58 53 42
51 46 42
48 43 40
48 44 40
42 38 32
38 36 20
170 159 55
44 39 21
94 88 34
70 61 27
59 48 25
46 44 23
54 51 27
53 52 28
56 54 30
55 53 29
52 50 27
53 49 43
54 49 44
55 50 46
53 48 44
55 50 46
54 50 46
54 50 46
55 50 46
55 50 46
55 50 46
56 51 47
56 51 47
55 50 46
56 51 47
56 51 47
56 51 47
56 51 47
56 51 47
56 51 47
56 51 47
56 51 46
55 50 46
56 51 47
40 36 33
40 36 33
46 42 39
46 41 38
50 45 42
50 45 41
51 46 43
55 48 44
52 46 43
52 46 43
55 50 46
55 50 46
55 50 46
55 50 46
55 50 46
56 51 47
56 51 47
54 49 45
55 50 46
54 49 45
54 49 45
80 65 42
102 81 40
102 81 40
102 81 40
104 82 40
103 81 40
102 81 40
100 79 39
101 80 40
101 80 39
95 75 37
183 141 49
179 138 47
141 147 40
54 52 40
59 57 41
52 47 43
53 49 44
53 49 43
51 47 43
53 48 44
53 49 45
56 51 47
55 49 45
53 49 44
56 51 47
56 51 46
105 89 45
100 95 37
104 98 37
105 99 38
104 98 37
106 100 38
106 100 38
105 100 38
104 98 37
102 96 37
221 202 53
97 91 33
107 80 44
55 50 46
55 50 45
53 48 44
80 72 53
81 72 54
54 49 45
55 50 46
69 63 46
54 49 45
55 50 46
55 50 46
55 49 45
55 51 46
55 49 45
54 49 45
55 50 46
54 49 44
80 71 53
55 50 46
55 50 46
55 49 45
55 49 44
53 48 44
54 49 45
55 50 46
55 50 46
54 49 44
55 50 46
100 89 61
55 50 46
54 49 45
52 47 43
81 72 52
54 49 45
52 46 42
53 48 44
78 69 50
52 47 43
80 71 52
52 47 43
79 71 52
53 48 44
52 47 43
79 70 52
48 42 39
50 44 41
51 46 43
97 86 57
90 74 50
54 48 45
79 70 51
96 70 51
80 71 53
72 53 47
56 51 47
107 89 60
53 48 44
82 73 55
71 57 46
86 64 47
100 88 60
56 51 47
115 102 66
81 73 54
55 50 46
100 89 61
81 72 54
56 51 47
55 50 46
81 72 54
100 89 61
81 72 54
81 72 53
55 50 46
81 72 54
143 126 77
116 102 66
137 118 72
116 103 66
154 136 82
154 136 82
166 146 87
116 103 67
176 155 92
155 136 82
137 116 72
101 89 61
169 145 86
171 152 90
117 104 66
175 155 91
170 152 88
175 155 90
175 155 91
165 146 86
189 168 96
176 155 91
219 194 111
214 191 107
186 164 95
255 235 130
211 187 107
211 186 107
255 227 127
242 214 121
255 226 127
227 200 114
255 237 133
255 255 144
255 243 136
255 232 130
255 248 139
255 249 139
255 255 255
255 255 255
255 255 255
255 255 255
255 255 255
255 255 255
255 255 255
255 255 255
255 255 255
255 255 255
255 255 255
255 255 255
255 255 255
255 255 255
255 255 255
255 255 255
255 255 255
255 255 255
255 255 255
255 255 255
255 255 255
255 255 255
255 255 255
255 255 255
255 255 255
255 255 255
255 255 255
255 255 255
255 255 255
255 255 255
255 255 255
255 255 255
255 255 255
255 255 255
255 255 255
255 255 255
255 255 255
255 255 255
255 255 255
255 255 255
255 255 255
255 255 255
255 255 255
255 255 255
255 255 255
255 255 255
255 255 255
255 255 255
255 255 255
255 255 255
255 255 255
255 255 255
255 255 160
255 237 133
255 255 150
255 232 130
255 249 139
249 220 124
255 232 130
194 172 100
242 214 121
255 229 127
203 179 104
194 171 99
235 207 118
155 137 83
180 160 92
219 194 111
238 211 118
155 137 83
160 142 82
187 163 93
149 134 77
148 131 77
186 165 95
154 137 83
255 255 52
255 255 45
255 255 38
255 255 36
255 255 28
252 236 27
148 139 17
95 95 15
91 87 15
92 87 14
85 82 14
142 115 16
103 96 37
131 123 68
97 89 55
92 82 51
89 81 45
28 28 18
61 56 31
62 57 31
61 56 31
16 18 12
16 16 13
23 23 18
34 31 28
39 36 32
39 35 32
48 44 40
48 44 40
50 46 42
69 60 45
54 49 44
58 63 47
72 63 49
52 48 44
77 69 50
52 50 44
61 55 42
47 44 40
51 58 41
46 43 39
84 161 51
81 127 47
113 210 69
69 73 41
48 38 32
169 112 51
64 47 40
97 83 68
101 86 70
103 88 71
105 90 72
107 91 73
108 92 73
110 94 74
112 95 74
113 96 75
114 97 76
115 98 76
116 99 76
117 99 77
118 100 77
119 101 78
120 101 78
121 102 78
122 103 79
122 103 79
123 103 79
123 104 79
124 104 79
124 105 80
124 105 80
125 105 80
125 105 80
125 105 80
125 105 80
125 105 80
125 105 80
125 105 80
125 105 80
125 105 80
124 105 80
124 105 80
124 104 79
123 104 79
123 104 79
122 103 79
122 103 79
121 102 78
120 101 78
119 101 78
118 100 77
117 99 77
116 98 76
115 97 76
114 96 75
112 95 75
111 94 74
109 92 73
107 91 73
104 89 72
102 87 71
99 85 70
61 52 42
50 45 29
85 74 39
54 49 45
56 51 47
53 48 44
53 49 45
52 47 43
50 45 41
65 60 43
43 39 36
43 39 36
95 89 36
105 93 32
44 41 22
45 42 23
50 46 25
50 47 25
86 77 30
45 44 23
45 44 23
50 48 26
49 47 26
94 81 40
53 49 45
52 47 43
53 48 44
53 49 45
55 50 46
56 51 47
54 50 45
55 50 46
55 50 46
56 51 47
56 51 47
55 50 46
56 51 46
55 50 46
56 51 47
55 50 46
56 51 46
56 51 47
56 51 47
56 51 47
55 50 47
54 49 46
56 51 46
47 43 39
49 43 41
49 44 40
50 45 41
51 46 43
51 46 43
53 48 44
53 48 44
54 48 45
56 51 47
54 49 45
54 49 45
55 50 46
56 51 47
56 51 47
55 50 46
55 50 46
55 50 46
56 51 46
54 49 45
54 49 45
91 73 39
98 77 38
100 79 39
102 81 40
101 80 39
99 78 39
98 78 38
100 79 39
97 77 38
145 113 44
184 142 51
88 70 34
79 61 30
55 47 24
45 41 36
86 80 53
49 45 40
54 49 45
52 48 44
55 50 46
64 61 45
54 49 45
53 49 44
54 49 45
55 50 46
55 50 46
55 50 46
114 98 39
103 97 37
102 97 37
103 97 37
102 96 37
103 97 37
104 98 37
103 97 37
150 139 43
150 139 43
216 198 52
255 243 61
237 217 57
53 48 44
56 51 46
55 50 46
55 49 45
54 49 45
56 51 47
80 71 53
55 50 46
56 51 47
92 77 54
56 51 47
54 49 45
55 50 45
54 49 45
54 49 45
53 48 44
56 51 47
55 50 46
80 72 53
55 50 46
55 50 46
55 50 46
55 50 45
53 48 44
56 51 47
81 72 54
54 49 45
80 71 52
55 50 45
56 51 46
57 50 45
82 71 52
62 54 47
94 78 57
59 52 46
55 48 44
54 48 44
53 48 44
80 71 53
99 88 60
52 48 44
96 85 56
53 48 44
53 48 44
98 87 58
97 86 57
78 70 51
81 71 53
80 71 53
55 50 46
80 71 53
71 57 46
54 49 45
81 72 54
72 58 47
72 58 47
99 88 60
71 56 45
56 51 46
80 72 53
55 50 46
81 72 54
100 89 60
81 72 54
100 89 61
92 77 54
54 49 45
56 50 46
116 103 67
116 103 66
100 89 61
99 88 59
80 71 53
100 89 60
81 72 54
100 89 60
81 73 55
82 74 54
116 103 67
107 97 61
100 89 61
124 106 67
100 89 61
165 145 86
123 103 63
173 129 77
131 114 71
184 155 93
129 68 56
195 113 81
218 207 82
214 159 97
118 103 67
165 146 87
194 172 100
235 207 118
235 207 117
194 172 100
235 207 117
245 217 121
203 180 103
242 214 121
235 207 118
255 243 136
229 198 111
255 249 139
255 228 127
242 213 121
255 243 136
255 255 155
255 255 144
255 255 144
255 255 164
255 255 144
255 255 255
255 255 255
255 255 255
255 255 255
255 255 255
255 255 255
255 255 255
255 255 255
255 255 255
255 255 255
255 255 255
255 255 255
255 255 255
255 255 255
255 255 255
255 255 255
255 255 255
255 255 255
255 255 255
255 255 255
255 255 255
255 255 255
255 255 255
255 255 255
255 255 255
255 255 255
255 255 255
255 255 255
255 255 255
255 255 255
255 255 255
255 255 255
255 255 255
255 255 255
255 255 255
255 255 255
255 255 255
255 255 255
255 255 255
255 255 255
255 255 255
255 255 255
255 255 255
255 255 255
255 255 255
255 255 255
255 255 255
255 255 255
255 255 255
255 255 255
255 254 142
255 237 133
255 255 167
255 237 133
255 255 147
255 226 127
255 243 136
242 214 121
255 232 130
249 220 124
211 187 107
235 207 117
227 201 114
194 172 100
203 179 103
165 147 82
154 137 83
176 155 92
185 164 95
184 164 91
131 116 72
154 137 82
203 179 102
165 146 87
142 127 71
255 255 53
255 255 41
255 255 37
255 255 35
255 255 39
216 196 23
203 190 22
137 129 17
135 117 16
94 89 14
136 113 14
130 122 15
77 77 17
141 127 73
129 116 69
126 113 66
126 113 65
107 95 55
89 79 47
88 79 47
23 21 19
64 57 35
66 59 37
31 29 26
36 33 30
39 36 33
45 41 37
46 43 39
50 46 41
54 49 45
80 71 53
51 47 42
53 49 44
94 82 56
80 72 53
50 46 42
54 61 44
78 70 51
47 45 39
43 44 36
40 38 33
69 64 41
27 42 26
63 64 34
67 58 38
105 45 46
69 53 46
88 75 61
100 86 70
102 87 71
104 89 72
106 90 72
108 92 73
109 93 74
111 94 74
112 95 75
114 96 75
115 97 76
116 98 76
117 99 77
118 100 77
119 101 77
120 101 78
121 102 78
121 102 78
122 103 79
123 103 79
123 104 79
124 104 79
124 105 80
124 105 80
125 105 80
125 105 80
125 105 80
125 106 80
125 106 80
126 106 80
126 106 80
125 106 80
125 106 80
125 105 80
125 105 80
125 105 80
124 105 80
124 104 79
123 104 79
123 104 79
122 103 79
122 103 79
121 102 78
120 101 78
119 101 78
118 100 77
117 99 77
116 98 76
115 97 76
113 96 75
112 95 75
110 93 74
108 92 73
106 90 72
104 89 71
101 87 70
93 80 66
56 44 37
43 34 26
85 74 42
54 49 45
53 49 45
61 56 45
51 47 43
49 45 41
53 45 39
39 35 32
50 46 34
31 29 26
25 24 16
89 84 31
52 45 30
55 49 38
61 55 46
67 62 51
60 55 43
48 46 28
44 43 23
42 40 27
46 42 38
52 48 44
50 46 42
54 49 45
54 49 45
55 50 46
55 50 46
55 50 46
55 50 46
56 51 47
56 51 47
56 51 47
56 51 47
55 51 47
55 50 46
56 51 47
56 51 47
56 51 47
56 51 47
56 51 47
56 51 46
57 52 47
56 51 47
55 50 46
49 43 40
55 50 46
53 48 44
52 47 43
53 48 44
55 50 46
54 48 45
53 48 44
55 50 46
55 49 46
55 50 46
52 47 43
56 51 47
55 50 46
56 51 47
56 51 47
55 50 46
55 50 45
56 51 46
55 50 46
52 47 43
90 72 36
94 75 37
95 75 37
99 78 39
97 77 38
99 79 39
99 78 38
96 76 38
90 71 35
89 71 35
143 111 43
138 107 40
161 112 39
64 52 31
43 39 35
46 42 38
58 56 39
60 58 40
50 46 41
52 48 43
53 49 44
54 49 45
52 47 42
57 52 47
55 50 45
54 49 45
55 50 44
89 83 34
99 94 36
101 95 37
99 93 36
98 92 35
102 96 37
102 96 37
98 92 35
148 137 42
97 91 35
150 137 41
243 222 57
255 255 67
55 50 42
80 72 53
54 49 44
54 49 45
54 49 45
55 50 46
80 72 53
54 49 45
79 70 51
55 50 46
54 49 45
54 49 45
55 50 46
55 50 46
55 50 46
56 51 47
55 50 46
56 51 47
81 72 54
56 51 47
53 47 43
56 51 47
54 49 45
55 50 46
55 50 46
54 49 45
55 50 46
54 49 45
52 48 45
65 59 54
106 94 66
61 56 51
87 79 60
66 60 54
69 62 56
67 59 53
64 56 50
80 70 51
55 50 46
115 102 65
79 70 52
81 72 54
79 70 52
79 71 52
54 49 45
52 47 43
80 71 53
80 71 53
54 49 45
81 72 54
80 71 53
80 71 53
54 49 45
55 50 46
79 71 52
137 118 72
81 72 54
108 93 62
55 50 46
80 72 53
81 72 54
81 73 54
100 89 60
56 51 47
100 89 60
55 49 45
92 77 54
92 77 54
80 72 53
115 102 66
125 107 67
130 115 73
130 115 72
55 50 46
100 89 60
100 89 61
130 115 72
73 54 48
130 116 73
130 115 72
100 89 61
116 103 66
168 139 82
81 68 49
178 157 93
145 128 79
165 87 71
92 47 54
199 81 75
243 99 93
255 111 101
255 142 122
255 167 136
255 182 138
255 185 118
194 171 99
215 191 107
211 186 104
208 180 104
211 186 107
249 220 124
205 179 103
219 194 111
219 194 111
255 243 136
249 220 124
249 220 124
246 214 122
255 254 142
255 254 142
255 232 130
255 255 149
255 255 162
255 255 160
255 255 160
255 255 255
255 255 255
255 255 255
255 255 255
255 255 255
255 255 255
255 255 255
255 255 255
255 255 255
255 255 255
255 255 255
255 255 255
255 255 255
255 255 255
255 255 255
255 255 255
255 255 255
255 255 255
255 255 255
255 255 255
255 255 255
255 255 255
255 255 255
255 255 255
255 255 255
255 255 255
255 255 255
255 255 255
255 255 255
255 255 255
255 255 255
255 255 255
255 255 255
255 255 255
255 255 255
255 255 255
255 255 255
255 255 255
255 255 255
255 255 255
255 255 255
255 255 255
255 255 255
255 255 255
255 255 255
255 255 255
255 255 255
255 255 255
255 255 147
255 255 157
255 254 141
255 255 145
255 243 136
255 255 144
255 254 142
255 255 144
255 243 136
219 194 111
252 223 124
255 237 133
255 243 136
211 187 107
255 232 130
203 179 104
194 171 99
211 187 107
203 179 103
203 179 103
165 146 87
203 179 103
154 136 82
186 165 95
160 142 81
227 208 72
255 255 47
255 255 43
247 223 24
243 213 24
211 194 22
220 203 23
254 235 26
153 137 17
131 113 15
75 70 12
118 106 14
116 104 14
66 63 15
78 69 51
77 69 50
78 72 49
110 98 60
46 52 32
90 80 49
109 97 58
92 82 51
110 98 58
92 83 51
43 39 36
93 83 53
43 41 36
48 44 40
76 68 49
79 71 52
54 49 45
52 48 44
80 72 54
54 50 45
99 88 60
80 72 53
53 48 44
78 70 51
49 46 41
54 60 44
48 52 39
50 67 39
42 52 33
31 34 25
51 110 36
162 92 62
45 37 32
63 52 43
99 85 70
101 86 70
103 88 71
105 90 72
107 91 73
109 92 73
110 93 74
111 95 74
113 96 75
114 97 76
115 98 76
116 99 76
117 99 77
118 100 77
119 101 78
120 102 78
121 102 78
122 103 79
122 103 79
123 104 79
123 104 79
124 104 80
124 105 80
125 105 80
125 105 80
125 106 80
125 106 80
126 106 80
126 106 80
126 106 80
126 106 80
126 106 80
126 106 80
125 106 80
125 106 80
125 105 80
125 105 80
124 105 80
124 104 79
123 104 79
123 104 79
122 103 79
121 102 78
121 102 78
120 101 78
119 100 77
118 100 77
117 99 77
115 98 76
114 97 75
113 95 75
111 94 74
109 93 74
107 91 73
105 90 72
103 88 71
100 86 70
80 69 57
81 68 44
44 36 29
55 50 45
54 49 45
51 46 42
59 53 44
77 69 50
44 40 37
40 36 33
38 35 32
29 26 24
24 22 19
59 54 48
61 56 51
57 52 47
59 54 49
69 63 56
53 48 44
65 59 54
64 58 52
46 42 38
45 41 37
45 41 37
51 47 43
55 50 46
53 48 44
54 49 45
55 50 46
54 49 45
56 51 47
56 51 47
55 50 46
56 51 47
56 51 47
55 50 46
55 51 47
56 51 46
56 51 47
56 51 47
56 51 47
56 51 47
56 51 47
56 51 47
55 50 46
55 50 46
55 50 46
55 50 46
52 46 43
55 50 46
55 51 46
54 49 45
55 49 46
56 51 46
56 51 47
56 51 47
55 50 46
55 50 46
56 51 46
54 49 45
56 51 47
56 51 47
54 50 45
54 49 45
54 50 45
54 50 45
53 48 44
81 65 32
91 72 36
92 73 36
87 69 34
95 75 37
90 71 35
90 70 35
91 72 36
90 71 36
143 110 43
85 67 33
175 135 45
73 58 28
53 44 28
37 34 31
45 42 36
59 57 40
63 60 44
50 45 41
53 49 45
52 47 44
54 49 44
53 49 44
80 71 52
54 49 45
68 58 45
59 56 42
99 93 36
96 91 35
94 89 34
98 92 36
95 90 35
186 171 48
99 94 36
97 92 35
95 89 35
97 92 36
204 184 48
86 79 31
179 164 44
60 55 41
53 48 44
54 49 45
55 50 46
54 50 45
57 52 47
81 72 54
69 63 45
55 50 45
80 72 53
99 88 60
55 50 45
55 50 46
55 50 46
55 50 46
100 89 61
55 50 46
55 50 46
72 58 47
56 50 46
55 50 46
80 72 53
56 50 46
55 51 46
53 49 45
55 50 46
54 49 45
58 53 49
58 53 48
65 59 53
59 54 49
60 55 50
66 60 54
86 78 59
73 67 59
88 79 60
88 75 61
55 48 44
53 47 43
51 46 42
70 56 45
55 50 46
54 49 45
55 50 46
100 88 60
56 51 47
55 50 46
100 89 61
80 72 54
100 88 60
81 72 54
81 72 54
55 50 46
89 72 53
99 88 59
56 51 47
118 97 61
55 50 45
100 89 61
81 73 54
116 103 66
116 102 66
129 115 72
80 71 53
130 115 73
81 73 55
81 72 54
81 73 54
100 89 61
90 72 54
55 50 46
71 57 46
100 89 61
116 103 67
100 89 61
116 103 67
55 50 46
81 72 54
115 102 66
55 50 46
165 146 87
142 126 77
153 129 81
147 129 81
145 128 80
108 84 59
175 70 68
93 41 51
169 70 75
255 112 102
255 112 102
255 166 139
255 158 134
255 159 135
255 230 186
255 231 164
185 163 95
219 194 111
203 179 103
185 164 95
211 187 107
242 214 121
227 201 114
238 211 118
227 200 114
255 226 127
255 226 127
255 249 139
255 249 139
255 255 144
255 249 139
255 243 136
255 255 157
255 255 167
255 255 144
255 255 163
255 255 255
255 255 255
255 255 255
255 255 255
255 255 255
255 255 255
255 255 255
255 255 255
255 255 255
255 255 255
255 255 255
255 255 255
255 255 255
255 255 255
255 255 255
255 255 255
255 255 255
255 255 255
255 255 255
255 255 255
255 255 255
255 255 255
255 255 255
255 255 255
255 255 255
255 255 255
255 255 255
255 255 255
255 255 255
255 255 255
255 255 255
255 255 255
255 255 255
255 255 255
255 255 255
255 255 255
255 255 255
255 255 255
255 255 255
255 255 255
255 255 255
255 255 255
255 255 255
255 255 255
255 255 255
255 255 255
255 255 155
255 255 174
255 255 150
255 255 144
255 255 150
255 255 152
255 255 152
255 255 144
227 201 114
255 243 136
255 232 130
255 232 130
185 164 96
219 194 111
255 226 127
211 187 107
194 172 100
231 204 113
175 155 92
167 148 87
170 151 87
186 165 96
130 116 71
190 168 95
175 155 91
175 155 90
202 179 98
255 255 45
255 255 36
255 255 38
255 255 35
180 164 19
172 135 18
80 75 12
86 82 13
75 71 12
83 77 12
111 100 13
78 72 11
97 67 21
80 74 51
87 70 51
76 68 49
80 76 51
97 89 54
52 47 43
77 68 49
37 35 31
45 41 37
95 84 55
114 101 63
48 44 40
51 47 42
96 86 57
128 113 70
98 87 59
52 47 43
78 70 51
52 48 44
54 50 44
54 49 45
82 81 54
72 66 47
77 69 50
57 62 46
51 47 43
56 71 44
87 77 48
71 64 43
70 64 39
57 82 36
154 93 55
50 41 32
84 71 60
100 86 70
102 87 71
104 89 72
106 90 72
107 92 73
109 93 74
111 94 74
112 95 75
113 96 75
115 97 76
116 98 76
117 99 77
118 100 77
119 100 77
120 101 78
120 102 78
121 102 78
122 103 79
122 103 79
123 104 79
124 104 79
124 105 80
125 105 80
125 105 80
125 106 80
125 106 80
126 106 80
126 106 80
126 106 80
126 106 80
126 106 80
126 106 80
126 106 80
126 106 80
126 106 80
125 106 80
125 105 80
125 105 80
124 105 80
124 104 79
123 104 79
122 103 79
122 103 79
121 102 78
120 101 78
119 101 78
118 100 77
117 99 77
116 98 76
115 97 76
113 96 75
112 95 75
110 94 74
108 92 73
106 91 72
104 89 72
102 87 71
98 84 69
58 51 42
43 39 31
49 43 34
54 49 45
53 48 44
59 53 44
50 45 41
45 41 37
45 41 38
43 39 36
35 32 29
58 53 48
65 59 53
64 58 52
54 49 45
70 63 55
53 49 44
61 55 49
54 49 45
72 65 54
60 55 50
43 39 35
51 47 43
53 48 44
50 46 42
52 48 44
53 48 44
55 50 46
54 49 45
54 49 45
56 51 47
56 51 47
55 50 46
56 51 47
56 51 47
56 51 47
56 51 47
55 51 46
56 51 47
56 51 47
56 51 47
56 51 46
55 50 46
56 51 47
56 51 46
55 50 46
55 51 46
55 50 46
55 50 46
54 50 46
55 51 46
56 51 46
55 50 46
72 56 49
56 51 47
56 51 47
56 51 47
55 50 46
55 50 46
54 49 45
54 49 45
55 50 46
55 50 46
55 51 46
53 48 44
53 49 44
71 58 35
84 67 33
119 87 37
90 71 35
90 71 35
87 69 35
84 66 33
87 69 35
76 60 31
136 105 39
73 58 28
74 59 29
67 53 26
42 35 24
52 52 33
46 42 39
47 44 38
61 59 42
50 46 42
64 61 45
54 49 45
55 50 46
52 47 43
55 50 46
54 49 45
55 50 46
63 58 42
88 83 32
87 82 32
94 88 35
89 84 33
90 85 34
107 97 37
146 134 41
152 141 42
143 132 39
146 135 41
212 194 51
239 219 55
176 161 43
124 113 45
78 70 50
53 48 44
54 49 45
70 56 45
53 48 44
54 49 45
56 51 47
54 50 45
55 50 46
55 49 45
53 48 43
54 49 45
63 50 46
55 50 46
55 50 45
55 50 46
55 50 46
55 50 46
80 72 54
55 50 46
116 103 67
81 73 54
55 50 46
56 51 46
56 51 46
57 50 48
60 55 51
99 89 60
57 52 48
85 76 57
70 64 57
93 83 64
106 95 67
92 83 64
67 61 55
62 57 51
64 57 52
99 88 60
55 51 46
54 50 46
100 89 61
55 50 46
55 50 46
56 51 46
55 50 46
54 49 45
80 71 53
70 56 45
55 50 46
143 119 73
55 50 46
81 73 54
116 103 67
100 89 61
55 50 46
55 50 46
54 49 45
89 72 54
81 72 53
55 50 46
54 49 45
81 73 55
117 104 68
81 72 54
72 58 47
92 77 54
110 93 61
93 74 54
81 73 54
101 90 61
116 103 67
100 89 61
130 115 72
116 103 67
100 89 61
92 77 53
81 73 54
100 89 61
130 115 72
175 155 91
164 144 85
131 115 73
145 128 79
169 127 78
92 36 49
96 34 46
115 48 64
116 48 65
243 99 93
255 122 109
255 141 121
255 180 149
255 198 161
255 207 169
255 255 206
255 203 145
227 200 114
232 201 115
194 172 100
203 179 103
255 226 127
206 179 103
249 220 124
234 207 117
255 244 136
249 220 124
242 214 121
255 255 157
255 255 142
255 248 138
255 255 162
255 255 152
255 255 147
255 254 142
255 255 160
255 255 164
255 255 255
255 255 255
255 255 255
255 255 255
255 255 255
255 255 255
255 255 255
255 255 255
255 255 255
255 255 255
255 255 255
255 255 255
255 255 255
255 255 255
255 255 255
255 255 255
255 255 255
255 255 255
255 255 255
255 255 255
255 255 255
255 255 255
255 255 255
255 255 255
255 255 255
255 255 255
255 255 255
255 255 255
255 255 255
255 255 255
255 255 255
255 255 255
255 255 255
255 255 255
255 255 255
255 255 255
255 255 255
255 255 255
255 255 255
255 255 255
255 255 255
255 255 255
255 255 255
255 255 255
255 255 157
255 255 162
255 255 160
255 255 147
255 255 157
255 254 142
255 237 133
255 237 133
255 255 147
255 226 127
255 226 127
255 249 139
255 238 133
211 187 107
255 237 133
203 179 103
189 168 95
252 223 124
227 201 114
203 180 103
227 201 114
175 155 91
203 179 103
198 175 99
194 173 95
159 141 81
179 158 85
57 55 41
255 255 62
255 255 37
255 255 31
231 212 23
242 224 24
105 91 13
128 120 14
129 111 14
75 71 11
126 113 14
120 101 12
101 66 10
52 49 28
98 87 58
79 74 51
50 50 39
77 70 50
52 48 44
80 71 51
98 87 58
99 88 60
51 46 42
78 70 51
50 46 42
51 47 43
51 46 42
79 79 51
98 87 59
78 70 52
56 52 46
79 71 53
80 74 54
78 70 51
52 48 43
54 49 45
98 88 59
52 48 43
54 49 45
57 71 45
52 59 42
74 66 47
40 40 30
75 69 38
82 61 40
67 42 39
255 255 146
255 255 255
255 255 226
103 88 71
104 89 72
106 91 72
108 92 73
110 93 74
111 94 74
112 95 75
114 96 75
115 97 76
116 98 76
117 99 77
118 100 77
119 101 77
120 101 78
121 102 78
121 102 78
122 103 79
123 103 79
123 104 79
124 104 79
124 105 80
125 105 80
125 105 80
125 106 80
126 106 80
126 106 80
126 106 80
126 106 80
126 106 80
126 106 80
126 106 80
126 106 80
126 106 80
126 106 80
125 106 80
125 105 80
125 105 80
124 105 80
124 104 79
123 104 79
123 104 79
122 103 79
121 102 78
120 102 78
120 101 78
119 100 77
118 99 77
116 99 76
115 98 76
114 97 75
112 95 75
111 94 74
109 93 74
107 91 73
105 90 72
103 88 71
100 86 70
81 69 57
71 85 38
43 36 29
50 45 38
55 51 46
79 71 53
54 49 45
53 48 44
50 45 41
45 41 37
60 51 45
59 54 49
58 52 47
67 61 54
58 52 47
60 54 47
72 65 57
64 58 52
67 61 54
55 50 46
57 52 47
52 47 42
49 45 41
52 47 44
79 70 52
53 49 45
55 50 45
54 49 45
55 50 46
54 49 45
56 51 47
56 51 47
56 51 47
56 51 47
55 51 46
56 51 47
55 50 46
56 51 47
56 51 47
56 51 47
56 51 47
54 50 46
56 51 46
55 50 46
56 51 47
56 51 47
55 50 46
56 51 47
71 55 49
56 51 47
56 51 47
56 51 47
56 51 47
55 49 46
55 50 46
55 50 46
55 50 46
54 50 46
56 51 47
55 50 46
55 50 46
55 50 46
52 48 43
52 48 44
52 47 43
49 45 41
57 49 37
76 60 30
84 67 33
80 64 32
81 64 33
80 64 31
76 60 30
74 58 30
74 59 30
81 56 29
64 51 26
58 46 23
50 40 20
38 35 31
36 33 30
44 40 32
44 40 36
49 45 41
51 47 43
50 46 41
54 49 44
81 67 45
54 49 45
55 50 46
54 49 45
54 49 45
57 52 43
77 72 28
87 82 33
87 82 32
102 92 36
85 80 32
85 80 32
90 85 33
91 86 33
82 77 30
180 165 45
134 123 35
175 160 42
132 121 35
166 152 49
52 47 43
52 47 43
79 70 51
51 46 42
52 48 43
54 49 45
81 72 54
68 62 45
54 50 46
56 51 46
70 64 47
55 50 46
56 51 47
55 49 45
55 50 46
71 57 46
55 50 46
80 71 53
72 58 48
55 50 46
55 50 46
55 49 45
55 50 46
55 50 46
57 50 45
63 58 53
84 76 57
81 73 55
57 52 48
64 58 53
79 65 53
75 68 59
65 59 53
61 56 50
164 145 83
255 241 128
166 147 85
58 53 48
56 51 47
116 103 66
92 77 54
55 49 45
56 51 47
99 88 60
81 72 54
80 72 53
80 72 54
90 73 54
100 89 61
55 50 45
90 72 54
100 89 61
55 50 46
81 73 55
80 72 53
80 72 53
67 51 46
54 49 45
82 73 55
81 73 54
116 103 67
80 72 53
119 97 62
93 78 55
85 72 54
116 103 67
100 89 61
71 57 46
80 72 53
116 103 67
100 89 60
56 51 47
130 115 73
80 72 53
54 49 45
130 115 72
89 73 54
130 115 72
115 102 66
175 155 91
129 113 70
116 103 66
186 164 96
138 52 53
72 27 38
120 50 61
113 47 64
111 47 63
168 69 75
115 48 65
255 122 108
255 166 139
255 206 168
255 230 185
255 236 190
255 243 187
255 206 120
227 200 114
189 164 96
255 226 127
249 219 124
255 226 127
219 194 111
227 200 114
255 255 144
255 232 130
255 231 130
255 245 136
255 232 130
255 255 147
255 255 152
255 255 157
255 255 158
255 255 157
255 255 171
255 255 162
255 255 174
255 255 255
255 255 255
255 255 255
255 255 255
255 255 255
255 255 255
255 255 255
255 255 255
255 255 255
255 255 255
255 255 255
255 255 255
255 255 255
255 255 255
255 255 255
255 255 255
255 255 255
255 255 255
255 255 255
255 255 255
255 255 255
255 255 255
255 255 255
255 255 255
255 255 255
255 255 255
255 255 255
255 255 255
255 255 255
255 255 255
255 255 255
255 255 255
255 255 255
255 255 255
255 255 255
255 255 255
255 255 255
255 255 255
255 255 255
255 255 255
255 255 255
255 255 255
255 255 182
255 255 152
255 255 169
255 255 165
255 255 152
255 255 162
255 255 160
255 255 155
255 226 127
255 255 148
255 249 139
238 210 117
255 255 150
211 186 107
231 204 114
242 213 121
255 229 127
219 194 111
255 226 127
175 155 91
200 176 101
175 155 91
189 168 96
179 159 90
181 160 91
219 194 106
169 151 80
179 158 84
153 138 75
199 180 77
255 250 27
255 230 25
255 255 29
141 127 15
146 93 13
72 66 11
106 83 12
77 62 9
96 82 11
105 91 12
73 68 18
43 40 35
77 71 45
77 69 49
50 47 41
54 53 43
99 88 57
97 86 57
53 48 43
54 49 45
78 70 51
76 68 49
98 87 59
53 48 44
98 88 59
53 48 45
80 71 53
79 71 52
102 97 62
55 50 46
115 103 66
56 51 46
80 72 53
83 82 55
53 49 44
83 81 55
57 62 46
52 50 44
50 46 42
49 45 41
79 95 29
255 159 82
176 119 69
255 255 204
255 255 255
255 255 255
255 255 255
103 88 71
105 90 72
107 91 73
108 92 73
110 93 74
111 95 74
113 96 75
114 97 75
115 97 76
116 98 76
117 99 77
118 100 77
119 101 78
120 101 78
121 102 78
121 103 79
122 103 79
123 104 79
123 104 79
124 104 79
124 105 80
125 105 80
125 105 80
125 106 80
126 106 80
126 106 80
126 106 80
126 106 80
126 106 80
126 106 80
126 106 80
126 106 80
126 106 80
126 106 80
125 106 80
125 105 80
125 105 80
124 105 80
124 105 80
123 104 79
123 104 79
122 103 79
122 103 79
121 102 78
120 101 78
119 101 77
118 100 77
117 99 77
116 98 76
114 97 76
113 96 75
111 95 74
110 93 74
108 92 73
106 90 72
104 89 72
102 87 71
97 83 68
60 48 40
40 34 31
45 38 31
53 48 44
65 56 43
53 48 44
52 47 43
53 49 45
54 49 45
52 47 43
65 59 53
53 48 44
59 54 49
68 62 54
66 59 52
72 65 54
63 58 51
64 58 52
62 56 50
54 50 45
59 54 49
57 52 47
48 43 39
53 48 44
55 51 46
55 50 46
54 50 45
54 49 45
56 51 47
53 48 44
55 50 46
54 50 45
56 51 47
56 51 47
55 50 46
56 51 47
55 50 46
55 50 46
56 51 47
56 51 47
56 51 47
56 51 46
56 51 46
54 50 46
57 52 47
55 50 46
55 50 46
56 51 47
55 50 46
55 50 46
56 51 47
56 51 47
54 49 45
56 51 47
55 50 46
55 50 46
56 51 47
55 50 45
55 50 46
54 49 45
53 49 44
55 50 46
51 47 43
51 46 42
51 47 42
49 44 39
59 48 28
67 53 26
70 56 28
76 60 30
71 56 28
68 54 27
76 60 30
97 68 30
58 46 24
53 42 22
45 35 19
40 33 21
39 36 32
61 59 36
58 56 38
47 43 39
49 44 40
51 47 43
72 71 45
54 49 45
58 55 43
52 47 43
54 49 45
53 48 43
55 50 45
53 48 43
66 62 28
75 70 28
85 75 29
79 74 29
73 68 27
111 98 36
84 79 31
99 90 34
77 73 28
73 69 27
208 190 48
68 65 25
202 184 46
48 44 40
49 44 40
67 60 43
66 60 42
52 47 44
54 49 45
80 72 53
54 49 45
55 50 46
54 49 45
80 71 53
54 49 45
55 50 45
54 49 45
56 51 47
55 50 46
54 49 45
81 72 54
55 50 46
56 51 46
55 50 46
54 49 45
80 71 53
81 73 55
55 50 46
55 50 47
54 49 46
83 74 56
79 71 53
57 52 47
68 62 55
63 57 52
64 58 52
57 52 47
88 79 61
163 145 82
174 154 87
60 55 50
57 52 47
54 49 45
80 71 53
55 50 46
107 89 60
56 51 46
73 58 46
56 51 47
100 89 61
80 71 53
91 77 53
55 50 46
58 51 46
99 88 60
116 103 67
80 72 54
81 72 54
80 72 54
54 49 45
124 106 67
116 103 67
56 51 47
99 88 59
100 89 60
81 72 53
100 89 61
92 77 54
56 50 46
100 89 61
100 89 61
100 89 61
124 106 67
93 78 55
130 116 73
80 72 53
116 103 67
100 89 61
116 103 67
101 89 61
143 127 78
116 103 67
130 115 72
115 102 66
191 164 96
82 71 53
145 125 78
82 33 42
99 41 50
107 45 60
122 49 63
113 47 63
207 85 84
255 122 108
255 122 108
255 149 127
255 175 143
255 185 150
255 230 185
255 241 194
255 211 145
208 181 103
232 202 114
203 179 103
234 207 117
253 221 125
255 232 130
224 196 111
255 243 136
255 237 133
255 249 139
255 255 152
255 232 131
255 255 155
255 255 157
255 255 155
255 255 164
255 255 162
255 255 171
255 255 164
255 255 176
255 255 182
255 255 235
255 255 255
255 255 255
255 255 255
255 255 255
255 255 255
255 255 255
255 255 255
255 255 255
255 255 255
255 255 255
255 255 255
255 255 255
255 255 255
255 255 255
255 255 255
255 255 255
255 255 255
255 255 255
255 255 255
255 255 255
255 255 255
255 255 255
255 255 255
255 255 255
255 255 255
255 255 255
255 255 255
255 255 255
255 255 255
255 255 255
255 255 255
255 255 255
255 255 255
255 255 255
255 255 255
255 255 255
255 255 255
255 255 255
255 255 233
255 255 175
255 255 180
255 255 152
255 255 160
255 255 150
255 243 136
255 255 150
255 255 169
255 255 150
255 232 130
255 232 130
244 215 121
255 243 136
255 255 152
255 232 130
255 229 127
227 201 114
255 232 130
242 213 121
237 208 117
220 194 111
220 195 110
231 205 114
199 176 99
190 168 95
185 164 96
190 168 94
233 207 111
164 147 80
177 159 77
128 114 65
145 131 55
132 124 14
154 138 16
223 203 22
113 100 12
136 112 13
141 115 12
82 76 10
146 124 14
61 57 12
41 43 28
45 41 37
51 51 40
51 46 42
53 48 44
51 47 42
54 49 45
72 62 47
79 71 52
55 50 46
56 51 47
54 50 46
53 49 45
55 50 45
113 99 64
81 72 54
79 70 52
81 72 54
73 63 49
81 72 54
53 49 44
80 72 54
80 72 54
80 72 53
81 72 54
83 82 55
61 74 48
52 48 44
80 72 53
75 70 46
217 142 70
171 139 65
255 255 181
255 255 255
255 255 255
255 255 255
255 255 255
104 89 71
105 90 72
107 91 73
109 92 73
110 94 74
111 95 74
113 96 75
114 97 75
115 98 76
116 98 76
117 99 77
118 100 77
119 101 78
120 101 78
121 102 78
121 103 78
122 103 79
123 104 79
123 104 79
124 104 79
124 105 80
125 105 80
125 105 80
125 106 80
126 106 80
126 106 80
126 106 80
126 106 80
126 106 80
126 106 80
126 106 80
126 106 80
126 106 80
126 106 80
125 106 80
125 105 80
125 105 80
124 105 80
124 105 80
123 104 79
123 104 79
122 103 79
122 103 79
121 102 78
120 101 78
119 101 78
118 100 77
117 99 77
116 98 76
115 97 76
113 96 75
112 95 75
110 94 74
109 93 73
107 91 73
105 89 72
102 88 71
100 86 70
79 68 56
38 32 33
45 38 32
51 45 38
55 50 46
54 50 46
52 47 43
51 47 43
54 49 45
53 48 43
203 162 83
65 60 53
57 52 47
60 54 49
66 60 53
63 57 51
68 62 55
60 55 49
52 49 44
66 60 54
54 49 45
55 48 44
51 46 42
54 49 45
54 49 45
55 50 46
53 48 44
55 50 46
54 49 45
55 50 46
56 51 47
55 50 46
56 51 46
55 50 46
56 51 47
56 51 47
56 51 47
55 50 46
56 51 47
56 51 47
56 51 47
56 51 47
56 51 47
55 50 46
56 51 47
55 50 46
56 51 47
55 50 46
55 50 46
56 51 47
55 50 46
56 51 47
55 50 46
55 51 46
55 50 46
55 50 46
54 49 45
54 49 45
54 49 45
56 51 46
54 49 45
52 48 44
51 47 43
50 45 41
49 45 40
49 44 40
44 39 34
63 50 28
64 49 25
74 57 26
60 47 24
67 53 27
52 40 20
56 45 23
52 41 21
44 35 18
36 29 19
31 28 25
31 27 24
43 39 35
64 54 41
48 43 39
67 57 43
54 50 46
61 59 43
53 48 43
53 49 44
54 49 45
68 59 45
53 48 44
52 48 43
51 46 41
62 55 38
58 54 22
60 56 23
80 71 27
105 91 34
66 62 25
130 121 35
66 61 24
65 60 25
68 64 25
129 118 33
125 114 31
46 42 29
75 67 47
45 41 37
66 60 42
69 55 44
50 46 41
54 49 45
53 48 44
54 49 44
67 50 45
55 50 45
53 48 44
54 49 45
100 89 61
79 70 52
54 49 45
56 51 47
55 50 46
56 51 46
55 50 46
55 49 45
56 51 47
56 51 47
55 50 46
55 50 46
80 72 53
56 51 47
57 52 47
56 51 47
83 69 57
84 75 57
61 55 50
61 55 50
73 59 48
60 54 49
63 58 52
82 74 55
165 146 83
54 49 45
57 52 48
69 55 44
80 72 53
100 89 61
100 89 61
55 50 46
80 72 54
55 50 46
80 72 54
55 50 46
56 51 46
56 51 47
55 50 46
86 72 53
100 89 61
81 72 54
81 72 54
55 50 45
81 72 54
100 89 61
81 73 55
80 71 53
80 71 53
81 73 55
81 73 54
100 89 61
81 72 54
100 89 61
93 77 54
100 89 61
101 89 60
116 103 67
100 89 61
55 50 46
100 89 61
100 88 60
55 50 46
116 103 67
81 72 54
165 146 87
130 115 72
130 114 71
255 255 137
142 125 76
125 108 76
162 135 82
105 50 55
125 45 54
106 44 61
106 44 60
111 47 63
109 46 62
108 45 61
255 110 99
255 104 93
243 99 91
255 169 140
255 230 185
255 255 214
255 240 176
218 187 107
225 194 112
219 194 111
212 186 107
255 232 130
239 208 119
255 244 138
255 226 127
235 207 117
255 237 133
255 254 142
255 255 144
255 255 150
255 255 155
255 255 157
255 255 152
255 255 167
255 255 173
255 255 176
255 255 178
255 255 177
255 255 187
255 255 189
255 255 255
255 255 255
255 255 255
255 255 255
255 255 255
255 255 255
255 255 255
255 255 255
255 255 255
255 255 255
255 255 255
255 255 255
255 255 255
255 255 255
255 255 255
255 255 255
255 255 255
255 255 255
255 255 255
255 255 255
255 255 255
255 255 255
255 255 255
255 255 255
255 255 255
255 255 255
255 255 255
255 255 255
255 255 255
255 255 255
255 255 255
255 255 255
255 255 255
255 255 255
255 255 255
255 255 255
255 255 178
255 255 185
255 255 180
255 255 171
255 255 164
255 255 169
255 255 167
255 255 155
255 226 127
255 254 142
255 255 160
255 243 136
255 237 133
255 255 144
249 220 124
255 243 136
245 217 121
255 229 127
249 220 124
227 201 114
234 207 114
211 187 107
198 176 99
203 179 103
235 207 117
180 159 91
206 183 103
219 194 106
166 147 86
186 164 94
198 175 96
202 179 100
177 156 85
121 108 54
193 174 72
125 94 11
141 132 15
117 110 13
84 78 10
104 96 11
82 74 9
106 93 15
52 48 25
36 33 29
44 41 33
48 44 39
52 48 41
53 49 44
52 47 43
54 49 45
51 47 42
57 56 46
72 62 47
55 50 45
55 50 45
55 50 45
80 72 53
54 48 44
55 50 46
81 72 54
56 51 47
80 72 53
81 72 54
80 72 53
54 50 45
55 50 46
80 72 53
116 103 67
100 89 61
81 72 54
55 50 46
57 62 47
89 85 39
161 123 60
255 243 104
255 255 255
255 255 255
255 255 255
255 255 255
255 255 255
104 89 72
106 90 72
107 91 73
109 93 73
110 94 74
112 95 75
113 96 75
114 97 75
115 98 76
116 98 76
117 99 77
118 100 77
119 101 78
120 101 78
121 102 78
121 102 78
122 103 79
123 103 79
123 104 79
124 104 79
124 105 80
125 105 80
125 105 80
125 105 80
125 106 80
126 106 80
126 106 80
126 106 80
126 106 80
126 106 80
126 106 80
126 106 80
126 106 80
126 106 80
125 106 80
125 105 80
125 105 80
124 105 80
124 105 80
124 104 79
123 104 79
122 103 79
122 103 79
121 102 78
120 101 78
119 101 78
118 100 77
117 99 77
116 98 76
115 97 76
114 96 75
112 95 75
111 94 74
109 93 74
107 91 73
105 90 72
103 88 71
101 87 70
96 82 68
49 41 34
47 47 36
47 40 33
54 49 44
54 49 45
54 49 45
53 48 44
57 52 47
60 55 49
222 196 104
255 241 128
57 52 46
65 58 52
62 56 51
60 55 49
61 55 49
59 53 48
53 49 45
59 54 48
63 55 49
54 50 46
50 46 42
54 49 45
53 48 44
53 49 45
54 50 45
81 72 54
54 49 45
55 50 46
55 50 46
54 49 45
56 51 47
56 51 47
56 51 47
55 50 46
56 51 47
55 50 46
81 73 55
56 51 47
56 51 47
55 50 46
56 51 47
55 50 46
56 51 47
56 51 47
55 50 46
56 51 47
56 51 47
56 51 46
55 50 46
55 51 46
56 51 47
55 50 46
56 50 46
55 50 46
54 50 45
56 51 47
54 49 45
54 50 45
53 49 45
53 48 44
50 46 41
50 46 42
48 44 40
46 42 38
41 37 32
36 33 29
50 42 28
44 34 19
49 38 20
53 41 21
46 37 19
43 33 17
37 29 16
27 21 12
20 17 15
31 28 25
36 33 30
42 38 34
44 40 36
49 44 40
52 47 43
52 47 43
60 52 56
63 54 62
70 57 72
70 57 73
69 57 70
65 55 65
59 51 54
47 43 38
49 45 41
50 46 29
49 46 19
55 45 17
73 63 24
51 47 20
85 75 28
62 59 23
126 116 32
58 55 22
53 50 20
119 109 31
33 30 26
74 68 36
64 58 40
77 69 50
55 50 46
69 63 46
52 47 43
53 48 44
56 51 45
54 49 44
55 50 46
55 50 46
56 50 46
55 50 46
84 70 48
80 72 53
56 51 47
56 51 47
55 50 46
100 89 61
55 50 46
56 51 47
80 72 53
70 56 45
55 50 46
84 72 53
55 50 46
58 53 48
65 59 53
67 60 53
87 78 60
63 58 53
101 90 62
58 53 49
60 54 50
53 48 45
58 53 49
60 55 50
60 55 50
60 53 47
80 72 53
54 49 45
54 48 50
53 47 52
50 43 54
51 45 52
92 79 68
54 49 45
55 50 46
54 49 45
56 51 47
80 71 53
100 89 61
72 58 47
81 73 55
81 72 54
81 73 54
54 50 46
110 93 61
55 50 46
130 116 73
55 50 46
81 72 54
81 72 54
55 50 46
81 73 55
130 115 72
116 103 67
71 57 46
56 51 47
81 73 55
92 77 54
130 115 73
81 72 54
116 103 66
67 52 47
100 88 60
124 106 67
80 72 53
56 51 47
54 49 45
209 185 102
227 200 114
125 105 69
166 89 70
94 42 48
91 37 51
163 67 70
103 43 59
108 45 61
105 44 60
166 68 73
159 65 69
248 101 93
163 67 71
255 157 130
255 172 141
255 220 177
255 193 140
227 201 114
234 196 114
219 194 111
222 188 109
212 186 107
243 213 121
249 220 124
235 207 117
255 234 133
249 220 124
255 243 136
255 226 127
255 255 160
255 255 152
255 255 149
255 255 167
255 255 164
255 255 159
255 255 169
255 255 160
255 255 164
255 255 169
255 255 191
255 255 171
255 255 209
255 255 255
255 255 255
255 255 255
255 255 255
255 255 255
255 255 255
255 255 255
255 255 255
255 255 255
255 255 255
255 255 255
255 255 255
255 255 255
255 255 255
255 255 255
255 255 255
255 255 255
255 255 255
255 255 255
255 255 255
255 255 255
255 255 255
255 255 255
255 255 255
255 255 255
255 255 255
255 255 255
255 255 255
255 255 255
255 255 255
255 255 255
255 255 255
255 255 222
255 255 180
255 255 182
255 255 188
255 255 171
255 255 171
255 255 157
255 255 164
255 255 152
255 255 176
255 255 152
255 255 157
255 254 142
255 243 136
255 232 130
255 226 127
255 255 144
255 237 133
235 207 117
227 200 114
227 201 114
219 194 111
207 183 103
191 168 97
252 223 124
165 146 87
255 232 130
185 163 95
219 193 110
189 168 95
223 197 110
174 156 79
164 146 80
124 111 61
158 140 78
178 157 86
175 155 83
161 143 76
58 54 11
81 74 30
76 68 29
73 68 8
25 23 10
29 27 23
35 32 28
39 36 32
41 38 33
51 46 42
69 60 44
52 47 43
52 48 43
54 49 44
53 48 44
53 48 43
55 50 46
80 72 53
52 48 43
81 72 54
100 93 60
99 89 60
56 51 46
80 72 53
100 89 61
82 76 53
100 89 61
56 51 47
80 71 53
101 90 61
116 103 67
88 73 54
115 102 66
80 72 54
80 72 53
49 51 38
159 136 67
95 89 45
255 255 255
255 255 255
255 255 255
255 255 255
255 255 255
255 255 221
104 89 72
106 90 72
107 91 73
109 93 73
110 94 74
112 95 75
113 96 75
114 97 75
115 98 76
116 98 76
117 99 77
118 100 77
119 100 77
120 101 78
120 102 78
121 102 78
122 103 79
122 103 79
123 104 79
123 104 79
124 104 79
124 105 80
125 105 80
125 105 80
125 106 80
125 106 80
126 106 80
126 106 80
126 106 80
126 106 80
126 106 80
126 106 80
126 106 80
125 106 80
125 106 80
125 105 80
125 105 80
124 105 80
124 104 79
123 104 79
123 104 79
122 103 79
122 103 79
121 102 78
120 101 78
119 101 78
118 100 77
117 99 77
116 98 76
115 98 76
114 97 75
113 95 75
111 94 74
109 93 74
108 92 73
106 90 72
104 89 71
102 87 71
99 85 70
69 59 49
44 44 34
54 37 32
51 45 40
56 51 47
54 49 45
53 48 44
67 60 52
62 56 51
60 54 49
52 48 43
55 50 45
54 49 44
61 55 49
66 60 53
56 52 46
55 50 45
61 56 50
59 52 45
55 50 45
59 53 48
55 50 46
53 48 44
54 50 46
54 49 45
55 50 46
81 72 54
55 50 46
55 50 46
81 73 55
55 50 46
56 51 47
80 72 53
56 51 47
56 51 47
56 51 47
56 51 47
55 50 46
56 50 46
56 51 47
56 51 47
55 50 46
56 51 47
55 50 46
56 51 47
55 50 46
56 51 47
56 51 47
55 51 46
55 50 46
56 51 47
56 51 47
55 50 46
55 50 46
55 50 46
56 51 47
54 49 45
54 49 45
54 49 45
55 49 45
54 49 45
51 47 42
51 46 42
48 44 40
43 39 35
44 40 37
40 36 32
35 32 29
28 25 21
25 21 16
30 24 16
30 24 14
25 21 16
19 17 16
23 20 18
32 29 26
38 35 31
41 37 34
44 40 36
48 44 40
51 46 42
53 48 45
67 56 68
71 58 74
71 58 74
72 59 75
71 58 74
104 83 86
103 83 85
103 83 85
125 100 92
89 73 62
40 36 32
41 38 27
42 39 16
39 37 15
41 38 16
65 61 21
47 45 18
48 45 18
120 110 28
43 40 20
29 26 23
55 50 28
63 57 38
65 59 38
64 59 40
72 60 41
67 61 43
82 68 45
54 49 44
54 49 45
52 47 43
55 50 45
55 50 46
55 50 46
80 72 53
54 49 45
55 50 46
56 51 47
56 51 47
55 50 46
55 51 47
55 50 46
54 49 45
81 72 54
92 77 54
55 50 46
55 50 46
55 51 46
88 73 54
58 53 48
63 57 52
55 49 45
55 50 46
55 50 46
80 71 53
63 57 50
55 50 47
88 78 60
60 54 48
63 57 51
82 73 64
52 47 46
48 40 59
45 36 64
67 53 76
67 52 76
67 53 75
118 92 108
119 93 104
111 96 73
67 64 47
54 49 45
81 73 55
82 72 54
116 103 67
100 89 61
127 109 69
92 77 54
100 89 61
81 72 54
81 72 54
100 89 61
100 89 61
81 72 54
116 103 67
100 89 61
81 72 53
55 51 47
55 50 46
116 103 67
100 89 60
81 73 55
80 72 53
81 72 54
81 73 54
116 103 67
81 73 54
99 88 60
81 72 54
80 71 53
79 71 52
80 71 53
78 68 50
255 255 174
175 155 91
116 86 61
80 28 39
105 41 53
94 39 54
117 46 58
96 40 55
124 48 57
100 42 57
203 83 80
199 81 77
240 97 85
255 110 96
255 180 145
255 211 167
255 219 155
226 194 111
242 213 120
220 191 108
247 214 122
254 221 125
233 201 115
234 207 117
255 226 127
246 214 122
239 208 119
255 250 141
255 255 147
255 243 136
255 255 147
255 255 152
255 255 160
255 255 167
255 255 169
255 255 164
255 255 162
255 255 171
255 255 187
255 255 180
255 255 189
255 255 182
255 255 189
255 255 227
255 255 255
255 255 255
255 255 255
255 255 255
255 255 255
255 255 255
255 255 255
255 255 255
255 255 255
255 255 255
255 255 255
255 255 255
255 255 255
255 255 255
255 255 255
255 255 255
255 255 255
255 255 255
255 255 255
255 255 255
255 255 255
255 255 255
255 255 255
255 255 255
255 255 255
255 255 255
255 255 255
255 255 255
255 255 202
255 255 187
255 255 193
255 255 171
255 255 189
255 255 187
255 255 171
255 255 167
255 255 167
255 255 151
255 255 167
255 255 149
255 255 155
255 237 133
255 255 162
255 254 142
255 232 130
255 248 139
255 226 127
255 232 130
255 232 130
249 220 124
200 176 102
235 207 118
254 223 125
240 211 118
247 217 121
160 142 82
207 183 103
204 179 104
202 180 99
154 137 76
154 136 82
156 139 81
164 145 85
197 175 98
107 96 53
164 145 80
144 128 70
162 144 78
90 80 45
89 79 45
106 94 54
25 23 19
60 50 30
70 62 42
78 74 44
48 44 40
77 72 46
45 41 37
50 46 41
53 49 44
52 48 43
86 77 52
54 49 44
54 50 45
55 50 46
130 115 72
94 82 56
95 83 57
81 73 54
55 51 46
80 72 53
55 51 46
55 50 46
81 73 54
94 82 57
116 103 66
100 89 61
100 89 61
100 89 60
100 90 61
81 72 54
78 70 51
55 50 46
69 61 36
166 142 46
200 165 80
255 255 255
255 255 255
255 255 255
255 255 255
255 255 255
255 255 170
104 89 72
106 90 72
107 91 73
109 93 73
110 94 74
111 95 74
113 96 75
114 96 75
115 97 76
116 98 76
117 99 77
118 100 77
119 100 77
119 101 78
120 102 78
121 102 78
122 103 79
122 103 79
123 104 79
123 104 79
124 104 79
124 105 80
124 105 80
125 105 80
125 105 80
125 105 80
125 106 80
125 106 80
126 106 80
126 106 80
126 106 80
125 106 80
125 106 80
125 105 80
125 105 80
125 105 80
124 105 80
124 105 80
124 104 79
123 104 79
123 103 79
122 103 79
121 103 79
121 102 78
120 101 78
119 101 78
118 100 77
117 99 77
116 98 76
115 98 76
114 97 75
113 96 75
111 94 74
109 93 74
108 92 73
106 91 72
104 89 72
102 87 71
100 85 70
79 68 56
44 39 32
61 38 32
49 42 36
54 49 45
79 71 53
55 50 46
75 66 58
65 56 51
60 55 49
55 50 45
49 45 40
51 46 42
55 49 44
49 45 40
58 52 47
50 45 41
57 51 46
51 45 40
57 51 45
60 54 47
53 48 44
53 49 45
52 48 43
54 49 45
55 50 46
56 51 47
54 49 45
55 50 46
55 50 46
56 51 47
55 51 47
55 50 46
56 51 47
55 50 46
56 51 46
56 51 47
56 51 46
55 50 46
56 51 47
55 50 46
56 51 47
55 51 46
56 51 47
56 51 47
55 50 46
55 50 46
55 50 46
56 51 46
55 51 47
56 51 47
55 50 46
56 51 47
55 50 46
54 49 45
56 51 46
56 51 47
55 50 46
54 49 45
52 47 43
54 49 45
51 47 43
52 47 43
49 44 40
48 44 40
46 42 38
41 37 33
35 32 28
29 26 24
29 26 24
28 26 24
21 19 17
27 24 22
35 32 29
29 25 22
37 33 30
37 33 29
46 42 37
52 47 43
52 47 43
50 46 41
65 55 67
71 58 74
71 58 74
71 58 74
71 58 74
72 59 74
103 83 86
69 57 72
102 82 83
146 117 103
144 115 99
86 70 57
35 32 27
27 25 21
38 33 19
35 33 17
34 31 13
29 27 12
29 27 12
23 22 16
26 23 20
36 33 27
58 53 32
75 67 48
66 60 41
50 45 41
53 48 43
66 61 43
53 48 44
54 49 45
53 48 43
55 50 45
55 50 46
55 50 46
55 50 46
55 50 46
55 50 46
54 49 46
80 71 53
80 71 53
55 50 46
55 50 46
81 73 55
100 89 60
80 72 53
54 49 45
55 50 46
80 72 54
80 72 54
88 81 59
62 55 48
57 52 47
101 90 61
86 77 58
81 72 54
55 51 46
55 50 46
58 52 46
60 54 49
71 63 56
83 75 67
94 84 73
45 36 63
46 37 65
46 37 65
47 37 65
46 37 65
67 52 75
96 74 93
128 99 115
146 112 125
110 88 92
56 51 47
81 72 54
100 88 60
55 51 46
56 51 47
100 89 61
55 50 46
80 71 53
81 72 54
81 72 54
56 51 46
81 72 54
56 51 47
100 89 61
101 89 61
110 93 62
81 73 54
100 89 61
80 72 54
81 73 55
63 50 46
142 126 77
56 51 47
56 51 47
54 49 45
115 102 66
80 72 54
104 88 59
80 71 53
115 102 65
99 88 59
143 126 77
128 109 70
250 221 128
81 66 49
219 48 59
90 37 47
86 36 50
92 38 52
95 39 54
127 51 60
204 71 70
165 66 67
212 84 78
178 69 67
255 104 91
255 127 108
255 160 131
238 172 105
248 203 118
248 209 120
253 210 121
221 182 107
229 195 112
255 243 136
249 220 124
255 251 140
249 220 124
255 239 133
227 201 114
255 231 130
255 255 147
255 255 144
255 254 142
255 255 155
255 255 162
255 255 176
255 255 171
255 255 164
255 255 169
255 255 185
255 255 182
255 255 185
255 255 191
255 255 193
255 255 191
255 255 189
255 255 204
255 255 255
255 255 255
255 255 255
255 255 255
255 255 255
255 255 255
255 255 255
255 255 255
255 255 255
255 255 255
255 255 255
255 255 255
255 255 255
255 255 255
255 255 255
255 255 255
255 255 255
255 255 255
255 255 255
255 255 255
255 255 255
255 255 255
255 255 255
255 255 255
255 255 195
255 255 197
255 255 193
255 255 180
255 255 178
255 255 180
255 255 185
255 255 180
255 255 171
255 255 162
255 255 162
255 255 155
255 255 155
255 254 142
255 255 160
255 255 152
255 243 136
254 223 126
255 255 147
249 220 124
249 220 124
235 207 117
249 220 124
255 232 130
252 223 124
235 207 118
227 200 114
227 201 114
255 226 127
222 198 107
165 146 87
155 137 82
154 136 82
146 128 77
176 155 91
148 132 76
135 120 70
152 136 75
158 140 80
183 163 88
173 153 87
142 125 72
163 144 82
72 64 39
178 157 86
125 111 65
141 125 72
73 65 45
51 46 40
48 44 40
120 104 63
79 71 52
54 49 42
103 90 60
53 48 44
101 97 61
80 72 53
80 71 53
54 50 45
80 72 53
56 51 46
99 88 60
81 72 54
55 50 46
81 72 54
81 72 54
81 72 54
81 72 54
55 50 46
81 72 54
56 51 46
55 50 46
80 72 54
54 49 45
56 51 47
56 51 46
54 51 44
146 125 31
130 107 58
255 255 248
255 255 255
255 255 255
255 255 255
255 255 255
255 255 255
163 136 85
104 89 72
106 90 72
107 91 73
109 92 73
110 93 74
111 95 74
112 95 75
114 96 75
115 97 76
116 98 76
117 99 77
118 99 77
118 100 77
119 101 78
120 101 78
121 102 78
121 102 78
122 103 79
122 103 79
123 104 79
123 104 79
124 104 79
124 105 80
124 105 80
125 105 80
125 105 80
125 105 80
125 105 80
125 105 80
125 105 80
125 105 80
125 105 80
125 105 80
125 105 80
125 105 80
124 105 80
124 105 80
124 104 79
123 104 79
123 104 79
122 103 79
122 103 79
121 102 78
121 102 78
120 101 78
119 101 78
118 100 77
117 99 77
116 98 76
115 97 76
114 97 75
113 96 75
111 94 74
110 93 74
108 92 73
106 91 72
104 89 72
102 88 71
100 86 70
86 74 61
44 45 25
60 36 26
53 36 31
51 45 41
55 50 46
55 50 46
58 53 48
145 91 75
69 63 58
59 53 48
57 52 45
50 45 40
51 46 41
52 48 42
46 42 38
55 50 45
45 41 37
60 55 48
65 59 47
58 53 48
54 49 45
54 49 44
55 50 46
55 50 46
55 50 46
55 51 46
56 51 47
54 50 46
54 50 46
56 51 47
56 51 47
55 50 46
58 52 46
121 96 44
66 57 44
61 54 45
56 51 47
56 51 47
56 50 46
55 51 46
81 72 54
56 51 47
56 51 47
56 51 47
56 51 47
56 51 47
55 50 46
56 51 47
55 50 46
56 51 47
56 51 47
56 51 47
56 51 47
55 51 46
55 50 46
55 50 46
56 51 47
53 48 44
54 50 45
53 48 44
51 46 42
50 45 42
52 47 43
51 46 42
47 42 38
43 39 35
44 40 36
40 36 32
37 33 30
39 35 32
37 34 30
33 29 26
46 42 38
45 41 37
40 36 33
46 41 38
50 46 42
50 45 41
52 47 43
58 50 55
69 57 73
69 56 72
70 58 74
70 57 73
70 57 73
103 83 86
69 57 73
70 57 73
166 132 114
126 101 95
98 78 80
119 95 83
39 35 32
31 29 25
32 30 27
20 19 16
21 19 18
22 20 18
24 22 20
22 20 18
28 26 22
57 52 32
63 57 36
62 57 38
66 60 42
53 48 44
60 53 47
68 62 44
52 47 43
57 51 47
58 52 46
56 51 47
56 51 46
56 50 46
80 72 53
60 54 48
59 53 46
56 51 47
56 51 46
62 48 44
81 72 54
55 50 45
100 89 61
81 73 55
80 71 53
55 50 46
81 72 54
55 50 46
54 50 46
86 77 58
124 59 49
47 34 29
71 54 42
71 55 44
52 47 43
56 51 46
54 48 44
52 47 42
72 68 59
106 95 85
90 82 78
44 35 62
45 36 64
45 36 64
46 37 65
46 37 65
46 37 65
96 75 93
45 36 64
82 64 84
129 100 114
154 119 131
93 80 67
54 49 46
54 49 46
56 51 47
72 53 47
99 88 60
81 73 54
55 50 45
116 103 67
100 89 61
81 72 54
55 50 46
81 72 54
56 51 47
81 72 54
111 94 63
80 72 53
100 89 61
116 103 67
56 51 47
81 72 54
66 50 46
80 71 53
116 103 67
81 72 54
55 50 46
55 50 46
101 89 61
56 50 46
80 71 53
120 103 66
164 145 85
119 100 63
255 255 158
214 176 109
193 115 61
70 27 39
92 38 48
106 44 52
97 40 51
138 56 56
101 42 54
103 42 53
108 45 53
177 70 68
229 93 82
255 113 95
255 193 143
211 179 103
188 155 91
231 200 113
255 218 126
185 163 95
237 202 116
239 208 118
255 244 137
255 229 129
255 254 141
254 221 125
255 255 150
255 255 144
255 255 144
255 255 147
255 255 168
255 255 150
255 255 169
255 255 167
255 255 182
255 255 169
255 255 160
255 255 171
255 255 178
255 255 187
255 255 167
255 255 189
255 255 197
255 255 191
255 255 187
255 255 193
255 255 193
255 255 213
255 255 255
255 255 255
255 255 255
255 255 255
255 255 255
255 255 255
255 255 255
255 255 255
255 255 255
255 255 255
255 255 255
255 255 255
255 255 255
255 255 255
255 255 255
255 255 255
255 255 255
255 255 247
255 255 206
255 255 195
255 255 193
255 255 201
255 255 187
255 255 197
255 255 185
255 255 176
255 255 171
255 255 164
255 255 171
255 255 167
255 255 164
255 255 169
255 255 157
255 255 144
255 255 160
255 255 162
255 243 136
255 248 139
255 243 133
255 254 142
228 201 114
255 255 147
227 201 114
255 249 139
219 194 111
255 232 130
212 187 107
203 180 103
242 213 121
235 207 118
195 172 100
235 207 118
142 126 77
185 163 96
160 142 82
148 131 77
155 137 82
164 146 81
130 115 71
143 126 76
109 98 58
153 135 80
130 115 70
118 106 60
130 116 67
127 113 66
152 135 79
98 87 56
96 85 54
130 117 70
53 48 44
99 88 60
99 88 59
125 110 67
80 71 52
93 81 55
130 115 72
53 48 44
56 51 46
130 115 72
55 50 46
55 50 46
80 72 54
116 103 67
81 72 54
55 50 45
80 72 53
111 98 64
81 72 54
81 72 54
81 72 54
80 72 53
99 88 60
81 72 54
56 51 47
116 103 67
81 72 54
76 67 47
147 127 29
196 160 83
255 255 255
255 255 255
255 255 255
255 255 255
255 255 255
255 255 255
102 88 71
104 89 72
105 90 72
107 91 73
108 92 73
110 93 74
111 94 74
112 95 75
113 96 75
114 97 76
115 98 76
116 98 76
117 99 77
118 100 77
119 100 77
119 101 78
120 102 78
121 102 78
121 102 78
122 103 79
122 103 79
123 104 79
123 104 79
124 104 79
124 104 79
124 105 80
124 105 80
125 105 80
125 105 80
125 105 80
125 105 80
125 105 80
125 105 80
125 105 80
125 105 80
124 105 80
124 105 80
124 104 79
123 104 79
123 104 79
123 103 79
122 103 79
122 103 79
121 102 78
120 102 78
120 101 78
119 100 77
118 100 77
117 99 77
116 98 76
115 97 76
114 96 75
112 95 75
111 94 74
110 93 74
108 92 73
106 91 73
105 89 72
103 88 71
101 86 70
97 84 69
43 38 30
52 41 19
105 46 33
49 42 37
54 49 45
54 49 46
54 50 46
85 78 68
113 105 93
68 62 51
51 48 41
41 37 33
39 36 31
19 17 15
31 28 25
31 28 24
73 65 45
62 57 51
65 59 54
60 55 50
55 51 46
54 49 45
73 64 50
55 51 46
55 50 46
74 64 50
56 51 47
56 51 47
55 50 46
54 49 45
68 57 40
117 82 29
93 74 25
94 75 26
94 75 26
95 75 26
91 73 28
79 65 37
59 53 46
56 51 47
56 51 47
55 50 46
56 51 47
56 51 47
56 51 47
55 50 46
56 51 47
56 51 47
55 50 46
56 51 47
55 51 46
55 50 47
55 50 46
56 50 46
56 51 47
55 50 46
54 49 45
54 49 45
55 50 45
54 49 45
54 49 44
54 49 45
51 46 42
50 45 42
51 47 43
49 45 41
48 44 39
47 42 38
49 45 41
49 45 41
47 42 38
50 45 41
46 42 38
46 42 38
52 47 43
50 45 41
51 46 41
50 46 42
55 50 46
62 51 65
68 55 71
69 57 73
70 57 73
70 57 73
70 57 73
69 57 73
102 82 84
68 56 71
73 59 72
63 52 67
125 100 94
204 156 129
117 95 77
71 63 41
37 34 30
30 28 24
54 44 28
32 29 26
35 32 28
36 33 29
40 36 32
87 78 48
49 44 41
64 58 40
52 48 43
52 48 43
57 50 45
70 63 44
69 63 46
69 63 46
56 51 47
55 50 46
56 51 47
55 50 46
54 49 45
55 50 45
56 51 47
60 54 48
80 71 53
81 73 54
81 73 54
100 89 60
81 73 54
81 72 54
81 72 54
81 73 55
143 126 77
116 103 67
80 72 54
99 88 60
60 55 50
88 72 62
75 40 33
85 63 49
52 43 36
148 81 41
85 50 37
101 83 71
125 115 100
109 98 78
47 39 60
41 33 59
44 35 63
44 35 63
45 36 64
44 35 63
46 36 65
66 52 74
67 52 75
84 65 85
153 118 131
188 145 156
136 106 115
100 89 61
80 71 53
55 50 46
81 73 55
100 89 61
55 50 46
55 50 46
56 51 46
55 50 46
81 72 54
81 73 55
130 115 72
81 72 54
56 51 47
116 103 67
81 73 55
56 51 47
55 51 46
56 51 47
100 89 61
55 50 46
100 89 61
81 72 54
56 51 47
56 50 46
55 51 46
54 46 43
99 88 59
141 125 75
175 154 90
130 114 71
210 185 105
233 206 115
222 195 110
163 153 88
127 40 44
84 35 44
109 45 51
106 42 50
127 50 58
112 46 52
126 52 57
117 46 51
182 74 65
247 81 75
158 79 64
222 161 97
216 180 104
190 163 95
198 164 95
248 214 122
246 204 118
249 220 124
230 189 111
235 207 117
242 213 121
254 221 125
255 255 147
255 243 136
255 255 152
255 249 140
255 226 127
255 255 144
255 255 152
255 255 167
255 255 162
255 255 155
255 255 169
255 255 176
255 255 176
255 255 162
255 255 174
255 255 185
255 255 176
255 255 183
255 255 189
255 255 193
255 255 191
255 255 199
255 255 199
255 255 191
255 255 193
255 255 195
255 255 191
255 255 219
255 255 250
255 255 255
255 255 255
255 255 255
255 255 255
255 255 255
255 255 255
255 255 255
255 255 199
255 255 201
255 255 197
255 255 195
255 255 197
255 255 191
255 255 187
255 255 184
255 255 180
255 255 195
255 255 182
255 255 182
255 255 189
255 255 176
255 255 176
255 255 178
255 255 178
255 255 152
255 255 169
255 255 162
255 248 139
255 255 155
255 255 144
255 249 139
255 226 127
249 220 124
255 254 142
255 232 130
255 249 139
255 226 127
235 207 118
242 214 121
227 201 114
177 156 92
219 194 111
227 201 114
170 151 87
185 164 96
198 176 99
212 187 107
175 155 91
185 164 96
189 168 95
165 146 87
194 171 99
89 81 52
167 148 86
165 146 86
193 171 98
155 137 81
141 125 74
114 101 64
141 124 73
96 86 56
142 126 77
78 70 51
124 109 67
83 70 50
103 88 59
115 102 65
79 70 52
55 50 45
99 88 59
100 89 61
142 126 77
115 102 66
80 72 53
116 103 67
80 72 53
54 49 44
99 88 59
81 73 54
94 82 56
74 64 50
99 88 60
143 127 78
91 74 55
95 83 58
81 72 54
81 72 54
55 50 46
81 73 55
74 64 50
100 89 61
45 39 31
181 153 56
255 255 131
255 255 255
255 255 255
255 255 255
255 255 255
255 255 255
255 255 164
102 87 71
104 89 71
105 90 72
107 91 73
108 92 73
109 93 74
110 94 74
112 95 75
113 96 75
114 97 75
115 97 76
116 98 76
117 99 77
118 99 77
118 100 77
119 101 78
120 101 78
120 102 78
121 102 78
122 103 79
122 103 79
122 103 79
123 104 79
123 104 79
123 104 79
124 104 79
124 104 79
124 105 80
124 105 80
124 105 80
124 105 80
124 105 80
124 105 80
124 105 80
124 105 80
124 104 79
124 104 79
123 104 79
123 104 79
123 103 79
122 103 79
122 103 79
121 102 78
121 102 78
120 101 78
119 101 78
118 100 77
118 99 77
117 99 77
116 98 76
115 97 76
114 96 75
112 95 75
111 94 74
110 93 74
108 92 73
107 91 73
105 90 72
103 88 71
101 86 70
99 85 70
54 46 38
48 40 30
45 30 23
49 42 36
54 49 45
52 47 44
53 48 44
54 49 45
90 81 70
104 92 80
95 82 68
89 76 63
78 68 56
75 64 50
33 30 22
41 38 27
69 62 51
106 97 86
69 63 57
55 50 46
55 50 46
80 72 54
54 49 45
55 50 46
81 72 54
81 72 54
55 50 46
81 72 54
114 92 48
126 99 37
91 72 25
135 106 29
135 105 29
138 108 30
94 75 25
95 76 26
94 75 26
96 76 26
88 71 30
58 53 45
56 51 47
55 50 46
55 49 45
56 51 47
56 51 47
55 50 46
56 51 47
56 51 47
55 51 46
56 51 47
56 51 47
56 51 47
56 51 47
55 50 46
55 50 46
55 50 46
55 50 46
55 50 46
53 48 44
54 49 45
54 49 45
53 48 44
52 48 43
79 70 52
52 47 43
52 47 43
51 46 43
50 46 42
50 45 41
52 47 43
50 46 41
49 45 41
53 48 44
53 48 43
54 49 45
55 50 46
54 49 45
50 46 42
55 49 51
62 51 66
64 52 68
69 56 72
67 55 71
67 55 71
68 56 72
100 81 83
67 55 70
100 80 82
64 53 68
125 100 93
121 97 88
94 76 74
158 126 99
56 49 43
41 37 33
39 35 31
45 41 36
41 37 34
44 40 36
46 42 39
50 45 40
67 61 43
53 48 44
68 54 43
53 48 44
51 46 42
62 55 49
55 50 46
54 49 46
55 50 46
70 64 47
55 50 46
55 50 46
55 50 46
54 49 45
56 51 47
56 50 46
56 51 47
55 50 46
80 71 53
55 51 46
56 51 47
116 103 67
110 94 62
143 126 77
116 103 67
100 89 61
115 102 66
100 89 61
54 49 46
79 71 53
56 51 47
78 67 58
186 120 54
111 61 40
127 62 40
88 67 53
113 95 76
98 88 69
48 42 48
42 33 60
42 34 61
43 35 62
43 34 61
44 35 63
43 34 61
44 35 63
45 36 64
81 63 81
80 62 80
118 92 106
136 105 118
127 98 109
66 58 51
56 51 47
54 49 45
99 88 60
55 50 46
100 89 61
53 48 44
55 50 46
81 73 55
56 51 46
56 51 47
99 88 60
100 89 60
81 72 54
80 72 54
100 89 61
100 89 61
56 51 47
89 72 54
55 50 46
100 89 61
99 88 60
116 103 67
55 50 46
82 73 55
54 49 45
89 72 54
116 102 66
115 101 65
115 101 65
115 101 65
190 163 95
169 144 84
160 134 77
97 68 49
56 31 31
121 39 41
59 24 35
126 51 54
137 55 55
92 37 42
108 45 45
108 44 48
113 46 49
177 58 56
111 80 50
220 191 106
232 188 108
227 199 113
248 214 121
250 209 120
194 157 94
244 208 119
255 233 131
255 245 138
255 232 130
224 194 112
249 220 124
255 255 143
255 226 127
255 255 154
255 227 128
255 255 147
255 255 152
255 255 160
255 254 142
255 255 155
255 255 160
255 255 157
255 255 169
255 255 155
255 255 172
255 255 180
255 255 171
255 255 187
255 255 171
255 255 187
255 255 178
255 255 181
255 255 189
255 255 193
255 255 191
255 255 195
255 255 199
255 255 201
255 255 199
255 255 191
255 255 193
255 255 199
255 255 201
255 255 197
255 255 195
255 255 197
255 255 195
255 255 191
255 255 201
255 255 191
255 255 184
255 255 193
255 255 187
255 255 193
255 255 189
255 255 178
255 255 185
255 255 171
255 255 180
255 255 178
255 255 164
255 255 171
255 255 163
255 255 147
255 255 160
255 255 157
255 255 152
255 254 142
255 255 144
255 243 136
255 237 133
255 249 139
255 243 136
255 237 133
255 254 142
255 249 139
255 226 127
245 217 121
203 179 104
185 164 96
235 207 118
185 164 96
219 194 111
175 155 91
211 187 107
203 180 101
196 174 99
203 179 103
203 179 104
158 138 83
143 127 77
160 142 82
165 146 86
114 102 65
115 102 66
133 116 72
152 133 79
130 115 71
142 126 77
116 103 66
139 111 68
159 107 66
140 98 61
103 86 57
85 71 52
115 102 65
80 71 53
116 103 67
99 89 60
81 72 54
80 72 53
81 72 54
81 72 54
115 102 66
129 115 71
81 72 54
95 83 57
108 90 61
100 89 61
54 49 45
56 51 47
99 88 60
80 72 53
81 72 54
91 74 55
100 89 61
80 71 53
80 72 54
100 89 60
73 63 48
44 37 23
202 167 75
255 255 238
255 255 255
255 255 255
255 255 255
255 255 255
255 255 255
255 225 117
102 87 71
103 88 71
105 89 72
106 91 72
108 92 73
109 93 73
110 94 74
111 95 74
112 95 75
113 96 75
114 97 76
115 98 76
116 98 76
117 99 77
118 100 77
118 100 77
119 101 78
120 101 78
120 102 78
121 102 78
121 102 78
122 103 79
122 103 79
123 103 79
123 104 79
123 104 79
123 104 79
123 104 79
124 104 79
124 104 79
124 104 79
124 104 79
124 104 79
124 104 79
124 104 79
123 104 79
123 104 79
123 104 79
122 103 79
122 103 79
122 103 79
121 102 78
121 102 78
120 102 78
119 101 78
119 100 77
118 100 77
117 99 77
116 99 76
115 98 76
114 97 76
113 96 75
112 95 75
111 94 74
109 93 74
108 92 73
106 91 73
105 89 72
103 88 71
101 86 70
99 85 70
60 51 36
58 41 35
78 51 38
51 41 33
52 46 42
54 49 45
54 49 45
94 82 61
111 95 79
121 103 84
126 107 87
127 108 87
126 107 87
123 105 85
98 84 69
62 54 43
91 83 72
69 63 57
54 49 45
54 50 46
55 50 46
54 49 45
100 89 61
54 49 45
54 50 46
54 50 45
54 49 45
55 50 46
121 96 41
194 150 36
195 151 36
84 66 22
92 73 25
95 76 26
92 73 25
93 74 25
94 75 26
94 75 26
94 75 26
86 70 30
58 52 46
55 50 46
56 51 47
56 51 47
56 51 47
55 51 46
56 51 47
56 51 47
56 51 47
55 50 46
56 51 47
56 51 47
54 49 45
56 51 47
55 50 46
55 50 46
55 50 46
53 48 44
56 51 47
56 51 46
55 50 46
55 50 46
54 49 45
54 49 45
55 50 46
52 47 43
54 49 45
54 49 45
53 48 44
53 48 43
55 50 45
52 47 43
53 48 44
54 49 44
55 50 45
56 51 46
54 50 45
55 50 46
55 48 51
62 51 65
80 60 67
67 55 71
65 53 68
63 52 68
65 53 69
66 54 70
99 80 81
64 52 68
97 78 79
96 77 78
123 98 90
175 130 109
138 110 88
48 44 40
48 44 40
51 45 40
50 46 39
48 44 40
50 45 41
50 45 41
77 69 49
68 62 44
53 48 44
69 63 46
53 49 44
55 50 46
53 49 45
54 49 45
70 64 47
55 49 45
53 48 44
54 49 45
56 51 46
55 50 46
55 50 46
56 51 47
56 51 47
54 49 45
70 63 46
81 72 53
56 51 47
100 89 61
130 116 73
130 115 72
81 72 53
130 115 73
142 126 77
56 51 47
99 89 61
79 71 53
55 50 46
59 53 47
54 49 45
54 49 45
54 49 45
53 48 44
54 50 46
100 89 61
52 47 43
48 43 47
40 32 57
41 33 59
46 39 64
43 34 62
44 35 63
43 34 62
41 33 59
65 51 73
41 33 59
45 35 58
103 79 94
136 105 118
164 123 133
85 69 70
53 49 45
81 72 55
80 72 53
56 51 47
56 51 47
55 50 46
81 72 54
100 89 61
56 51 47
56 51 47
81 72 54
100 89 61
81 72 54
138 119 73
100 89 61
100 89 60
130 115 72
80 72 53
55 50 45
81 73 55
81 72 54
55 50 46
80 71 53
100 89 61
116 103 67
81 72 54
58 50 46
129 114 71
98 86 58
128 113 70
128 113 69
130 113 70
95 83 54
42 35 33
55 34 33
51 29 28
42 26 26
93 38 38
106 43 42
108 42 42
115 45 45
108 43 43
89 34 34
171 141 80
148 120 69
209 165 97
181 154 90
158 127 78
191 150 91
219 187 108
235 196 114
242 213 121
217 187 108
220 193 110
255 239 135
240 208 119
233 202 115
255 255 142
255 255 144
255 237 133
255 255 159
255 252 140
255 255 149
255 243 136
255 255 144
255 255 160
255 255 176
255 255 157
255 255 169
255 255 162
255 255 167
255 255 171
255 255 174
255 255 180
255 255 180
255 255 191
255 255 182
255 255 197
255 255 201
255 255 191
255 255 195
255 255 189
255 255 191
255 255 191
255 255 191
255 255 195
255 255 185
255 255 191
255 255 195
255 255 199
255 255 193
255 255 191
255 255 187
255 255 195
255 255 197
255 255 184
255 255 184
255 255 185
255 255 178
255 255 182
255 255 185
255 255 184
255 255 167
255 255 174
255 255 167
255 255 164
255 255 180
255 255 144
255 255 147
255 255 155
255 255 162
255 255 157
255 255 162
255 255 157
255 255 144
255 255 144
255 243 136
255 249 139
242 214 121
249 220 124
255 248 139
227 200 114
227 201 114
219 194 111
203 179 104
242 214 121
227 201 114
203 179 104
175 155 91
185 164 96
165 146 87
211 187 107
154 136 82
130 115 72
195 172 99
151 133 78
170 151 87
143 126 78
168 149 87
130 115 72
154 136 82
142 126 76
142 126 77
142 125 76
140 113 70
205 147 84
255 169 93
232 141 79
153 93 57
133 81 53
97 58 43
104 65 46
57 48 44
116 103 67
130 115 72
121 107 67
81 73 54
116 103 67
111 97 63
115 103 66
81 72 54
55 49 45
101 90 60
55 50 46
56 51 46
80 72 54
100 89 61
54 49 45
80 71 53
55 50 46
81 73 55
55 50 46
99 89 60
111 98 64
81 73 55
104 89 56
83 69 26
220 179 92
255 255 255
255 255 255
255 255 255
255 255 255
255 255 255
255 255 255
100 86 70
101 87 71
103 88 71
104 89 72
106 90 72
107 91 73
108 92 73
110 93 74
111 94 74
112 95 75
113 96 75
114 97 75
115 97 76
116 98 76
116 99 76
117 99 77
118 100 77
119 100 77
119 101 78
120 101 78
120 102 78
121 102 78
121 102 78
122 103 79
122 103 79
122 103 79
122 103 79
123 104 79
123 104 79
123 104 79
123 104 79
123 104 79
123 104 79
123 104 79
123 104 79
123 104 79
123 104 79
122 103 79
122 103 79
122 103 79
122 103 79
121 102 78
121 102 78
120 102 78
120 101 78
119 101 78
118 100 77
118 99 77
117 99 77
116 98 76
115 97 76
114 97 76
113 96 75
112 95 75
111 94 74
109 93 74
108 92 73
106 91 72
105 89 72
103 88 71
101 86 70
99 85 70
71 61 50
53 41 25
139 70 41
72 56 39
55 48 42
54 48 44
66 57 49
111 96 80
123 105 85
128 109 88
133 112 90
134 114 90
133 113 90
131 112 89
126 107 87
113 97 81
75 65 55
53 48 44
62 57 46
54 49 45
55 51 46
79 71 53
55 50 46
99 88 60
99 88 60
80 71 53
54 49 45
101 89 57
164 127 31
164 127 31
131 103 28
87 69 24
133 104 28
97 76 25
91 72 25
91 73 25
93 73 25
89 71 24
92 73 25
91 73 25
73 60 36
55 51 46
56 51 47
55 50 46
56 51 47
56 51 47
55 50 46
55 51 46
56 51 47
56 51 47
56 51 47
55 50 46
55 50 46
56 51 47
56 51 47
55 51 46
55 50 46
55 50 46
55 50 46
56 51 47
55 50 46
55 51 46
54 49 45
54 49 45
53 48 44
55 50 46
54 49 45
53 48 44
55 50 46
53 48 44
53 48 44
80 72 53
54 49 45
55 50 46
54 49 44
53 48 44
53 49 45
52 48 44
54 48 48
65 52 64
59 48 63
62 51 66
61 50 64
61 50 64
60 49 64
87 68 71
59 48 63
60 50 65
96 77 77
96 77 77
57 47 62
47 38 51
88 71 63
48 44 41
46 41 38
49 44 41
47 43 39
52 47 43
51 46 42
51 47 42
56 51 47
50 45 41
53 48 44
55 50 46
60 53 48
53 49 44
56 51 47
80 72 53
55 50 46
55 50 46
55 50 46
55 50 46
56 51 47
56 51 47
55 51 46
81 72 54
55 50 46
62 55 49
56 51 47
81 72 53
80 72 53
55 50 46
100 89 60
100 89 61
130 115 72
100 89 61
80 72 53
80 72 54
80 72 54
80 71 53
52 48 44
54 49 46
55 50 46
55 50 46
53 48 44
54 49 45
81 72 54
53 48 45
53 48 44
47 42 50
39 31 57
36 29 52
42 33 60
39 31 56
40 32 57
42 34 60
45 35 61
41 32 59
39 31 56
43 34 58
101 77 90
95 73 88
165 127 137
121 95 100
142 125 76
57 51 48
80 75 54
80 71 53
100 89 61
56 51 47
100 89 61
109 92 60
56 51 47
100 89 61
81 72 54
55 50 46
116 103 67
100 89 61
93 78 55
79 71 52
56 51 47
55 50 46
109 93 61
100 89 61
81 72 53
116 103 67
81 72 54
93 78 55
81 72 54
56 51 47
99 88 60
82 72 52
142 125 76
129 114 70
154 136 82
130 114 71
113 99 62
100 85 56
49 38 35
46 33 31
36 28 26
31 22 21
32 23 22
19 16 15
34 19 19
31 21 20
125 107 61
151 121 71
177 144 84
199 169 96
172 145 86
232 200 114
219 175 103
237 202 116
201 172 100
203 179 103
243 214 121
216 187 108
235 207 117
255 226 127
242 213 120
255 249 139
235 207 117
255 243 136
255 255 152
255 254 141
255 255 160
255 243 136
255 255 149
255 232 130
255 255 155
255 255 164
255 255 164
255 255 171
255 255 167
255 255 164
255 255 174
255 255 180
255 255 174
255 255 176
255 255 182
255 255 187
255 255 187
255 255 176
255 255 185
255 255 195
255 255 180
255 255 189
255 255 187
255 255 182
255 255 193
255 255 191
255 255 196
255 255 191
255 255 191
255 255 187
255 255 180
255 255 184
255 255 178
255 255 187
255 255 187
255 255 187
255 255 187
255 255 176
255 255 193
255 255 184
255 255 174
255 255 162
255 255 178
255 255 164
255 255 152
255 255 164
255 255 157
255 255 152
255 255 144
255 237 133
255 255 155
255 255 150
255 255 150
255 237 133
255 243 136
255 255 144
255 249 139
242 213 121
255 226 127
203 179 104
255 226 127
194 172 100
242 214 121
211 187 107
235 207 118
203 179 104
194 171 99
203 179 103
185 164 96
176 155 92
176 155 92
143 126 77
187 165 96
205 180 104
148 132 78
175 155 92
175 155 91
180 159 91
130 115 72
99 88 60
90 81 53
175 138 79
255 182 99
232 141 79
232 141 79
133 81 53
154 94 58
107 66 47
107 66 47
75 46 39
95 56 41
63 46 42
143 126 78
111 97 64
130 115 72
81 72 54
81 72 54
81 73 54
116 103 66
116 103 67
80 72 53
81 72 54
116 103 67
80 71 53
55 50 46
80 71 53
116 103 67
126 110 69
81 72 54
74 64 50
56 51 47
55 49 45
55 50 46
86 72 48
110 90 46
251 205 104
255 255 255
255 255 255
255 255 255
255 255 255
255 255 255
255 255 154
99 85 70
101 86 70
102 88 71
104 89 72
105 90 72
107 91 73
108 92 73
109 93 74
110 94 74
111 95 74
112 95 75
113 96 75
114 97 76
115 97 76
116 98 76
116 99 76
117 99 77
118 100 77
119 100 77
119 101 78
120 101 78
120 101 78
120 102 78
121 102 78
121 102 78
122 103 79
122 103 79
122 103 79
122 103 79
122 103 79
122 103 79
123 103 79
123 103 79
123 103 79
122 103 79
122 103 79
122 103 79
122 103 79
122 103 79
121 102 78
121 102 78
121 102 78
120 101 78
120 101 78
119 101 78
118 100 77
118 100 77
117 99 77
116 98 76
115 98 76
115 97 76
114 96 75
113 95 75
111 95 74
110 94 74
109 93 73
107 92 73
106 90 72
104 89 72
103 88 71
101 86 70
99 85 70
55 47 39
52 51 32
64 44 31
73 53 37
57 48 40
51 43 38
102 81 68
119 102 84
126 108 87
131 111 89
135 114 91
137 116 91
136 115 91
134 114 90
131 111 89
124 106 86
108 92 77
51 45 41
54 49 45
54 49 45
55 50 46
54 49 45
79 70 51
56 51 46
51 47 43
99 88 59
54 49 45
140 112 43
214 166 37
161 125 30
165 128 32
85 67 23
84 66 22
92 74 25
90 72 24
89 71 24
93 74 25
92 73 25
91 72 25
92 74 25
85 69 25
56 51 45
56 51 47
56 51 47
56 51 47
56 51 47
56 51 47
55 50 47
56 51 47
56 51 47
56 51 47
55 51 46
56 51 47
55 50 46
56 51 47
56 51 46
56 51 47
56 51 47
55 50 46
55 50 46
56 51 47
56 51 47
55 50 46
55 50 46
55 51 46
56 51 46
55 50 46
54 49 45
54 49 45
54 49 45
53 49 44
55 50 46
56 50 46
55 50 45
55 50 46
53 48 45
55 50 46
54 49 45
55 50 48
52 43 57
52 43 56
58 48 62
60 49 63
57 46 60
60 49 64
60 49 63
55 45 59
67 54 67
57 47 62
54 44 58
118 94 84
115 91 77
77 67 51
45 41 38
50 45 41
51 46 43
79 71 52
47 42 38
53 48 44
60 53 47
52 47 43
84 75 55
53 49 44
52 48 43
55 50 46
80 72 53
55 50 46
56 51 47
55 50 46
56 51 47
55 49 45
55 51 45
55 50 46
81 73 54
67 64 47
56 51 47
56 51 47
55 50 46
56 51 47
80 72 54
80 72 54
80 72 53
72 58 47
54 60 46
55 50 46
81 72 54
55 50 46
55 50 46
55 50 46
56 50 46
52 47 44
53 48 45
80 72 54
52 47 43
80 71 53
80 71 53
52 48 44
52 47 44
52 47 44
47 42 46
38 31 56
38 30 55
38 31 56
41 33 59
41 33 59
39 31 56
41 32 59
39 31 56
79 61 78
93 72 88
94 73 88
114 88 99
117 90 101
76 68 49
99 89 60
80 71 54
98 87 59
81 72 55
53 48 43
60 53 51
99 88 60
80 72 53
100 89 61
81 73 54
56 51 47
117 103 68
116 103 67
100 89 61
80 72 53
100 89 61
56 51 47
116 103 67
81 72 54
130 115 73
81 72 54
81 73 54
100 89 61
99 88 60
115 102 66
52 47 43
100 89 61
55 50 46
80 71 52
99 87 58
98 86 58
61 47 44
48 43 40
67 44 41
47 42 39
40 33 31
44 35 33
40 30 29
39 31 29
38 30 28
74 61 41
116 98 59
114 96 58
185 161 92
181 153 88
154 134 79
229 200 114
212 186 106
232 200 114
200 172 100
229 200 114
214 181 106
255 232 131
222 188 109
242 213 121
249 220 124
235 207 118
255 232 130
255 243 136
255 248 139
255 255 144
242 213 121
255 243 136
255 255 144
255 255 147
255 255 147
255 255 152
255 255 165
255 255 167
255 255 169
255 255 167
255 255 157
255 255 169
255 255 162
255 255 176
255 255 174
255 255 174
255 255 193
255 255 176
255 255 180
255 255 189
255 255 178
255 255 182
255 255 182
255 255 187
255 255 182
255 255 193
255 255 189
255 255 176
255 255 185
255 255 189
255 255 176
255 255 176
255 255 185
255 255 178
255 255 174
255 255 182
255 255 178
255 255 176
255 255 189
255 255 176
255 255 178
255 255 164
255 255 160
255 255 169
255 255 164
255 255 162
255 254 141
255 255 157
255 255 144
255 255 155
255 255 152
255 243 136
255 237 133
255 248 139
255 254 142
255 226 127
255 243 136
251 220 124
249 220 124
242 213 121
219 194 111
235 207 117
235 207 117
249 220 124
219 194 111
227 201 114
227 200 114
185 163 95
198 176 99
155 137 83
155 137 83
185 164 96
185 164 96
176 155 92
154 137 82
154 136 82
175 155 92
171 151 87
185 163 95
154 137 82
154 136 81
101 90 60
255 216 117
235 142 79
255 156 87
204 124 71
106 65 47
132 80 52
125 75 49
72 45 39
69 43 37
68 42 37
93 55 40
102 87 58
79 71 52
85 74 54
55 50 46
100 89 61
99 88 60
80 71 53
100 89 60
100 89 61
116 103 66
94 82 56
55 50 46
74 64 50
55 49 45
55 50 46
100 89 61
58 52 46
94 82 57
89 76 54
94 82 56
56 51 47
49 42 37
180 147 74
255 234 118
255 255 255
255 255 255
255 255 255
255 255 255
255 255 255
76 63 51
99 85 70
100 86 70
102 87 71
103 88 71
105 89 72
106 90 72
107 91 73
108 92 73
109 93 74
110 94 74
112 95 75
112 95 75
113 96 75
114 97 76
115 97 76
116 98 76
116 99 76
117 99 77
118 100 77
118 100 77
119 100 77
119 101 78
120 101 78
120 101 78
120 102 78
121 102 78
121 102 78
121 102 78
122 103 79
122 103 79
122 103 79
122 103 79
122 103 79
122 103 79
122 103 79
122 103 79
121 102 78
121 102 78
121 102 78
121 102 78
120 102 78
120 101 78
120 101 78
119 101 77
118 100 77
118 100 77
117 99 77
116 99 76
116 98 76
115 97 76
114 97 75
113 96 75
112 95 75
111 94 74
110 93 74
108 92 73
107 91 73
106 90 72
104 89 72
102 87 71
101 86 70
98 84 69
59 50 42
55 38 33
57 52 39
58 40 29
64 50 33
53 35 30
152 142 87
255 221 124
127 108 87
131 111 89
134 114 90
136 115 91
136 115 91
135 114 90
131 111 89
126 107 87
117 100 83
82 65 49
55 50 46
53 48 44
54 49 45
54 49 45
55 50 46
80 71 53
54 49 45
80 72 54
80 72 53
186 144 35
124 96 25
76 59 20
78 62 21
129 101 27
83 66 22
82 65 22
83 66 23
88 70 24
90 71 24
92 73 25
91 73 25
87 69 24
82 66 23
68 57 39
55 50 46
56 51 47
56 51 47
56 51 47
56 51 47
55 50 46
56 51 47
55 51 47
55 50 46
56 51 46
56 51 46
56 51 47
55 50 46
56 51 47
55 51 47
55 51 46
55 50 46
55 50 46
56 51 47
55 50 46
55 50 46
55 50 46
55 50 46
55 50 46
54 49 45
55 50 46
53 49 45
54 49 45
54 49 46
55 50 46
54 49 46
54 49 45
55 50 46
54 49 45
54 49 45
53 49 45
50 45 42
49 42 50
51 41 53
54 45 58
53 43 57
55 45 59
58 47 61
54 44 58
62 51 62
68 56 56
81 62 63
90 72 69
44 36 47
83 66 59
44 40 38
45 41 38
47 43 40
47 43 40
51 46 42
50 46 42
54 49 45
50 45 42
53 48 44
53 48 44
55 51 46
54 49 45
55 49 45
54 49 45
56 51 46
55 50 46
55 50 46
55 50 46
56 51 47
56 51 47
56 51 47
80 72 54
55 50 46
56 51 46
56 51 47
56 51 47
80 72 53
56 51 47
55 50 46
56 51 47
56 51 47
54 50 46
81 72 54
55 50 46
54 50 46
80 72 54
55 50 46
80 71 53
55 50 46
55 50 46
54 49 45
79 70 52
91 75 51
52 47 43
77 69 50
53 47 43
53 48 44
78 70 52
34 28 46
32 26 47
38 31 56
34 27 49
34 28 50
40 32 55
36 29 53
36 29 53
90 63 78
61 48 66
78 60 76
92 71 82
57 45 54
50 45 42
98 87 59
52 46 43
79 70 52
99 88 60
80 71 53
55 50 46
82 73 55
125 105 68
80 72 54
83 73 56
81 72 54
58 52 49
80 72 54
81 72 54
100 89 60
80 72 53
100 89 61
81 72 54
81 72 54
81 72 54
100 89 61
81 72 54
100 89 61
116 103 67
80 72 54
81 72 54
100 89 61
125 107 67
109 92 60
118 104 66
66 48 45
53 47 43
53 44 41
78 69 51
52 43 40
95 83 54
43 37 35
96 83 54
140 122 72
78 66 47
203 177 101
96 83 54
142 124 74
153 134 80
207 183 103
175 154 90
187 163 95
186 162 94
201 172 100
183 156 93
227 200 114
227 200 114
255 226 127
244 209 119
242 213 121
255 237 133
242 213 121
249 220 124
191 165 97
255 248 139
255 237 133
255 255 147
255 226 127
255 232 130
255 255 144
255 243 136
255 255 157
255 255 164
255 255 171
255 255 150
255 255 152
255 255 169
255 255 164
255 255 169
255 255 169
255 255 164
255 255 180
255 255 171
255 255 178
255 255 180
255 255 178
255 255 176
255 255 169
255 255 182
255 255 174
255 255 174
255 255 178
255 255 183
255 255 182
255 255 184
255 255 169
255 255 178
255 255 178
255 255 178
255 255 180
255 255 178
255 255 167
255 255 174
255 255 171
255 255 162
255 255 160
255 255 162
255 255 182
255 255 147
255 255 169
255 255 152
255 255 152
255 255 152
255 255 144
255 255 148
255 255 164
255 237 133
235 207 117
255 243 136
255 254 142
249 220 124
242 214 121
255 232 130
255 252 140
242 214 121
235 207 117
249 220 124
203 179 104
242 214 121
242 214 121
185 164 96
194 172 100
176 155 92
165 146 87
165 146 87
227 200 114
165 146 87
176 155 92
130 115 72
178 156 92
185 163 95
148 132 77
133 116 73
168 147 87
211 186 107
187 164 96
165 146 86
202 137 80
255 194 104
246 149 83
171 104 62
188 114 67
97 58 43
72 45 39
116 68 45
105 64 45
132 76 47
92 54 38
129 74 45
84 42 36
80 72 53
130 115 72
81 72 54
100 89 61
55 50 46
126 110 69
56 51 47
100 89 61
80 72 53
99 88 60
80 72 53
100 89 61
130 115 72
99 88 60
80 71 53
74 64 50
99 88 60
55 50 46
100 89 60
56 51 46
69 57 40
169 133 66
255 212 107
255 255 255
255 255 255
255 255 255
255 255 255
255 255 146
62 51 41
98 84 69
100 86 70
101 87 71
103 88 71
104 89 72
105 90 72
106 91 73
108 92 73
109 93 73
110 93 74
111 94 74
112 95 75
113 96 75
113 96 75
114 97 76
115 97 76
116 98 76
116 99 76
117 99 77
118 99 77
118 100 77
119 100 77
119 101 77
119 101 78
120 101 78
120 101 78
120 102 78
121 102 78
121 102 78
121 102 78
121 102 78
121 102 78
121 102 78
121 102 78
121 102 78
121 102 78
121 102 78
120 102 78
120 102 78
120 101 78
120 101 78
119 101 78
119 100 77
118 100 77
118 100 77
117 99 77
117 99 77
116 98 76
115 98 76
114 97 76
113 96 75
112 95 75
111 95 74
110 94 74
109 93 74
108 92 73
107 91 73
105 90 72
104 89 71
102 87 71
100 86 70
98 84 69
53 44 37
60 48 36
70 61 47
39 31 25
106 79 34
53 46 35
255 238 118
255 255 255
201 158 94
118 96 74
128 107 84
133 113 90
133 113 90
132 112 89
129 110 88
124 106 86
117 100 83
72 55 29
52 46 41
53 48 44
54 49 45
52 48 44
53 48 44
54 49 45
53 48 44
52 47 43
50 46 42
116 90 24
74 54 18
72 56 19
109 81 22
161 125 30
81 64 22
86 68 23
82 64 22
87 69 24
81 65 22
87 69 24
87 70 24
85 68 24
76 63 21
60 53 40
56 51 47
56 51 46
55 50 46
56 51 47
81 73 55
56 51 47
56 51 47
56 51 47
55 50 46
56 51 47
56 51 47
56 51 47
55 50 46
55 50 46
56 51 47
56 51 47
56 51 47
54 49 45
55 50 46
56 51 47
56 51 47
55 50 46
56 51 47
55 50 46
55 51 47
55 51 46
56 51 47
56 51 47
54 49 45
54 49 45
55 50 46
53 49 45
54 49 45
56 51 47
55 50 46
54 49 45
51 47 43
51 45 44
45 37 48
50 40 53
51 42 55
49 40 52
48 39 51
53 42 56
47 38 50
49 40 52
54 39 51
53 41 52
47 38 45
82 66 55
37 33 31
73 65 46
49 45 41
52 47 44
49 45 41
53 48 45
78 70 51
61 54 48
62 55 49
55 50 46
55 50 46
56 50 46
56 51 47
55 50 46
55 50 46
56 51 47
55 50 46
56 51 47
56 51 47
56 51 47
55 50 46
55 51 46
56 51 47
55 50 45
55 50 46
55 50 46
55 50 46
56 51 46
56 51 47
55 50 46
55 50 46
55 50 46
56 51 47
54 49 45
55 50 46
56 51 46
55 50 46
56 51 47
54 49 45
54 50 46
71 56 45
79 70 52
53 48 44
53 47 43
54 49 45
51 46 43
50 45 41
49 44 41
32 28 38
35 28 51
33 27 49
31 25 46
34 27 49
58 46 64
33 27 49
35 28 51
34 28 51
40 31 49
29 23 42
54 42 52
34 30 35
75 67 48
96 85 57
100 89 62
55 49 46
79 70 52
80 72 54
53 48 44
58 52 49
80 72 53
100 89 61
81 72 54
56 51 46
55 50 46
116 103 67
56 51 46
55 50 46
114 98 66
80 72 54
81 73 55
116 103 67
100 89 61
81 72 54
102 91 61
55 50 46
142 126 77
80 72 54
81 73 54
80 71 53
159 137 83
80 71 53
100 89 60
116 102 66
121 102 66
78 70 51
115 102 66
99 87 59
79 70 51
99 87 58
128 113 70
118 101 64
144 125 77
193 170 98
154 135 80
175 154 90
154 135 81
166 146 87
176 155 91
143 125 76
184 163 94
250 220 124
166 146 87
208 180 104
169 147 87
235 207 118
185 163 96
211 187 107
255 237 133
211 187 107
242 213 121
254 221 125
249 220 124
255 226 127
227 201 114
255 232 130
255 226 127
255 237 133
255 254 142
255 249 139
255 255 147
255 255 152
255 255 152
255 255 149
255 255 155
255 255 160
255 255 167
255 255 167
255 255 160
255 255 162
255 255 171
255 255 157
255 255 169
255 255 152
255 255 178
255 255 174
255 255 171
255 255 174
255 255 174
255 255 176
255 255 174
255 255 162
255 255 169
255 255 176
255 255 182
255 255 171
255 255 174
255 255 171
255 255 176
255 255 169
255 255 169
255 255 164
255 255 167
255 255 164
255 255 150
255 255 164
255 255 155
255 255 169
255 248 139
255 255 157
255 255 165
255 255 157
255 244 136
235 207 118
255 255 147
242 214 121
242 214 121
255 237 133
219 194 111
211 187 107
255 254 141
253 224 125
219 194 111
235 207 118
203 179 104
227 201 114
219 194 111
166 146 88
227 201 114
235 207 117
185 164 96
203 179 104
175 155 91
155 137 82
175 155 91
165 146 87
165 146 87
211 187 107
133 116 73
185 163 96
100 89 60
146 127 78
145 127 77
116 103 66
103 89 60
255 166 91
203 123 70
139 81 51
151 92 57
127 66 47
105 64 46
71 43 37
99 45 40
68 42 37
93 54 40
69 42 35
62 38 33
108 61 38
119 93 58
80 71 53
142 126 77
116 103 66
99 88 59
80 72 53
100 89 61
111 97 63
116 103 67
81 72 54
81 73 53
100 89 60
111 97 63
55 50 46
73 63 49
81 72 54
74 64 50
108 90 61
79 70 52
107 92 60
86 68 42
155 118 63
255 216 109
255 255 255
255 255 255
255 255 255
255 255 249
51 37 31
59 42 32
91 78 64
99 85 70
100 86 70
102 87 71
103 88 71
105 89 72
106 90 72
107 91 73
108 92 73
109 93 74
110 94 74
111 94 74
112 95 75
113 96 75
113 96 75
114 97 76
115 97 76
116 98 76
116 98 76
117 99 77
117 99 77
118 100 77
118 100 77
119 100 77
119 100 77
119 101 78
119 101 78
120 101 78
120 101 78
120 101 78
120 101 78
120 102 78
120 102 78
120 101 78
120 101 78
120 101 78
120 101 78
120 101 78
119 101 78
119 101 78
119 100 77
118 100 77
118 100 77
118 99 77
117 99 77
116 99 76
116 98 76
115 98 76
114 97 76
114 96 75
113 96 75
112 95 75
111 94 74
110 93 74
109 92 73
107 91 73
106 90 72
105 89 72
103 88 71
102 87 71
100 86 70
94 81 67
46 38 32
44 39 26
67 50 40
42 34 28
62 47 24
67 59 39
255 234 114
255 255 214
178 135 67
89 69 52
108 86 65
126 106 85
128 109 88
128 109 87
125 106 86
120 102 84
113 97 81
69 53 31
48 41 36
56 51 47
54 49 45
51 47 43
55 50 46
65 56 44
78 70 51
50 45 41
46 42 38
115 89 25
148 103 24
64 50 17
68 53 18
79 62 21
68 51 17
80 63 22
83 66 23
79 62 22
85 67 23
83 64 22
82 65 23
79 63 22
77 62 22
62 54 40
56 51 47
56 51 47
56 51 47
57 51 47
56 51 47
56 51 47
55 51 46
56 51 47
55 50 46
55 50 46
56 51 47
56 51 47
56 51 47
56 51 47
56 51 47
55 50 46
56 51 46
56 51 47
55 50 46
55 50 46
56 51 47
55 50 46
55 50 46
55 50 46
56 51 47
55 50 46
56 51 47
55 50 46
55 50 46
55 50 46
54 49 45
53 49 45
53 48 44
54 49 45
54 49 45
52 47 43
50 46 42
48 44 40
45 39 41
45 37 48
46 38 50
51 42 50
46 36 48
43 35 46
37 30 40
52 42 51
39 32 43
38 31 42
24 20 26
70 62 42
38 34 32
54 47 43
43 39 36
49 45 42
78 69 51
54 49 45
81 66 51
54 49 45
54 49 45
55 50 46
54 49 45
54 49 45
54 50 46
70 63 46
55 50 46
55 50 46
55 51 47
80 72 54
56 51 47
81 72 54
55 50 46
56 51 46
54 50 45
56 51 46
55 51 47
56 51 47
55 51 46
55 51 46
55 50 46
54 49 45
56 50 46
55 50 46
56 51 47
55 50 46
56 51 46
71 57 46
55 50 46
55 51 46
54 49 45
53 48 44
69 55 44
51 46 43
54 49 45
53 48 44
53 48 44
55 50 46
52 47 43
76 68 49
47 43 40
30 25 39
26 21 39
29 23 43
37 29 49
57 45 60
32 26 47
28 23 42
35 27 45
41 32 48
55 42 53
84 70 61
40 35 34
112 99 62
76 68 50
53 48 45
77 69 50
51 47 43
79 70 52
79 70 52
79 71 53
130 115 73
100 89 60
80 71 53
81 72 54
55 50 46
81 72 54
100 89 61
54 49 45
56 50 46
56 51 47
81 72 54
100 89 61
100 89 61
130 115 72
101 90 61
56 51 47
143 126 77
100 89 60
116 103 67
100 89 61
80 71 53
117 104 69
100 88 60
116 103 67
99 88 60
130 115 72
54 49 45
116 102 65
79 70 52
97 86 58
116 102 66
142 125 77
165 145 86
166 146 86
176 155 91
175 154 90
181 155 91
153 136 81
198 171 99
116 103 66
185 163 96
144 126 77
130 115 72
185 163 95
211 186 107
216 187 108
224 195 112
211 187 107
242 214 121
219 194 111
242 214 121
250 220 124
235 207 118
255 226 127
219 194 111
255 238 133
255 249 139
255 255 144
255 243 136
255 255 144
255 243 136
255 254 142
255 237 133
255 255 147
255 232 131
255 255 160
255 255 155
255 255 157
255 255 160
255 255 162
255 255 155
255 255 164
255 255 157
255 255 162
255 255 157
255 255 164
255 255 164
255 255 171
255 255 155
255 255 167
255 255 167
255 255 164
255 255 164
255 255 150
255 255 182
255 255 167
255 255 171
255 255 174
255 255 155
255 255 169
255 255 157
255 255 162
255 255 150
255 255 152
255 243 136
255 255 160
255 255 164
255 255 165
255 255 149
255 255 150
255 249 139
235 207 118
255 255 147
249 220 124
255 255 147
255 249 139
255 233 131
255 226 127
239 211 118
255 226 127
227 201 114
242 214 121
231 204 114
220 194 111
194 172 100
203 179 104
227 201 114
175 155 91
203 179 103
143 126 78
166 146 87
185 164 96
175 155 92
227 201 114
178 156 92
165 146 87
165 146 87
152 127 79
183 158 92
148 132 78
81 72 54
155 137 83
143 127 78
142 126 77
116 103 66
255 179 96
192 116 66
200 114 67
151 92 56
133 81 52
68 42 37
68 41 36
102 63 44
68 42 38
93 54 38
63 39 34
145 82 48
82 47 31
115 99 61
129 115 71
100 89 61
99 88 60
151 132 80
55 50 46
74 64 50
100 89 61
79 71 53
130 115 72
81 72 54
53 49 45
99 88 59
55 50 46
122 105 66
56 51 47
81 72 54
129 114 71
55 50 45
110 96 62
72 54 35
145 102 55
208 170 87
255 255 185
255 255 255
255 255 255
255 147 106
40 32 26
58 37 32
72 59 46
98 84 69
100 86 70
101 87 70
102 88 71
104 89 71
105 89 72
106 90 72
107 91 73
108 92 73
109 93 74
110 93 74
111 94 74
112 95 75
112 95 75
113 96 75
114 97 75
115 97 76
115 98 76
116 98 76
116 98 76
117 99 77
117 99 77
118 99 77
118 100 77
118 100 77
119 100 77
119 100 77
119 101 77
119 101 77
119 101 78
119 101 78
119 101 78
119 101 78
119 101 78
119 101 78
119 101 77
119 100 77
119 100 77
118 100 77
118 100 77
118 100 77
117 99 77
117 99 77
116 98 76
116 98 76
115 97 76
114 97 76
114 96 75
113 96 75
112 95 75
111 94 74
110 94 74
109 93 74
108 92 73
107 91 73
105 90 72
104 89 72
103 88 71
101 87 70
99 85 70
87 75 62
60 42 32
45 37 28
50 35 30
52 109 39
58 45 25
91 65 34
41 34 28
76 59 44
34 24 19
42 34 25
81 63 48
120 102 83
122 104 85
121 103 85
118 101 84
112 96 80
90 78 64
51 42 22
48 42 37
53 49 45
52 47 43
53 48 44
53 48 44
53 48 44
61 53 40
46 42 38
47 43 39
53 42 24
57 44 15
60 46 16
57 44 15
67 53 18
75 57 20
62 49 17
128 85 25
73 57 20
125 82 24
80 62 22
79 62 22
76 60 21
71 58 20
54 49 43
56 51 47
55 50 46
56 51 47
55 50 46
56 51 47
55 51 47
56 51 47
56 51 47
56 51 47
56 51 47
56 51 47
56 51 47
56 51 47
56 51 47
56 51 47
56 51 47
55 50 46
55 50 46
56 51 47
56 51 47
56 51 47
55 50 46
56 51 47
56 51 46
55 50 46
56 51 47
53 49 45
55 50 46
56 51 47
55 51 46
54 50 46
55 50 46
56 50 46
52 47 44
55 50 46
50 45 42
47 42 40
50 46 42
42 38 35
39 34 35
35 30 37
33 27 37
40 32 44
30 24 33
34 27 36
85 68 62
28 23 31
24 20 23
39 33 29
28 26 25
48 41 38
89 74 50
46 42 38
54 49 45
51 47 43
60 53 48
54 49 45
54 49 46
61 54 49
55 50 46
55 50 46
55 50 46
56 51 47
55 50 46
56 51 47
55 50 46
55 50 46
56 51 47
60 54 48
55 50 46
55 50 46
81 73 55
55 50 46
54 49 45
55 50 46
56 51 47
55 50 46
56 51 47
55 50 46
55 50 46
55 50 46
56 51 47
56 51 47
56 51 47
81 72 54
56 51 47
56 51 46
71 57 46
55 50 46
54 49 45
53 48 44
53 48 44
52 48 44
53 48 44
51 46 42
50 45 42
49 45 41
44 39 37
46 42 39
33 30 30
28 22 34
28 22 41
50 30 42
27 22 41
30 24 39
41 28 49
55 43 53
24 19 37
65 57 43
65 57 37
39 36 34
78 68 52
46 42 39
52 45 45
80 71 54
53 48 44
129 114 71
81 72 55
57 51 48
116 103 67
54 49 46
102 81 54
100 89 61
81 72 54
81 72 54
80 72 54
100 89 61
100 89 61
100 89 61
81 73 54
56 51 47
116 103 67
116 103 67
81 73 54
130 115 72
55 50 46
116 103 67
116 103 67
154 137 83
80 72 54
56 50 46
100 89 60
100 89 61
116 103 66
121 102 66
129 115 72
130 115 72
143 126 77
142 125 76
116 102 66
142 125 76
116 102 66
176 155 92
165 146 87
143 127 78
194 171 99
154 136 82
139 117 74
144 126 77
203 179 103
176 155 91
175 155 91
219 194 111
166 146 87
185 164 96
186 164 96
200 172 101
242 214 121
219 194 111
242 214 121
227 201 114
255 232 130
227 201 114
255 255 157
239 209 118
255 255 144
255 243 136
255 243 136
255 243 136
255 254 142
255 255 144
255 249 139
255 255 147
255 255 152
255 248 138
255 255 157
255 255 157
255 255 147
255 255 164
255 255 150
255 254 142
255 255 154
255 255 154
255 255 152
255 255 160
255 255 160
255 255 174
255 255 164
255 255 169
255 255 149
255 255 157
255 255 178
255 255 160
255 255 152
255 255 167
255 255 174
255 255 167
255 255 155
255 255 150
255 255 169
255 255 165
255 255 160
255 243 136
255 255 150
255 255 150
255 243 136
255 255 157
255 241 135
255 255 150
255 226 127
255 254 142
255 243 136
255 243 136
255 226 127
235 207 118
255 252 140
219 194 111
219 194 110
203 179 104
227 201 114
185 164 96
227 201 114
219 194 111
249 220 124
211 187 107
211 187 107
219 194 111
192 169 97
175 155 91
176 155 92
143 127 78
194 172 100
130 115 73
165 146 87
178 156 92
157 138 83
120 105 68
236 208 118
157 137 82
149 129 79
184 163 95
185 163 95
129 114 70
118 103 66
196 118 66
186 113 64
130 78 49
106 64 44
101 61 42
72 44 38
65 40 36
67 42 37
94 55 38
62 37 33
90 52 37
61 36 29
60 36 30
100 73 46
78 70 51
55 50 46
100 89 61
130 115 72
117 104 67
99 88 60
55 50 46
79 71 52
74 64 50
95 83 57
126 110 69
54 48 44
80 72 53
115 102 65
54 50 45
54 49 45
54 49 45
80 71 53
122 103 65
47 31 26
122 97 54
220 179 92
255 255 133
255 255 156
229 165 88
133 54 46
48 40 33
114 95 31
52 33 26
87 74 61
99 85 70
100 86 70
102 87 71
103 88 71
104 89 72
105 90 72
106 90 72
107 91 73
108 92 73
109 93 74
110 93 74
111 94 74
111 95 74
112 95 75
113 96 75
114 96 75
114 97 76
115 97 76
115 98 76
116 98 76
116 98 76
117 99 77
117 99 77
117 99 77
118 99 77
118 100 77
118 100 77
118 100 77
118 100 77
118 100 77
118 100 77
118 100 77
118 100 77
118 100 77
118 100 77
118 100 77
118 99 77
117 99 77
117 99 77
117 99 77
116 98 76
116 98 76
115 98 76
115 97 76
114 97 76
113 96 75
113 96 75
112 95 75
111 94 74
110 94 74
109 93 74
108 92 73
107 91 73
106 90 72
105 89 72
103 88 71
102 87 71
100 86 70
99 85 70
73 63 52
46 39 32
52 42 34
44 35 30
32 67 31
55 43 23
56 46 37
47 39 34
71 59 41
36 28 20
31 24 19
81 69 57
107 90 75
108 92 77
112 95 80
118 82 70
80 63 54
54 47 40
41 34 27
51 46 42
53 48 44
53 49 45
52 47 43
49 45 41
50 46 41
47 42 38
48 43 39
40 36 33
41 36 31
43 31 11
54 42 14
59 47 16
60 47 16
62 49 17
63 48 17
72 56 20
74 57 20
71 55 19
75 58 20
70 55 20
68 54 19
58 49 31
51 47 43
56 51 47
56 51 47
56 51 47
55 50 46
56 51 47
55 50 46
56 51 47
56 51 47
56 51 47
56 51 47
56 51 46
55 51 47
56 51 47
56 50 46
56 51 47
56 51 47
56 51 47
56 51 47
55 51 46
56 51 47
56 51 47
55 50 46
56 51 47
55 50 46
56 51 47
56 51 47
56 51 47
55 51 47
55 51 46
55 50 46
55 50 46
54 49 45
54 50 46
53 49 45
55 48 44
52 47 44
48 43 41
44 40 38
39 36 34
36 32 31
33 30 29
27 24 26
24 21 24
25 21 26
16 13 18
18 16 17
20 17 17
24 21 21
26 24 23
39 36 34
44 40 38
45 41 38
48 43 40
68 62 45
53 49 45
54 49 45
55 50 46
54 49 45
81 72 54
55 50 46
56 51 46
54 49 46
55 50 46
56 51 47
55 50 46
56 51 47
56 51 46
55 50 46
56 51 47
56 51 47
56 51 47
55 50 45
55 50 46
56 51 47
56 51 47
56 51 47
55 51 47
55 51 46
55 50 46
56 51 47
56 50 46
56 51 47
55 50 46
53 49 45
56 51 47
55 50 46
55 50 46
85 75 57
55 49 45
56 51 47
52 47 44
56 51 47
52 47 43
70 55 44
51 46 42
47 43 40
45 41 38
45 41 38
47 41 37
37 34 32
35 32 30
30 25 30
26 20 31
18 14 27
17 13 26
26 21 33
18 14 25
21 18 21
87 77 46
67 59 39
41 37 35
73 65 46
53 48 45
51 46 43
52 47 44
53 48 44
114 101 65
81 72 55
82 73 56
100 89 61
55 50 46
80 72 53
81 72 54
81 72 54
81 72 54
56 50 46
56 51 46
56 51 47
81 73 54
100 89 61
80 72 54
56 51 47
116 103 67
130 115 73
100 89 61
100 89 61
100 89 61
117 104 67
143 126 77
56 51 47
100 89 61
91 72 54
100 89 61
100 89 61
117 103 67
116 103 67
130 115 72
116 102 66
154 136 82
100 89 61
143 126 78
175 155 91
131 115 72
211 187 107
185 164 96
203 179 103
166 146 87
175 155 91
154 136 82
228 200 114
176 155 92
195 172 100
203 179 103
194 172 100
185 163 96
176 155 92
194 172 100
247 214 122
203 179 104
242 214 121
220 194 111
255 238 133
255 232 130
211 187 107
227 200 114
211 187 107
227 201 114
219 194 111
249 220 124
227 201 114
255 226 127
255 232 130
255 255 144
255 249 139
255 232 130
255 255 144
255 255 160
255 255 157
255 255 147
255 255 144
255 255 157
255 255 150
255 255 157
255 255 155
255 255 152
255 252 139
255 255 169
255 255 162
255 255 152
255 255 164
255 255 160
255 255 152
255 255 165
255 255 162
255 255 147
255 255 152
255 249 139
255 255 162
255 255 144
255 255 147
255 255 157
255 254 142
255 255 155
255 255 144
255 255 160
255 248 139
255 254 142
255 255 152
255 255 150
255 255 144
255 243 136
255 255 144
219 194 111
242 214 121
249 220 124
211 187 107
255 237 133
253 224 125
246 218 122
203 179 103
203 179 103
194 172 100
203 179 104
219 193 110
165 146 87
235 207 118
185 164 96
194 172 100
185 163 95
165 146 87
166 146 87
155 137 83
143 127 78
104 91 62
130 116 73
116 103 67
190 166 96
157 137 83
116 103 66
104 90 60
157 137 82
146 128 78
80 72 54
121 104 65
225 137 74
165 92 54
157 83 50
64 40 36
63 39 35
65 41 36
64 39 35
65 40 33
55 33 30
112 64 41
81 46 30
67 37 28
104 59 35
46 32 29
98 87 59
54 48 44
100 89 60
111 97 63
126 103 66
94 82 56
80 72 54
80 72 53
59 53 47
99 88 60
138 121 74
55 50 45
91 74 55
79 71 52
94 82 57
80 72 54
81 72 54
55 49 45
127 105 65
48 33 27
89 68 41
230 188 96
255 244 123
255 238 119
162 132 70
89 58 40
67 52 47
44 34 34
77 60 46
55 47 36
96 82 68
99 85 70
101 86 70
102 87 71
103 88 71
104 89 72
105 90 72
106 91 72
107 91 73
108 92 73
109 93 73
110 93 74
111 94 74
111 95 74
112 95 75
113 96 75
113 96 75
114 96 75
114 97 76
115 97 76
115 98 76
116 98 76
116 98 76
116 98 76
117 99 77
117 99 77
117 99 77
117 99 77
117 99 77
117 99 77
117 99 77
117 99 77
117 99 77
117 99 77
117 99 77
117 99 77
117 99 77
116 99 76
116 98 76
116 98 76
115 98 76
115 97 76
114 97 76
114 97 75
113 96 75
113 96 75
112 95 75
111 94 74
110 94 74
109 93 74
108 92 73
107 92 73
106 91 73
105 90 72
104 89 72
103 88 71
101 87 71
100 86 70
98 84 69
49 42 35
47 39 33
52 44 36
46 39 33
43 107 35
49 38 27
49 41 34
49 41 36
66 53 38
47 39 34
44 37 32
47 39 34
52 45 38
76 64 54
96 57 48
56 36 33
50 40 36
48 41 36
42 36 31
51 46 42
53 48 44
53 47 43
51 47 42
51 46 42
50 45 41
50 45 41
42 38 34
41 37 33
42 38 34
38 31 21
45 35 12
40 31 11
50 38 13
117 75 21
58 43 15
63 50 17
54 41 15
60 45 16
69 51 18
62 46 16
61 50 21
52 47 42
51 46 42
56 51 47
55 50 46
55 50 46
56 51 47
56 51 47
55 51 46
56 51 47
56 51 47
56 51 47
56 51 47
56 51 47
56 51 47
56 51 47
56 51 47
55 50 46
56 51 47
56 51 46
55 51 47
56 51 47
56 51 47
56 51 47
56 51 47
56 51 47
56 51 47
55 50 46
55 50 46
55 50 46
56 51 46
56 51 47
52 48 44
53 49 45
53 48 44
52 48 44
55 50 46
52 47 44
50 46 42
46 42 40
43 39 37
39 36 34
44 40 37
35 32 31
31 28 27
28 26 25
25 22 22
26 24 23
31 28 27
31 28 27
32 29 28
38 34 33
46 42 39
46 42 39
50 45 42
50 45 42
53 48 44
54 49 45
61 53 48
52 48 44
55 50 46
53 48 45
55 50 46
55 50 46
55 51 47
56 51 47
57 51 47
55 50 46
56 51 47
72 58 47
56 51 47
56 51 47
55 50 46
55 51 46
55 50 46
81 72 54
55 50 45
56 51 47
55 50 46
55 50 46
56 51 47
55 50 46
55 51 46
55 50 46
56 51 47
55 50 46
56 51 47
55 50 46
56 51 47
54 49 45
55 50 46
54 49 46
53 48 44
54 49 45
56 51 47
52 47 44
52 48 44
51 46 42
52 47 43
52 47 43
56 43 40
45 40 37
39 36 34
34 31 30
30 27 26
16 14 14
25 23 21
13 12 12
13 12 12
25 23 22
29 26 25
31 28 27
70 62 43
74 66 48
43 39 37
78 70 52
49 45 41
98 87 59
78 70 52
53 49 45
100 89 61
81 73 54
81 72 54
99 88 60
115 102 66
100 89 61
81 72 54
81 72 54
100 89 60
100 89 61
55 51 47
55 50 46
56 51 47
100 89 61
100 89 61
81 73 54
81 73 55
100 89 61
100 89 61
100 89 61
143 126 78
100 89 61
116 103 67
132 117 74
80 72 54
100 89 61
85 75 55
116 103 67
175 155 92
130 115 72
100 89 61
101 89 61
116 103 67
130 116 73
155 137 82
155 137 83
130 115 73
143 126 77
185 164 96
130 115 72
194 172 100
191 165 97
194 172 100
175 155 91
175 155 91
143 126 78
185 163 95
212 187 107
176 155 92
249 220 124
219 194 111
200 172 101
235 207 118
211 187 107
228 201 114
227 201 114
227 201 114
227 201 114
227 201 114
255 254 142
185 164 96
211 187 107
249 220 124
255 237 133
255 255 144
255 249 139
249 220 124
255 238 133
255 255 160
255 254 142
255 255 162
255 255 144
255 249 139
255 255 147
255 255 144
255 254 141
255 232 130
255 255 157
255 255 162
255 255 155
255 255 157
255 254 142
255 255 155
255 255 147
255 237 133
255 255 147
255 255 155
255 255 157
255 255 147
255 255 149
255 232 130
255 255 164
255 243 136
255 248 139
255 255 149
255 255 147
255 255 150
255 226 127
255 237 133
255 232 130
255 255 149
255 255 144
246 217 122
242 214 121
249 220 124
231 204 114
242 214 121
203 179 103
255 232 130
255 226 127
249 220 124
232 205 116
175 155 91
234 205 116
255 226 127
155 137 83
149 133 79
235 207 118
242 214 121
185 164 96
175 155 91
130 116 73
143 126 78
154 137 82
143 126 78
176 155 92
175 155 91
143 127 78
165 146 87
146 128 78
142 126 77
145 127 77
157 137 82
129 114 70
160 139 82
136 117 72
136 110 69
158 96 58
194 112 63
52 32 29
123 63 43
99 44 35
57 35 31
91 38 34
57 34 31
99 34 29
87 51 36
60 37 30
80 46 30
43 25 19
41 33 30
79 71 52
92 80 54
74 64 49
100 89 60
80 71 53
134 117 71
80 71 53
80 71 53
80 71 53
94 82 56
81 72 54
54 48 44
111 97 63
116 103 66
73 63 49
54 49 45
54 49 45
80 72 53
67 50 44
52 31 23
127 94 50
183 150 78
208 170 88
255 223 113
220 179 92
83 68 43
39 33 29
33 26 27
69 58 40
52 47 35
72 55 45
98 85 69
100 85 70
101 86 70
102 87 71
103 88 71
104 89 72
105 90 72
106 90 72
107 91 73
108 92 73
109 93 73
109 93 74
110 94 74
111 94 74
112 95 75
112 95 75
113 96 75
113 96 75
114 96 75
114 97 76
115 97 76
115 97 76
115 98 76
116 98 76
116 98 76
116 98 76
116 98 76
116 98 76
116 98 76
116 98 76
116 98 76
116 98 76
116 98 76
116 98 76
116 98 76
116 98 76
115 98 76
115 97 76
115 97 76
114 97 76
114 97 75
113 96 75
113 96 75
112 95 75
112 95 75
111 94 74
110 94 74
109 93 74
109 92 73
108 92 73
107 91 73
106 90 72
104 89 72
103 88 71
102 87 71
101 86 70
99 85 70
92 79 65
48 40 33
55 43 33
57 48 40
47 40 33
28 48 25
46 37 27
40 33 27
46 39 34
48 40 35
48 40 35
48 40 35
50 42 36
50 42 37
50 42 36
49 41 36
48 40 35
49 42 37
48 40 35
46 40 36
54 49 45
51 46 42
65 56 44
52 47 43
53 48 44
49 44 40
52 47 43
47 42 38
37 33 30
38 34 31
67 59 38
29 24 15
36 26 10
44 33 12
98 71 17
45 34 12
52 37 13
50 38 13
55 43 15
49 38 14
46 36 17
48 42 33
50 45 41
52 47 43
56 51 47
55 50 46
56 51 47
55 50 46
56 51 47
56 51 47
55 50 46
56 51 47
55 51 47
55 50 46
56 51 47
56 51 47
56 51 46
56 51 47
56 51 47
55 51 46
56 51 46
55 50 46
55 51 46
55 50 46
55 51 46
56 51 47
55 50 46
56 51 47
56 51 47
55 50 46
55 50 46
56 51 47
56 51 47
56 51 47
54 49 45
55 50 46
54 49 45
52 47 44
53 48 45
53 48 45
48 43 40
50 46 43
48 44 41
49 44 42
38 34 32
38 35 33
35 32 30
38 34 32
36 33 31
40 36 34
37 34 32
42 38 36
46 42 39
47 43 40
52 48 44
50 45 42
78 70 52
54 49 45
54 49 45
55 50 46
53 48 44
55 50 46
55 50 46
55 50 46
55 50 47
56 51 47
55 50 46
55 50 46
56 51 47
56 51 47
55 50 46
55 51 47
56 51 47
55 50 46
55 50 47
81 72 54
55 50 46
55 50 46
56 51 47
56 51 46
55 50 46
56 51 47
55 50 46
55 50 47
56 51 47
55 50 46
56 51 47
56 51 47
56 51 47
55 50 46
55 50 46
56 51 47
55 50 46
54 49 46
52 48 44
53 48 44
55 50 46
55 50 46
52 48 44
53 48 45
49 45 42
48 44 41
44 40 38
43 39 37
37 34 32
40 36 34
30 28 26
34 31 29
90 80 50
90 80 49
68 60 40
38 34 33
40 36 34
48 42 40
47 43 40
75 67 49
112 99 63
50 45 42
98 87 59
52 47 43
116 103 67
79 70 52
100 89 61
55 50 46
55 50 46
100 89 61
56 51 47
56 51 47
83 74 57
100 89 61
81 72 54
100 89 61
85 75 55
93 78 55
100 89 60
116 103 67
116 103 67
80 72 54
81 72 54
81 72 54
100 89 61
100 89 61
118 105 68
100 89 61
100 89 61
116 103 67
116 103 67
116 103 67
142 126 77
143 127 78
130 115 73
143 127 78
155 137 82
130 115 73
154 136 82
130 115 73
143 127 78
176 155 92
143 126 78
130 115 73
116 103 66
185 164 96
143 127 78
130 115 73
115 102 66
155 137 83
203 179 104
176 155 92
203 179 104
200 173 101
194 172 100
219 194 111
185 164 96
219 194 111
211 187 107
204 179 104
235 207 118
249 220 124
242 214 121
255 243 136
219 194 111
235 207 118
195 172 100
235 207 118
255 254 142
235 207 118
235 207 117
203 179 104
255 255 144
255 255 150
227 201 114
219 194 111
255 255 147
255 254 142
255 255 155
255 226 127
255 255 150
255 255 147
255 255 152
255 255 160
255 249 139
255 255 155
255 255 152
255 243 136
255 255 150
255 255 150
249 220 124
255 232 130
255 255 147
255 237 133
255 255 147
255 238 133
255 255 144
255 255 152
255 249 139
255 255 150
235 207 118
249 220 124
249 220 124
255 237 133
255 232 130
219 194 111
255 232 130
255 232 130
249 220 124
255 253 125
255 255 151
255 255 123
188 167 96
255 232 130
242 214 121
203 179 103
237 208 117
211 186 107
211 187 107
194 172 100
247 217 122
229 201 114
175 155 91
211 187 107
175 155 91
203 179 104
175 155 91
154 137 82
146 128 78
185 164 96
149 129 79
165 146 87
165 146 87
203 179 103
133 116 72
133 116 73
119 104 67
99 88 60
119 103 66
157 137 83
132 115 72
73 55 45
132 103 62
129 67 42
94 43 32
129 62 41
86 33 30
55 31 29
57 34 29
52 32 29
48 29 27
80 46 30
51 31 25
43 25 20
101 57 32
96 84 55
96 85 56
113 100 63
98 87 58
51 46 43
72 62 48
73 63 49
151 133 80
54 49 45
80 72 53
100 89 61
80 71 53
125 109 68
80 71 53
55 50 46
79 70 52
54 49 45
79 70 51
80 71 53
92 70 48
40 28 23
129 104 55
167 135 71
194 158 82
227 192 78
189 156 79
122 98 55
144 78 48
92 69 42
50 41 34
109 80 41
62 48 33
82 69 58
99 85 70
100 86 70
101 87 70
102 87 71
103 88 71
104 89 72
105 90 72
106 90 72
107 91 73
107 92 73
108 92 73
109 93 74
110 93 74
110 94 74
111 94 74
112 95 75
112 95 75
112 95 75
113 96 75
113 96 75
114 96 75
114 97 75
114 97 76
115 97 76
115 97 76
115 97 76
115 97 76
115 98 76
115 98 76
115 98 76
115 98 76
115 97 76
115 97 76
115 97 76
115 97 76
114 97 76
114 97 75
114 96 75
113 96 75
113 96 75
112 95 75
112 95 75
111 95 74
111 94 74
110 93 74
109 93 74
108 92 73
107 92 73
107 91 73
106 90 72
105 89 72
103 88 71
102 87 71
101 87 70
100 85 70
98 84 69
66 57 47
48 39 32
127 82 29
189 155 77
54 45 37
33 33 24
40 34 27
38 32 28
39 33 29
40 33 29
72 59 41
48 41 35
49 41 36
50 42 36
47 39 34
49 41 35
49 41 36
47 40 34
49 42 37
50 45 42
54 49 45
50 45 41
53 48 43
51 47 42
51 46 42
50 46 42
50 45 41
46 42 38
44 40 36
38 34 31
28 25 23
23 20 18
22 19 13
35 28 10
41 32 11
41 29 11
43 32 12
52 40 14
53 43 18
36 29 17
41 36 30
43 39 35
48 43 39
49 45 40
56 51 47
55 50 46
56 51 47
56 51 47
56 51 47
56 51 47
56 51 47
55 51 46
56 51 47
56 51 47
56 51 47
55 50 46
55 51 47
56 51 47
56 51 47
54 49 45
56 51 47
56 51 47
56 51 46
55 50 46
55 50 46
56 51 47
56 51 47
56 51 47
56 51 47
55 50 46
56 51 47
55 50 46
54 49 46
55 50 47
55 50 46
54 49 45
55 50 46
54 49 46
55 50 46
55 50 46
78 70 51
50 45 42
49 44 41
48 44 41
46 42 39
44 40 38
44 40 38
44 40 37
46 41 39
46 42 39
45 41 39
47 43 40
48 44 41
52 47 43
49 44 42
54 49 45
55 50 46
55 50 46
54 49 45
55 50 46
81 73 55
55 50 46
54 49 45
55 50 46
76 63 53
55 50 46
56 51 47
56 51 47
55 51 47
56 51 47
56 51 47
56 51 47
56 51 46
81 73 55
56 50 46
56 51 47
55 50 46
54 50 46
55 50 46
56 51 47
56 51 47
56 51 47
55 50 46
56 51 47
55 50 46
56 51 47
55 51 47
56 51 47
56 51 46
55 50 46
55 50 46
54 49 45
55 50 46
56 50 46
54 49 45
55 50 46
55 50 46
54 50 46
54 49 45
54 49 46
50 45 42
50 45 42
49 45 42
43 39 38
44 40 37
43 39 37
43 39 36
92 82 52
43 39 37
41 38 35
48 43 41
43 40 37
95 84 55
52 48 44
50 46 43
52 48 44
53 48 45
99 88 60
81 72 54
53 48 45
54 50 46
56 51 47
100 89 60
100 89 61
55 50 46
56 51 47
56 51 47
81 73 55
81 72 54
94 78 56
130 115 73
57 51 46
116 103 67
81 72 54
100 89 61
81 73 54
56 51 47
100 89 61
81 73 54
100 89 61
116 103 67
100 89 61
81 72 54
81 72 54
116 103 67
100 89 61
101 89 61
81 72 54
100 89 61
155 137 83
100 89 61
116 103 67
130 116 73
116 103 67
116 103 67
116 103 67
175 155 91
100 89 61
165 146 87
155 137 83
154 137 83
194 172 100
100 89 61
155 137 83
185 164 96
154 137 83
154 137 83
194 172 100
176 155 92
155 137 83
176 155 92
143 127 78
194 172 100
219 194 111
211 187 107
219 194 111
225 195 112
203 179 104
247 214 121
176 155 92
192 165 97
235 207 118
249 220 124
227 201 114
249 220 124
203 179 104
255 249 139
255 255 144
255 226 127
255 226 127
255 226 127
255 255 144
255 232 130
255 249 139
255 255 144
255 255 144
255 232 130
226 195 111
255 255 157
255 226 127
255 255 142
255 244 136
255 244 137
255 249 139
249 220 124
255 249 139
255 254 142
255 254 142
255 255 147
255 255 144
255 255 144
255 255 144
255 249 139
255 243 136
255 243 136
255 232 130
255 243 136
255 255 147
242 213 121
255 237 133
235 207 118
255 224 126
255 226 127
255 255 124
255 255 131
255 255 118
255 255 108
226 212 83
255 255 123
255 255 119
192 175 88
220 194 111
235 207 118
195 172 99
211 187 107
165 146 87
154 136 82
219 194 111
143 126 78
219 194 111
219 194 111
185 163 95
194 172 100
130 115 72
175 155 91
146 128 78
227 200 114
134 117 73
116 103 67
154 136 82
167 146 86
143 126 78
104 90 61
154 136 82
151 129 78
169 146 86
146 126 75
147 126 74
102 73 51
156 116 66
89 36 28
45 27 25
57 30 25
52 32 29
62 35 29
53 28 25
44 27 25
77 43 27
85 48 29
75 43 27
42 36 33
67 58 42
50 45 41
109 95 61
79 70 52
79 70 52
93 81 56
53 48 43
54 49 45
80 71 53
79 71 52
79 70 52
81 72 54
116 103 66
55 50 46
100 89 60
125 110 68
55 49 45
55 50 45
56 51 46
76 67 48
33 24 20
82 67 40
153 124 66
138 113 61
140 125 45
142 118 61
255 153 84
141 52 40
142 104 54
63 50 40
81 68 52
63 44 32
67 53 39
87 75 62
99 85 70
100 86 70
101 86 70
102 87 71
103 88 71
104 89 72
105 89 72
106 90 72
106 91 72
107 91 73
108 92 73
108 92 73
109 93 74
110 93 74
110 94 74
111 94 74
111 95 74
112 95 75
112 95 75
113 96 75
113 96 75
113 96 75
113 96 75
114 96 75
114 96 75
114 97 75
114 97 75
114 97 75
114 97 76
114 97 75
114 97 75
114 96 75
114 96 75
114 96 75
113 96 75
113 96 75
113 95 75
112 95 75
112 95 75
111 94 74
111 94 74
110 94 74
110 93 74
109 93 73
108 92 73
107 92 73
107 91 73
106 90 72
105 89 72
104 89 71
102 88 71
101 87 71
100 86 70
99 85 70
87 75 62
46 39 33
47 39 32
61 42 23
90 71 46
46 39 33
40 34 28
41 34 29
35 30 26
33 29 27
22 18 16
33 27 23
42 35 30
45 38 33
65 52 36
46 38 33
46 39 33
45 38 33
45 39 35
46 42 38
52 47 43
52 47 43
53 48 43
50 45 41
55 50 45
53 47 44
61 51 41
49 44 40
50 45 41
44 39 36
41 37 34
54 45 31
28 25 23
22 20 17
20 18 16
19 17 14
22 18 13
27 22 15
25 22 17
31 28 25
36 32 29
41 37 34
44 40 36
42 38 34
50 45 41
55 50 46
56 51 47
55 50 45
56 51 47
55 50 46
56 51 47
55 50 46
55 50 46
55 50 46
55 50 46
56 51 47
55 50 46
56 51 47
56 51 47
55 50 46
55 50 45
56 51 47
56 51 47
56 51 47
55 50 46
55 51 47
56 51 47
56 51 47
56 51 47
55 50 46
55 50 46
56 51 47
55 50 46
55 50 46
55 50 46
55 50 46
56 51 47
55 50 46
56 51 47
53 48 45
53 49 45
53 48 45
48 44 41
50 46 42
49 45 42
50 45 43
48 43 40
78 70 51
48 44 41
48 43 40
50 46 42
49 44 41
50 45 42
53 48 45
53 48 44
54 49 45
53 48 44
55 50 46
81 72 54
53 49 45
55 50 46
55 50 47
55 50 46
100 89 61
55 50 46
56 51 47
56 51 46
56 51 46
55 50 47
100 89 61
55 50 46
56 51 46
55 50 46
56 51 47
55 50 46
56 51 47
81 72 54
55 51 47
81 72 54
56 51 47
56 51 47
55 51 46
56 51 47
56 51 47
56 51 47
56 51 47
55 51 46
55 50 47
56 51 47
81 73 55
56 51 47
56 51 46
55 50 46
55 50 46
55 50 46
54 49 45
53 48 45
56 51 47
53 48 45
52 47 44
53 48 45
78 70 51
54 49 45
50 45 42
52 47 44
49 44 41
51 46 43
50 46 42
47 43 40
46 42 39
48 44 41
44 40 37
75 67 49
77 69 50
94 83 54
51 47 43
52 48 44
79 70 52
99 88 60
54 49 45
80 72 54
80 72 53
55 50 46
103 91 62
116 103 67
56 51 47
55 50 46
56 51 47
82 73 56
55 50 46
81 73 55
101 90 63
55 50 46
80 72 54
100 89 61
56 51 47
100 89 61
81 73 54
81 73 55
116 103 67
116 103 67
100 89 61
130 116 73
156 138 83
100 89 61
81 73 55
100 88 60
116 103 67
116 103 67
130 115 73
56 50 46
155 137 83
143 126 77
130 115 73
130 116 73
130 115 73
130 115 73
165 146 87
143 126 77
143 127 78
130 116 73
155 137 83
155 137 83
177 156 92
155 137 83
157 138 83
175 155 91
194 172 100
211 187 107
155 137 83
165 146 87
116 103 67
165 146 87
176 155 92
176 155 92
211 187 107
203 179 104
218 188 108
176 155 92
255 232 130
219 194 111
194 172 100
227 201 114
235 207 118
242 214 121
203 179 104
255 226 127
185 164 96
249 220 124
235 207 118
255 243 136
255 243 136
255 254 142
255 232 130
255 237 133
255 243 136
249 220 124
227 201 114
255 254 142
255 249 139
255 243 136
255 239 133
255 232 130
255 238 134
255 254 141
255 237 133
255 237 133
255 254 142
249 220 124
255 255 144
255 232 130
255 226 127
255 254 142
227 201 114
227 201 114
255 241 134
255 238 133
242 213 121
242 213 121
231 205 115
212 187 107
228 201 114
208 184 104
255 249 111
255 255 113
255 255 96
254 238 90
226 213 83
109 105 58
109 105 58
225 211 82
224 210 81
156 141 80
203 179 104
215 190 107
224 198 112
185 164 96
165 146 87
211 187 107
154 137 82
165 146 87
185 164 96
217 191 108
155 137 83
120 105 68
175 155 91
168 147 88
176 156 92
194 172 100
146 128 78
143 126 78
130 115 73
62 52 45
116 103 67
137 118 73
136 117 72
122 104 65
116 101 63
113 100 62
75 64 43
90 79 48
55 34 24
88 34 28
71 39 29
44 26 23
92 38 28
41 24 22
44 26 21
51 31 25
52 31 24
86 58 32
42 37 34
74 66 47
47 42 39
48 44 40
78 69 51
97 86 57
92 81 55
52 47 43
73 64 50
80 71 53
85 70 49
55 50 45
123 106 66
54 49 45
80 72 53
74 64 50
53 48 44
55 50 46
79 70 51
53 48 44
98 87 58
32 27 22
105 86 47
131 106 58
130 106 58
107 86 42
111 88 46
194 108 58
85 31 30
69 49 29
62 52 34
49 44 35
37 37 28
42 32 31
57 49 40
87 74 61
99 85 70
100 86 70
101 86 70
102 87 71
103 88 71
104 88 71
104 89 72
105 90 72
106 90 72
107 91 73
107 92 73
108 92 73
109 92 73
109 93 74
110 93 74
110 94 74
111 94 74
111 94 74
111 95 74
112 95 75
112 95 75
112 95 75
112 95 75
113 96 75
113 96 75
113 96 75
113 96 75
113 96 75
113 96 75
113 96 75
113 96 75
112 95 75
112 95 75
112 95 75
112 95 75
111 95 74
111 94 74
111 94 74
110 94 74
110 93 74
109 93 74
108 92 73
108 92 73
107 91 73
106 91 72
105 90 72
105 89 72
104 88 71
103 88 71
101 87 71
100 86 70
99 85 70
96 83 68
57 48 40
49 41 34
122 95 53
43 34 27
50 39 32
46 39 32
45 38 32
44 37 31
38 33 29
34 30 27
20 17 15
16 13 12
19 15 13
32 27 24
29 24 21
31 26 23
35 30 27
40 36 33
42 37 34
46 42 38
47 42 38
50 44 41
51 46 42
52 47 43
52 47 43
54 49 45
51 46 42
49 45 41
51 46 42
45 41 37
46 41 38
40 36 33
43 39 35
36 32 28
27 24 21
21 18 16
26 24 21
28 25 22
28 25 23
27 24 21
34 31 28
39 35 31
48 44 40
49 45 40
49 45 40
55 50 46
56 51 47
56 51 47
55 50 46
55 50 46
56 51 47
56 51 47
56 51 47
56 51 47
56 51 47
56 51 47
56 51 47
56 51 47
55 50 46
56 51 47
56 51 47
56 51 47
81 73 55
55 50 46
56 51 47
56 51 47
56 51 47
56 51 47
56 51 47
56 51 47
55 50 46
55 50 46
56 51 47
55 50 46
56 51 47
54 49 45
56 51 46
80 72 54
54 49 45
54 49 46
55 50 46
54 50 46
56 51 47
55 50 46
53 49 45
53 48 44
51 47 44
53 49 45
50 46 43
53 48 44
51 47 43
53 48 44
53 48 44
52 48 44
54 49 46
53 48 45
51 46 43
56 51 47
53 49 45
55 50 46
56 51 47
54 49 45
56 51 47
56 51 47
81 72 54
100 89 61
81 73 55
55 51 47
55 50 46
56 51 47
55 51 46
56 51 46
56 51 47
56 51 47
56 51 47
56 51 47
56 51 47
56 51 47
55 50 46
81 73 54
56 51 47
55 50 46
55 50 46
55 50 45
56 51 47
55 51 47
57 51 47
56 51 47
55 51 46
80 72 54
54 50 46
56 51 47
56 51 47
56 50 46
56 51 47
56 51 47
56 51 47
54 49 45
53 49 45
56 51 47
54 49 45
78 71 53
53 48 45
79 71 52
53 48 44
53 48 45
54 49 45
77 69 51
97 86 58
77 69 51
53 48 44
52 47 44
79 71 52
81 72 55
53 48 45
77 68 50
80 72 53
80 71 53
54 50 46
80 72 54
55 50 46
54 49 45
53 49 45
56 51 47
81 73 54
100 89 61
55 50 46
81 73 54
100 89 61
115 103 67
56 51 47
55 50 46
100 89 61
81 73 55
100 89 61
100 89 61
81 73 54
116 103 67
100 89 61
99 88 60
55 50 46
100 89 61
117 103 67
100 89 60
54 49 45
81 73 54
131 116 73
116 103 67
81 73 55
116 103 67
130 116 73
116 103 67
130 115 72
81 72 54
100 89 61
116 103 67
116 103 67
100 89 61
143 127 78
176 155 92
143 126 77
143 127 78
81 73 55
176 155 92
175 155 92
143 127 78
154 137 83
100 89 61
175 155 91
175 155 92
166 146 87
165 146 87
203 179 103
143 127 78
176 155 92
176 155 92
194 172 100
165 146 87
165 146 87
255 232 130
211 187 107
227 201 114
219 194 111
255 232 130
219 194 111
203 179 103
219 194 111
255 227 128
216 189 107
227 200 114
192 164 96
237 207 118
255 199 116
255 222 130
255 214 129
255 213 122
255 249 139
255 232 131
249 220 124
255 226 127
255 254 142
255 243 136
255 254 141
255 249 139
255 232 130
255 249 139
249 220 124
255 241 134
194 172 100
235 207 118
255 237 133
219 194 111
235 207 118
255 255 160
234 207 117
255 241 134
249 220 124
235 207 118
255 230 128
249 220 124
254 225 124
227 200 114
255 233 110
255 255 95
195 183 75
194 183 75
226 212 83
225 212 82
109 105 58
107 103 57
158 149 67
157 148 66
141 129 60
156 141 80
194 172 100
185 164 96
185 164 96
175 155 91
165 146 87
143 127 78
187 164 96
130 115 72
165 146 87
185 164 96
143 127 78
130 115 73
176 155 92
165 146 86
185 164 96
94 82 57
143 127 78
154 136 82
133 117 73
119 104 67
103 89 60
122 104 66
110 92 60
107 90 58
80 68 47
92 81 50
109 95 55
159 140 78
92 78 44
66 40 26
49 28 22
43 25 19
34 21 19
31 19 18
56 21 18
36 23 17
60 50 34
38 34 31
44 39 36
46 42 38
49 44 40
51 46 42
52 47 43
79 70 52
52 47 43
79 71 52
80 72 53
84 65 50
73 64 49
57 51 45
80 71 53
111 97 63
53 48 44
73 63 48
72 63 48
79 71 52
53 48 43
86 73 51
43 35 28
63 52 33
97 79 47
96 79 46
76 64 31
88 73 37
82 65 38
73 33 28
43 36 30
45 38 32
57 49 35
48 41 34
57 32 28
65 51 38
74 56 45
77 66 54
98 85 69
100 85 70
100 86 70
101 87 71
102 88 71
103 88 71
104 89 72
105 89 72
105 90 72
106 90 72
107 91 73
107 91 73
108 92 73
108 92 73
109 93 73
109 93 74
110 93 74
110 94 74
110 94 74
111 94 74
111 94 74
111 94 74
111 95 74
112 95 75
112 95 75
112 95 75
112 95 75
112 95 75
111 95 74
111 95 74
111 95 74
111 94 74
111 94 74
110 94 74
110 94 74
110 93 74
109 93 74
109 93 73
108 92 73
108 92 73
107 91 73
107 91 73
106 90 72
105 90 72
104 89 72
104 88 71
102 88 71
101 87 71
100 86 70
99 85 70
97 84 69
73 63 52
46 39 33
54 46 38
61 52 42
46 39 32
40 32 27
44 38 31
60 45 38
54 41 34
42 37 32
37 33 31
36 32 29
29 26 24
36 30 26
25 22 20
22 19 17
28 24 22
33 29 27
36 32 29
40 35 32
44 39 35
49 44 41
50 46 42
51 46 42
51 46 42
53 47 43
53 48 44
54 49 45
52 47 43
50 45 41
50 45 41
51 46 42
48 43 39
44 40 36
40 37 33
43 38 35
33 30 27
36 33 29
37 34 30
37 34 30
40 36 33
38 34 31
43 39 35
41 37 33
48 44 39
52 47 43
56 51 47
55 50 46
56 51 47
56 51 47
55 50 46
55 50 46
55 50 46
55 51 47
56 51 47
69 59 49
56 51 47
56 51 47
55 50 47
54 49 46
55 50 46
56 51 47
56 51 47
56 51 47
55 51 47
56 51 47
56 51 47
55 50 46
56 51 47
56 51 47
55 50 46
56 51 46
56 51 47
56 51 47
56 51 47
56 51 47
55 51 46
54 49 45
55 50 46
55 50 46
55 50 46
56 51 47
54 49 45
52 47 43
55 50 46
55 50 46
55 50 46
53 48 45
54 49 45
53 48 45
53 48 45
59 50 46
54 49 45
55 50 46
56 51 47
55 50 46
55 50 46
54 50 46
55 50 46
56 50 46
54 49 45
81 73 55
56 51 47
55 51 46
56 51 47
55 50 46
56 51 47
55 50 46
56 51 47
56 51 47
81 72 54
55 50 46
81 72 54
81 72 54
56 51 47
56 51 47
56 51 47
81 72 54
56 51 47
56 51 47
56 51 46
56 51 47
55 50 46
56 51 47
56 51 47
55 50 46
54 49 46
55 50 46
55 50 46
54 50 46
56 51 47
55 50 46
56 51 47
55 50 46
55 50 46
55 50 46
55 50 46
54 49 45
55 50 46
55 50 46
54 49 46
54 50 46
54 49 45
53 48 45
55 50 46
53 48 45
51 47 43
50 46 43
52 48 44
98 87 59
80 71 53
53 49 45
52 47 44
115 102 66
54 50 45
54 49 45
54 49 46
54 49 45
55 50 46
56 51 47
56 51 47
56 51 47
80 71 53
56 51 47
116 103 67
58 52 49
81 73 55
56 50 46
81 73 54
130 115 73
81 73 54
81 72 54
100 89 61
100 89 61
81 73 55
116 103 67
130 115 73
116 103 67
81 72 54
130 115 73
100 89 61
114 90 59
114 89 58
133 104 65
93 73 53
177 138 80
156 128 77
179 147 86
130 115 73
116 103 67
143 126 78
145 128 78
100 89 61
100 89 61
124 107 67
116 103 67
143 127 78
165 146 87
185 164 96
155 137 83
130 116 73
143 127 78
143 127 78
157 138 83
185 164 96
154 137 83
115 103 66
155 137 83
143 126 78
165 146 87
154 137 82
194 172 100
204 179 104
162 138 84
194 172 100
176 155 92
175 155 91
185 164 96
185 163 96
100 89 61
242 214 121
219 194 111
203 179 103
235 207 118
203 179 104
203 179 103
194 172 100
194 172 100
194 172 100
226 194 111
213 180 104
252 133 86
255 153 105
255 137 96
255 118 85
255 145 100
255 162 108
255 178 115
255 226 127
219 194 111
219 193 110
249 220 124
235 207 118
235 207 117
233 201 115
233 201 115
240 208 118
255 243 136
255 238 133
255 232 130
194 171 99
246 218 122
255 237 133
255 230 128
227 201 114
219 194 111
235 207 118
255 232 130
242 214 121
235 207 117
219 194 111
191 169 96
255 250 120
251 232 86
246 213 83
105 101 56
106 102 57
156 148 67
157 148 67
108 104 58
107 103 57
105 100 55
105 100 55
145 102 56
135 123 56
188 167 96
242 214 121
116 103 67
154 136 82
154 136 82
195 172 100
176 155 92
154 136 82
116 103 67
194 172 100
211 187 107
130 115 73
145 127 78
116 103 67
187 164 96
139 122 74
110 98 63
117 105 66
165 146 87
156 136 81
162 142 84
116 102 64
146 126 75
127 112 68
143 125 75
73 63 43
110 96 57
112 95 56
107 93 53
20 17 16
35 24 18
21 13 13
52 42 23
21 18 17
28 25 23
23 20 18
30 27 24
36 31 28
46 42 38
48 43 40
54 44 41
49 44 40
52 47 43
52 47 42
73 63 49
53 47 43
53 48 44
79 71 52
54 49 45
80 72 54
74 64 50
62 50 45
106 91 60
52 47 43
79 70 51
88 74 52
80 71 53
92 80 54
42 35 29
57 45 31
129 105 58
83 68 42
60 49 28
104 67 33
99 79 47
80 65 39
100 57 38
67 56 36
148 123 18
60 51 33
49 39 33
69 50 48
68 48 40
52 42 33
81 70 57
98 84 69
99 85 70
100 86 70
101 86 70
102 87 71
103 88 71
103 88 71
104 89 72
105 89 72
105 90 72
106 90 72
107 91 73
107 91 73
108 92 73
108 92 73
108 92 73
109 93 73
109 93 74
109 93 74
110 93 74
110 93 74
110 94 74
110 94 74
110 94 74
110 94 74
110 94 74
110 94 74
110 94 74
110 94 74
110 94 74
110 93 74
109 93 74
109 93 74
109 93 73
108 92 73
108 92 73
108 92 73
107 91 73
107 91 73
106 90 72
105 90 72
105 89 72
104 89 72
103 88 71
102 87 71
101 87 71
100 86 70
99 85 70
98 84 69
78 67 56
47 40 33
46 39 33
73 62 50
63 53 43
46 39 32
35 29 24
44 38 31
90 60 50
63 45 37
50 45 41
59 40 36
44 40 36
36 32 29
35 30 28
37 32 29
35 31 29
37 33 30
43 38 35
45 41 37
47 42 39
46 41 37
53 47 43
51 46 42
54 49 45
53 48 44
52 47 43
52 47 43
54 49 45
54 49 44
52 47 43
53 48 44
51 46 42
54 49 45
50 45 41
46 41 38
44 40 36
45 41 37
45 41 37
45 40 37
43 39 35
44 40 36
46 42 37
49 45 41
49 44 40
50 46 42
52 47 43
56 51 47
55 50 46
56 51 47
55 50 46
55 50 46
56 51 47
56 51 47
56 51 47
56 51 47
55 50 47
55 50 46
56 51 47
55 50 46
69 59 49
56 51 47
55 51 46
56 51 47
55 50 46
56 51 47
56 51 47
56 51 47
56 51 47
55 50 46
55 50 46
55 50 46
55 50 46
56 51 47
56 51 47
56 51 47
55 50 46
56 51 47
56 51 47
56 51 47
55 50 46
81 72 54
55 50 46
55 50 46
55 50 46
54 49 46
55 50 46
56 51 47
53 48 45
80 71 53
54 49 45
55 50 46
54 49 45
55 51 47
80 71 53
55 50 46
55 50 46
81 72 54
55 50 46
55 50 46
56 51 47
81 72 54
56 51 47
55 50 46
55 50 46
56 51 47
55 50 46
55 50 46
56 51 47
57 53 47
57 52 47
79 73 63
80 74 65
84 75 56
79 71 53
55 48 43
54 50 46
56 51 47
81 73 54
56 51 47
55 50 46
56 51 47
56 51 47
55 51 47
56 51 47
55 50 46
56 51 47
56 51 47
56 51 47
59 52 47
56 51 47
56 51 47
55 50 46
56 51 47
54 49 45
56 51 47
55 50 46
81 73 55
56 51 47
54 49 45
55 50 46
56 51 47
115 102 66
55 50 46
54 49 46
55 50 46
54 50 46
80 71 53
55 50 47
55 50 46
79 70 52
53 48 45
53 49 45
54 49 45
54 49 46
54 49 45
56 51 47
81 72 54
54 49 45
100 89 61
55 50 46
56 51 47
100 89 61
56 51 47
80 72 54
100 89 61
81 73 55
100 89 60
100 89 61
81 73 55
100 89 61
116 103 67
100 89 61
56 51 47
102 90 63
100 89 61
81 72 54
55 50 46
80 72 53
100 89 61
59 50 45
62 50 44
64 51 45
64 52 45
93 73 53
115 90 59
115 90 59
133 104 65
212 165 92
143 116 71
100 89 61
143 126 78
130 116 73
100 89 61
100 89 61
155 137 83
165 146 87
165 146 87
126 110 70
116 103 67
154 137 83
81 73 54
81 72 54
143 127 78
130 115 72
165 146 87
143 127 78
130 115 73
165 146 87
165 146 87
185 164 96
143 127 78
126 105 69
130 115 73
185 163 96
175 155 91
140 117 74
213 188 108
194 172 100
226 195 111
203 179 104
203 179 103
166 146 87
165 146 87
235 207 118
175 155 91
227 201 114
203 179 103
211 187 107
201 172 100
245 178 105
255 96 72
186 67 59
255 96 73
129 47 51
255 96 74
231 83 67
255 108 79
255 108 79
255 95 71
255 196 118
255 226 127
219 194 111
247 214 121
255 226 127
217 187 107
212 187 107
248 214 121
219 194 111
203 179 103
227 201 114
255 226 127
242 214 121
235 207 118
249 220 124
203 179 103
211 187 107
231 205 115
186 165 96
219 194 111
249 220 124
211 187 107
212 188 107
250 209 94
148 140 61
172 151 66
156 147 66
155 147 66
130 109 58
106 102 57
105 101 56
104 99 55
99 95 53
141 129 60
145 100 55
106 92 48
133 120 67
99 88 60
185 163 95
201 177 101
175 155 92
161 143 84
176 155 92
149 133 79
143 127 78
176 155 92
143 127 78
194 171 99
116 103 67
143 126 78
160 142 83
188 165 96
143 127 78
150 132 79
165 146 87
130 115 72
79 71 52
153 136 81
156 136 81
128 113 70
97 85 56
100 87 56
73 64 44
72 63 44
92 81 50
88 77 45
34 29 27
66 58 37
66 58 37
35 29 26
29 26 24
36 32 29
82 69 46
66 57 42
84 71 49
45 41 37
50 46 42
52 46 42
73 63 48
52 47 43
57 48 43
54 49 45
55 50 45
53 48 44
55 50 46
53 48 44
80 71 52
80 71 53
78 70 51
79 71 52
53 48 44
99 88 59
93 81 55
72 63 48
47 40 35
66 54 36
147 120 64
97 67 44
55 36 32
40 34 28
67 55 37
148 81 45
75 39 32
44 35 28
255 223 96
69 58 42
63 47 37
57 40 40
91 77 41
60 52 44
46 40 31
61 55 44
93 80 66
99 85 70
100 85 70
100 86 70
101 87 71
102 87 71
103 88 71
103 88 71
104 89 72
105 89 72
105 90 72
106 90 72
106 91 72
106 91 73
107 91 73
108 92 73
108 92 73
108 92 73
108 92 73
109 92 73
109 92 73
109 92 73
109 93 73
109 93 73
109 93 73
109 93 73
109 93 73
109 93 73
109 92 73
108 92 73
108 92 73
108 92 73
108 92 73
107 91 73
107 91 73
106 91 72
106 90 72
105 90 72
105 89 72
104 89 72
104 88 71
103 88 71
102 87 71
101 87 71
100 86 70
99 85 70
98 84 69
75 65 53
46 39 33
47 39 33
39 50 40
74 50 39
54 45 38
46 39 33
43 37 31
47 39 33
101 67 55
59 44 37
52 46 42
50 45 41
48 43 39
72 61 45
48 43 39
46 41 37
47 42 38
46 41 37
49 44 40
46 41 37
50 45 41
49 44 40
49 44 40
52 46 42
52 47 43
53 48 44
53 48 44
56 50 46
54 48 44
54 49 45
54 49 45
53 48 44
52 47 43
53 48 44
52 47 42
50 46 42
46 41 37
50 46 41
48 43 39
48 43 39
53 48 44
50 46 41
51 46 42
51 47 43
51 47 42
52 48 44
54 49 45
55 50 46
55 50 46
56 51 47
53 48 44
55 50 46
54 49 45
55 50 46
55 50 46
55 51 46
55 50 46
55 51 47
55 50 46
56 51 47
56 51 47
56 51 47
56 51 47
55 50 46
55 50 46
56 51 47
56 51 47
56 51 47
55 51 46
56 51 46
55 50 46
56 51 47
56 51 47
56 51 47
55 50 46
56 51 47
55 50 46
55 50 46
55 50 46
56 51 47
56 51 47
81 73 55
55 50 46
55 50 46
56 51 47
55 50 46
55 50 47
56 51 47
80 72 54
56 51 47
54 50 46
56 51 47
54 49 45
55 50 46
55 50 45
55 50 46
55 50 46
54 49 45
56 51 47
56 51 47
56 51 47
56 51 47
56 51 47
55 50 46
56 51 47
56 51 47
56 51 47
58 53 48
54 49 46
65 58 52
67 62 55
68 62 55
71 65 58
58 53 48
54 50 46
131 90 51
59 53 48
82 73 55
55 50 46
80 72 54
55 50 46
56 51 47
56 51 47
55 51 46
56 51 47
55 50 46
55 50 47
55 50 46
55 50 46
54 50 46
56 51 47
56 51 47
56 51 47
55 50 46
55 50 46
81 72 54
55 50 46
100 89 61
56 51 47
81 73 54
80 72 53
55 50 46
80 72 54
55 51 47
54 49 46
80 72 53
81 72 54
55 50 46
80 72 54
54 49 45
55 50 46
81 72 54
81 73 55
100 89 61
54 49 46
55 50 47
81 72 55
100 89 61
81 73 55
56 51 47
55 50 46
80 72 54
56 51 47
81 72 54
100 89 61
55 50 46
56 51 47
80 72 54
100 89 61
56 51 47
81 72 54
60 55 48
81 72 54
55 50 46
100 89 61
116 103 67
130 115 72
116 103 67
56 51 47
56 47 43
62 50 44
63 50 45
63 51 45
64 52 45
64 51 45
64 52 45
115 90 59
133 104 65
149 116 70
202 157 88
191 156 90
81 72 54
130 115 72
130 115 73
100 89 61
100 89 61
116 103 67
133 117 74
116 103 67
99 88 60
185 164 96
176 155 92
116 103 67
154 137 82
130 115 73
130 116 73
116 103 67
130 115 73
130 115 73
81 72 54
157 138 83
165 146 87
119 105 68
155 137 83
165 146 87
165 146 87
185 164 96
165 146 87
211 187 107
176 155 92
211 187 107
143 127 78
155 137 83
185 164 96
194 172 100
186 164 96
183 156 92
176 155 92
194 172 100
255 192 111
180 66 58
183 66 58
187 68 60
127 47 51
129 47 51
231 83 67
127 47 51
186 67 59
188 67 59
255 118 84
255 137 95
234 170 100
248 214 121
255 226 127
235 207 117
227 201 114
240 208 118
211 187 107
211 187 107
203 179 104
211 187 107
255 232 130
175 155 92
227 200 114
203 179 103
216 191 108
211 187 107
216 191 108
185 164 96
243 215 119
204 181 101
204 180 104
224 200 109
209 193 83
152 142 60
103 100 56
101 97 54
152 144 64
128 106 56
105 101 56
105 102 57
106 99 54
112 107 57
107 102 54
96 91 51
94 89 49
137 121 55
140 115 72
194 172 100
162 144 84
117 107 67
101 90 61
176 155 92
130 115 72
165 146 87
165 146 87
165 146 87
116 103 67
165 146 87
165 146 87
100 88 60
130 115 72
142 126 77
130 115 72
146 128 78
154 136 82
81 73 54
129 114 71
78 70 51
74 63 48
128 114 70
141 124 75
48 42 39
48 43 39
93 82 52
95 84 54
65 55 39
98 88 52
70 62 42
43 37 32
41 37 34
43 38 35
44 39 36
70 60 45
46 42 38
51 46 42
70 61 46
51 46 42
54 49 44
52 47 43
73 63 48
54 48 44
72 63 48
54 49 45
75 64 50
53 48 43
73 63 49
94 82 57
110 96 62
73 63 49
52 48 43
80 71 53
125 109 68
73 62 48
47 41 35
83 69 43
83 68 42
157 72 50
104 32 39
47 36 31
81 59 38
73 53 35
70 34 27
76 55 37
92 72 46
78 63 46
47 39 33
43 36 31
82 46 50
45 37 32
117 101 42
55 43 31
48 41 34
82 70 58
98 84 69
99 85 70
100 86 70
101 86 70
101 87 71
102 87 71
103 88 71
103 88 71
104 89 71
104 89 72
105 90 72
105 90 72
106 90 72
106 90 72
106 91 72
107 91 73
107 91 73
107 91 73
107 91 73
107 91 73
107 91 73
108 92 73
108 92 73
108 92 73
107 91 73
107 91 73
107 91 73
107 91 73
107 91 73
107 91 73
106 91 72
106 90 72
105 90 72
105 90 72
105 89 72
104 89 72
104 88 71
103 88 71
102 87 71
101 87 71
101 86 70
100 85 70
99 85 70
98 84 69
70 60 50
47 39 33
46 39 33
47 39 33
25 39 25
79 45 42
45 43 38
67 55 38
47 39 33
46 39 32
160 101 64
47 39 33
55 49 45
52 47 43
53 48 44
52 47 43
50 45 41
96 85 56
52 46 42
49 44 40
50 44 40
50 45 41
52 46 42
51 46 42
52 47 43
53 48 43
54 49 45
56 50 46
54 48 44
54 48 44
54 49 45
55 50 46
56 51 47
54 48 44
54 49 44
51 46 42
52 47 43
54 49 45
50 45 41
52 47 43
51 46 42
52 47 43
52 47 43
53 46 41
64 49 42
69 49 37
63 49 44
52 46 42
53 48 44
54 49 45
56 51 47
68 58 47
55 50 46
55 51 47
56 51 47
56 51 47
56 51 47
55 50 46
55 50 46
56 51 47
81 73 55
56 51 47
56 51 47
56 51 47
56 51 47
81 73 55
56 51 47
81 72 54
56 51 47
56 51 47
56 51 47
56 51 46
56 51 47
56 51 47
56 51 47
56 51 46
56 51 47
56 51 47
55 50 46
56 51 47
80 72 54
54 49 46
56 51 47
55 50 46
56 51 47
55 50 46
55 50 46
55 51 46
55 50 46
55 50 46
56 51 47
55 50 46
56 51 47
80 72 54
55 50 46
56 51 47
55 50 46
55 51 47
55 50 46
55 50 46
54 50 46
56 51 47
81 73 55
56 51 47
56 51 47
56 51 47
81 73 55
55 51 46
56 51 47
54 49 46
67 62 56
67 62 55
66 60 54
70 64 57
70 64 56
64 58 52
58 54 48
54 49 45
84 75 57
60 55 50
59 52 48
56 51 46
56 51 47
54 49 45
56 51 47
56 51 46
56 51 47
56 51 47
55 50 46
56 51 47
72 58 47
55 51 47
55 50 46
56 51 47
56 51 47
81 72 54
56 51 47
55 50 46
56 51 47
56 51 47
56 51 47
81 73 55
55 51 46
55 50 46
56 51 47
81 72 54
55 50 46
55 50 46
54 49 45
55 50 46
55 50 46
79 72 54
80 72 54
56 51 47
100 89 61
100 89 61
116 103 67
81 72 54
56 51 47
55 51 46
81 73 55
55 50 46
56 51 47
55 50 46
58 52 49
56 51 47
56 51 47
116 103 67
56 51 47
116 103 67
54 50 46
100 89 61
55 51 46
81 73 55
81 73 55
100 89 61
80 72 54
100 89 61
56 51 47
56 51 47
116 102 66
59 48 43
61 49 44
62 50 44
63 51 45
63 51 45
63 51 45
63 50 45
93 73 52
114 90 59
91 72 51
132 103 63
201 157 87
126 104 66
161 139 83
116 103 67
130 115 72
130 115 72
156 137 83
155 137 83
133 117 73
100 89 61
116 103 67
81 73 54
117 103 67
81 73 55
130 116 73
176 155 92
176 155 91
81 73 54
155 137 83
167 148 88
155 137 83
130 115 72
151 128 80
155 137 83
116 103 67
130 116 73
176 155 92
185 163 96
203 179 103
130 115 72
183 156 92
203 179 104
175 155 91
235 207 118
194 171 99
185 164 96
185 164 96
192 164 96
228 201 114
144 99 66
120 44 48
124 46 50
201 73 59
187 68 60
126 46 50
127 47 51
186 67 59
125 46 50
127 47 51
123 45 49
255 95 71
194 94 65
232 195 112
234 202 114
235 207 117
176 155 92
163 138 83
211 187 107
207 184 104
190 169 97
177 155 92
255 222 123
204 180 104
211 186 107
234 207 117
220 194 111
211 187 107
224 198 111
186 164 95
207 184 104
195 173 97
215 191 107
200 177 101
88 77 44
117 103 50
147 138 59
97 94 53
127 106 56
99 96 53
103 100 56
118 100 53
103 99 55
99 95 53
96 90 50
134 120 55
134 86 47
81 75 42
129 114 71
129 115 71
194 171 99
211 187 107
185 164 96
154 136 82
185 164 96
132 116 73
142 126 77
175 155 91
168 147 88
100 89 61
165 146 87
154 136 82
56 50 46
154 137 83
100 89 60
136 117 73
100 88 60
83 70 52
116 103 66
98 87 58
78 70 51
109 95 61
97 82 54
98 87 58
77 68 49
109 95 60
127 112 67
94 84 54
74 65 45
43 39 36
67 47 42
48 43 40
98 82 51
74 48 43
47 43 39
51 47 43
54 49 45
51 47 43
50 45 42
73 63 48
72 62 48
55 50 46
72 63 48
55 50 45
53 47 43
52 47 43
54 49 45
79 71 52
106 91 59
72 62 47
88 75 53
79 70 51
110 96 62
55 50 45
101 84 55
81 67 46
45 37 31
108 88 50
79 30 32
141 38 40
97 68 44
46 39 32
102 51 33
75 29 22
73 52 34
61 50 30
41 33 26
45 38 32
105 74 40
51 35 28
45 36 33
53 43 36
56 42 39
45 40 32
47 39 33
65 55 48
90 77 64
98 84 69
99 85 70
100 86 70
100 86 70
101 87 70
102 87 71
102 88 71
103 88 71
103 88 71
104 89 71
104 89 72
104 89 72
105 89 72
105 90 72
105 90 72
106 90 72
106 90 72
106 90 72
106 90 72
106 90 72
106 91 72
106 90 72
106 90 72
106 90 72
106 90 72
106 90 72
105 90 72
105 90 72
105 89 72
104 89 72
104 89 72
104 89 71
103 88 71
103 88 71
102 87 71
101 87 71
101 86 70
100 86 70
99 85 70
98 84 69
96 82 68
69 59 49
47 39 33
47 39 33
47 40 33
49 41 34
35 30 25
41 33 30
67 66 41
47 40 33
90 25 32
47 39 33
74 46 39
47 40 34
53 48 44
50 45 41
53 48 44
52 47 42
53 48 44
54 48 44
54 49 45
52 47 42
53 48 43
52 47 43
53 47 43
55 49 45
52 47 43
55 50 46
55 50 45
55 50 46
55 49 45
73 63 48
55 50 45
54 49 45
54 49 45
56 51 46
55 49 45
55 49 45
80 72 53
53 48 44
53 48 44
53 48 43
53 48 43
49 42 39
81 50 43
118 82 75
128 90 83
130 91 85
130 91 84
115 81 76
95 66 61
53 48 44
53 48 45
56 51 47
80 72 53
54 49 45
55 50 46
55 51 46
55 50 46
54 49 45
56 51 46
56 51 47
56 51 47
56 51 47
56 51 47
56 51 47
56 51 47
55 50 46
56 51 47
56 51 47
55 50 47
56 51 47
56 51 47
56 51 47
56 51 47
56 51 47
56 51 47
55 50 46
56 51 47
55 50 46
55 50 46
56 51 47
56 51 47
56 51 47
81 72 54
56 51 47
56 51 47
56 51 47
56 51 47
56 51 47
56 51 47
56 51 47
55 50 46
56 51 47
55 50 46
55 50 46
56 51 47
56 51 47
56 51 47
54 49 46
80 72 54
56 51 47
55 51 46
55 50 46
56 51 47
55 51 46
55 50 47
54 49 45
56 51 47
55 50 46
59 54 49
61 56 51
64 58 53
65 59 53
60 55 50
88 79 61
63 57 52
82 73 55
61 56 50
57 53 48
59 55 49
85 77 59
55 49 47
55 50 46
55 51 46
55 50 46
56 51 47
54 49 45
56 51 47
81 73 55
56 51 47
55 50 46
56 51 47
56 51 47
56 51 47
81 73 55
81 72 54
54 50 46
55 50 46
56 51 47
55 50 47
81 73 55
81 72 54
55 50 46
57 52 47
81 72 54
81 73 55
81 72 54
56 51 47
56 51 47
56 51 47
56 51 47
55 50 46
80 72 54
55 50 46
55 50 46
55 50 46
100 89 61
56 51 47
81 72 54
56 51 47
56 51 47
81 72 54
100 89 61
116 103 67
56 51 47
56 51 47
99 88 60
56 51 47
55 51 47
55 51 46
56 51 47
55 50 46
80 72 54
100 89 61
56 51 47
80 72 54
55 51 46
116 103 67
54 49 45
54 49 45
81 72 54
58 47 43
60 49 43
59 47 42
61 49 44
62 50 44
63 51 45
63 48 42
63 51 45
61 49 44
57 46 41
112 87 56
90 71 50
200 156 86
187 147 83
81 72 54
82 72 53
145 128 78
103 91 62
116 103 67
116 103 67
130 116 73
100 89 61
155 137 83
102 89 61
145 128 78
154 137 83
130 115 73
155 137 83
154 136 82
154 137 83
100 89 61
130 115 72
154 137 83
154 136 82
165 146 87
128 105 68
130 116 73
165 146 87
185 163 96
81 73 55
203 179 104
185 164 96
185 164 96
143 127 78
185 163 95
155 137 83
132 116 73
185 164 96
184 156 92
177 155 91
202 173 101
110 40 45
116 43 47
123 45 50
183 66 58
125 46 50
125 46 50
125 46 50
125 46 50
126 46 50
184 67 58
166 58 53
117 42 46
179 65 54
254 192 111
186 164 96
220 194 110
218 187 107
185 163 96
220 194 111
219 194 111
242 213 121
194 172 100
175 155 92
219 194 111
192 164 96
208 184 104
175 155 87
231 205 115
155 137 82
175 152 88
200 177 100
185 164 95
223 197 110
204 180 103
181 170 62
142 133 56
165 142 60
88 83 47
147 110 55
128 102 53
123 101 53
95 90 50
136 121 52
93 88 49
95 91 51
88 83 47
97 91 48
123 109 47
154 136 81
154 136 82
142 126 76
160 143 84
157 140 82
130 116 73
187 165 94
100 89 61
154 137 82
165 146 87
116 103 67
143 127 78
100 89 60
116 103 67
117 103 67
154 136 82
81 73 54
115 102 65
137 111 71
100 89 61
100 89 61
115 98 63
165 146 86
111 97 63
51 46 42
129 114 71
97 86 57
114 101 64
98 86 57
140 120 72
50 44 40
114 101 64
53 44 40
76 68 49
47 42 39
52 47 43
51 46 42
52 47 43
72 63 48
54 49 44
51 46 42
84 63 48
59 50 45
60 52 46
80 71 53
53 48 44
80 71 53
94 82 56
54 48 44
51 46 42
99 88 59
53 47 44
52 47 43
72 62 47
101 82 55
87 74 51
80 71 53
70 60 45
67 55 37
90 64 40
129 38 33
83 23 29
83 32 35
67 56 38
41 34 29
59 29 19
69 54 35
96 79 46
42 35 29
45 38 32
69 54 32
71 49 30
46 38 32
60 51 42
50 42 35
48 42 33
103 76 47
63 54 45
41 35 36
65 55 46
90 77 64
98 84 69
99 85 70
100 85 70
100 86 70
101 86 70
101 87 71
102 87 71
102 87 71
103 88 71
103 88 71
103 88 71
104 89 71
104 89 72
104 89 72
104 89 72
104 89 72
105 89 72
105 89 72
105 89 72
105 89 72
105 89 72
105 89 72
104 89 72
104 89 72
104 89 72
104 89 71
103 88 71
103 88 71
103 88 71
102 88 71
102 87 71
101 87 71
101 86 70
100 86 70
100 85 70
99 85 70
97 83 69
79 68 56
52 44 37
46 39 33
47 39 33
50 43 35
58 50 41
76 64 52
48 39 33
37 33 28
39 33 28
55 38 33
107 10 32
47 33 28
50 33 28
49 43 38
56 50 46
54 49 44
55 50 46
80 72 53
52 47 43
57 50 45
79 70 52
55 50 45
51 46 42
55 50 46
55 49 45
55 60 45
54 49 45
53 48 43
54 49 45
55 50 46
55 50 46
53 48 44
55 50 46
54 48 44
56 51 46
56 51 46
54 49 45
55 50 46
54 49 45
54 49 45
54 49 45
79 71 52
74 53 50
106 75 71
131 92 85
137 96 88
142 99 89
143 100 90
143 100 90
141 98 89
134 94 86
51 47 43
53 48 44
68 58 48
53 48 44
54 49 45
55 51 46
54 49 45
55 50 46
55 51 46
56 51 47
56 51 47
55 51 47
56 51 47
55 51 46
55 50 46
56 51 47
56 51 47
56 51 47
69 59 48
56 51 47
55 50 46
55 50 46
81 72 54
56 51 47
56 51 47
56 51 47
56 51 47
54 50 46
55 50 47
56 51 47
55 50 46
81 73 54
56 51 47
56 51 47
56 51 47
56 51 47
55 50 46
55 50 46
55 50 47
55 51 47
56 51 47
55 50 46
55 51 46
55 50 46
55 50 47
56 51 47
55 50 46
56 51 47
55 50 46
56 51 47
56 51 47
56 51 47
56 51 47
56 51 47
56 51 46
56 51 47
55 50 46
56 50 46
56 51 47
62 57 52
68 62 56
60 55 50
90 81 62
58 53 48
58 53 49
60 54 50
58 53 48
66 60 54
65 59 54
63 57 52
164 145 83
162 144 81
55 50 46
55 51 47
55 50 47
55 50 46
56 51 47
56 51 47
100 89 61
81 73 55
56 51 47
55 49 45
56 51 47
55 50 46
56 51 47
56 51 47
56 51 47
56 51 47
56 51 47
56 51 47
55 50 46
56 51 47
55 50 46
56 51 47
56 51 47
81 73 54
54 50 46
55 51 47
55 50 46
56 51 46
81 73 54
56 51 47
56 51 47
56 51 47
56 51 47
81 72 54
56 51 47
81 72 54
55 50 46
81 72 54
56 51 47
81 73 55
56 51 47
55 51 47
130 115 73
80 72 54
56 51 47
56 51 46
116 103 67
81 73 55
116 103 67
56 51 47
100 89 61
55 50 46
81 72 54
55 50 46
55 50 47
99 88 60
55 50 46
55 50 46
79 70 51
54 44 39
59 47 42
58 47 42
61 49 44
60 48 43
61 49 44
60 48 43
60 48 43
60 48 43
61 49 44
59 47 42
112 88 57
89 70 47
120 96 57
118 104 66
102 90 61
104 91 62
116 103 67
132 117 73
143 126 77
85 75 55
143 127 78
130 115 73
103 91 62
81 72 54
85 75 55
165 146 87
130 115 72
116 103 67
143 126 78
175 155 91
203 179 104
155 137 83
116 103 67
130 115 72
143 127 78
143 126 78
143 127 78
118 106 67
155 137 83
201 173 100
165 146 87
199 174 100
185 164 96
166 146 87
130 115 72
130 115 72
211 186 107
165 145 86
175 155 91
118 87 60
114 42 46
113 42 46
135 48 48
118 43 48
165 60 48
177 63 55
124 46 50
123 45 50
177 63 55
118 43 47
116 42 46
151 47 47
215 67 54
138 108 65
188 159 92
227 201 114
187 163 95
211 186 107
183 156 92
212 187 107
219 194 111
197 169 97
211 187 107
194 172 100
200 176 100
195 172 99
185 163 95
199 176 100
192 164 96
234 207 117
185 161 93
177 156 91
192 171 93
162 145 79
170 135 67
158 131 51
84 78 44
94 89 47
145 104 51
236 181 67
89 84 47
118 94 49
143 105 52
89 86 48
92 87 49
135 83 46
178 95 50
138 98 39
155 137 81
124 111 67
202 179 103
130 115 72
142 126 77
211 186 107
165 146 87
154 137 82
130 115 72
116 103 67
116 103 67
130 116 73
154 136 82
80 72 54
116 103 67
145 127 77
100 89 61
99 89 60
103 90 60
116 103 66
100 89 60
165 145 86
80 72 54
99 88 59
79 70 52
129 114 71
99 88 59
134 116 70
114 101 65
72 63 48
78 69 50
109 95 60
54 48 44
99 87 59
97 86 57
78 70 51
70 60 45
72 63 48
53 48 44
54 49 45
52 48 43
87 74 52
73 64 49
91 79 53
54 49 45
54 48 44
79 70 51
71 62 47
72 63 48
72 62 48
93 81 55
55 49 43
81 72 52
53 48 44
87 75 51
87 74 51
126 106 63
51 46 42
96 79 47
67 55 38
52 32 28
160 41 36
92 26 34
98 79 47
83 68 42
42 35 29
36 30 25
46 39 32
46 38 32
47 39 33
40 34 28
45 33 23
46 39 32
46 39 32
45 44 31
49 63 33
44 38 30
55 44 36
49 36 39
71 37 35
46 39 33
59 50 42
80 69 57
96 83 68
99 85 70
99 85 70
100 86 70
100 86 70
101 86 70
101 87 70
101 87 71
102 87 71
102 87 71
102 87 71
103 88 71
103 88 71
103 88 71
103 88 71
103 88 71
103 88 71
103 88 71
103 88 71
103 88 71
103 88 71
103 88 71
102 88 71
102 88 71
102 87 71
101 87 71
101 87 70
101 86 70
100 86 70
100 86 70
99 85 70
99 85 70
98 84 69
87 75 62
60 51 43
47 39 33
47 39 33
48 46 31
46 42 35
64 56 46
52 44 36
80 68 53
45 38 32
42 36 30
46 38 32
89 23 31
226 16 44
44 32 27
41 32 27
52 46 41
53 47 44
53 48 44
53 48 44
54 49 45
55 49 45
54 49 45
54 49 45
54 48 44
56 51 46
53 48 43
55 50 46
55 50 46
56 51 46
55 50 46
55 50 45
55 50 46
55 49 45
56 50 46
55 50 46
56 50 46
56 51 46
56 51 46
56 50 46
55 50 45
80 72 53
55 50 45
56 51 46
52 40 38
113 76 68
130 91 85
137 96 88
143 100 90
147 102 91
148 103 92
149 104 92
147 102 91
143 100 90
66 56 45
52 47 43
52 47 43
53 48 44
56 50 45
55 50 46
55 50 46
55 50 46
55 50 46
56 51 47
55 50 46
56 51 47
56 51 47
56 51 47
56 51 47
56 51 47
55 50 46
56 51 47
55 50 46
56 51 47
56 51 46
56 51 47
55 50 46
56 51 47
56 51 47
55 50 46
56 51 47
56 51 47
56 51 47
56 51 47
56 51 47
56 51 47
55 51 47
55 50 47
55 51 46
55 51 47
56 51 47
56 51 47
55 50 46
56 51 47
56 51 46
56 51 47
55 51 46
55 50 46
55 50 46
55 50 46
56 51 47
55 50 46
81 72 54
55 51 46
56 51 47
55 50 46
56 51 47
55 50 46
55 51 47
55 51 46
81 72 54
54 49 46
55 50 46
60 55 50
63 58 53
64 59 53
60 55 50
72 65 58
61 56 51
63 58 52
64 58 52
69 63 56
68 62 56
63 58 52
56 51 47
163 144 82
63 57 52
56 51 47
54 49 45
55 49 45
56 51 47
55 50 46
56 51 46
56 51 47
81 73 54
81 73 55
55 51 46
56 51 47
81 73 55
55 50 46
56 51 47
56 51 47
71 58 47
55 50 46
56 51 47
66 61 55
76 64 53
80 64 50
180 118 51
131 90 52
58 52 50
55 50 46
55 50 46
116 103 67
81 73 54
81 72 54
100 89 61
56 51 47
56 51 47
56 51 47
56 51 47
56 51 47
55 50 46
100 89 61
81 73 55
80 72 54
56 51 47
56 51 47
55 50 46
56 51 47
81 73 55
81 73 54
81 72 54
56 51 47
55 50 46
81 73 54
56 51 47
100 89 61
55 50 46
55 51 46
81 72 54
100 89 61
115 102 66
86 74 54
104 90 61
55 44 40
64 46 43
62 50 43
59 48 43
58 47 42
59 48 43
57 46 41
62 50 44
81 62 45
55 44 40
58 47 42
66 52 42
136 101 61
141 113 67
146 128 77
142 126 77
102 90 61
143 127 78
106 93 62
143 127 78
167 147 87
56 51 47
119 105 68
119 105 68
100 89 61
133 117 73
130 115 72
116 103 67
130 115 73
56 51 47
130 116 73
143 127 78
130 116 73
155 137 83
165 146 87
194 172 100
81 73 55
143 127 78
143 126 77
100 89 61
130 116 73
152 127 78
116 103 67
165 146 87
176 155 92
183 156 92
194 171 99
185 163 95
194 172 100
183 156 91
96 68 50
121 44 46
105 39 43
116 43 47
114 42 46
110 40 44
119 44 47
121 44 48
120 44 48
120 44 48
112 41 45
183 58 50
143 44 45
153 48 47
140 99 62
176 140 84
172 139 84
201 172 100
185 164 96
194 171 99
186 164 95
211 186 107
154 137 82
227 201 114
219 194 111
166 146 87
203 179 103
211 187 107
212 187 107
212 187 107
156 139 79
203 179 103
154 136 82
139 123 72
155 137 81
174 153 83
115 103 41
116 90 44
139 96 46
116 92 48
85 77 43
84 75 42
88 83 47
81 76 43
124 100 50
88 82 47
82 78 44
93 97 38
117 104 59
142 126 75
164 145 86
185 163 95
194 171 99
176 155 91
185 164 96
115 102 66
116 103 66
81 72 54
130 115 72
113 90 62
185 163 95
143 126 77
130 115 72
130 115 73
130 115 72
131 116 73
81 72 54
100 89 60
143 126 77
129 114 71
116 103 67
116 103 67
125 109 68
115 102 66
133 116 72
81 73 54
99 88 59
99 88 59
79 71 52
99 88 59
130 115 72
80 71 52
53 48 44
142 125 76
77 51 47
59 50 45
54 49 45
72 63 48
99 88 60
134 116 71
94 82 56
87 73 51
53 48 44
81 72 52
52 47 43
92 73 49
73 63 48
52 47 43
93 81 55
53 48 44
79 71 52
53 47 41
71 61 47
100 84 54
54 48 44
72 62 48
109 95 61
79 65 43
68 56 37
42 34 28
60 19 22
79 22 29
82 54 37
68 56 38
83 68 42
64 48 34
46 39 32
47 40 33
46 39 33
47 40 33
44 37 31
51 42 35
47 39 33
43 37 31
85 114 44
46 53 32
53 34 28
73 70 46
55 43 34
69 50 40
69 46 32
60 39 31
48 41 34
79 68 56
87 75 62
98 84 69
99 85 70
99 85 70
99 85 70
100 86 70
100 86 70
100 86 70
101 86 70
101 86 70
101 87 70
101 87 70
101 87 71
101 87 71
101 87 71
101 87 71
101 87 71
101 87 71
101 87 71
101 86 70
101 86 70
101 86 70
100 86 70
100 86 70
100 85 70
99 85 70
99 85 70
98 84 69
96 83 68
77 66 54
53 45 37
47 39 33
47 39 33
47 39 33
46 39 33
44 53 20
45 40 34
49 41 34
47 39 33
38 32 27
44 37 31
45 38 32
46 39 33
82 16 26
135 24 32
37 28 24
40 33 27
53 48 44
54 49 45
76 66 50
55 49 45
53 48 44
54 49 45
77 67 51
55 51 46
55 49 45
54 49 45
55 50 46
55 50 46
56 51 46
81 72 54
55 50 46
55 49 45
54 49 45
54 49 44
55 50 45
54 49 45
55 49 45
56 50 46
55 50 46
55 50 46
55 50 46
55 49 45
55 50 45
55 45 42
59 32 29
122 82 77
132 93 86
139 97 88
144 101 90
148 103 92
150 104 93
150 105 93
149 104 92
146 102 91
53 48 44
53 48 44
67 57 47
53 48 44
54 49 45
55 50 46
55 50 46
55 50 46
56 51 47
56 51 47
68 58 47
56 51 47
56 51 47
55 51 47
56 51 47
55 50 46
56 51 47
55 50 46
55 50 46
56 50 46
56 51 47
56 51 47
56 51 47
55 51 47
56 51 47
56 51 47
55 50 46
56 51 47
56 51 47
55 51 46
81 72 54
56 51 47
55 50 46
55 51 46
56 51 47
55 50 46
56 51 47
56 51 47
56 51 47
56 51 47
55 50 47
56 51 47
56 51 47
56 51 47
56 51 47
55 50 46
56 50 46
56 51 46
56 51 47
56 51 47
56 51 47
56 51 47
81 72 54
56 51 47
55 50 46
56 51 47
56 51 47
56 51 47
55 50 46
63 58 52
61 56 51
67 61 55
65 59 54
70 64 57
62 56 49
58 53 48
60 55 50
80 72 54
66 60 54
62 57 51
62 56 51
60 55 50
59 54 49
134 108 64
55 50 46
55 50 46
55 50 46
81 72 54
60 58 49
56 51 47
55 50 46
81 73 54
56 51 47
56 51 47
55 50 47
55 50 46
56 51 47
56 51 47
56 51 47
68 63 56
109 102 89
127 119 102
130 121 102
133 124 105
128 118 100
124 115 99
161 128 96
100 89 81
54 49 46
55 50 46
56 51 47
56 51 47
56 51 47
56 51 47
55 50 46
56 51 47
100 89 61
55 50 46
55 50 47
56 51 47
56 51 47
55 50 46
81 73 54
100 89 61
56 51 47
56 51 47
56 51 47
59 53 49
81 72 54
116 103 67
56 50 47
100 89 61
53 48 44
56 51 47
100 89 61
81 72 54
55 50 46
100 89 61
115 102 66
79 70 52
53 47 43
54 44 40
53 42 39
57 46 41
55 45 41
86 68 47
60 48 43
56 45 40
55 45 40
57 45 41
53 42 38
94 74 46
78 59 42
55 44 36
99 75 46
84 74 54
165 146 86
81 72 54
80 71 53
154 136 82
80 71 53
106 92 62
103 91 61
132 117 73
165 146 87
99 88 60
103 91 62
165 146 87
100 89 61
116 103 67
145 128 79
100 89 61
176 155 92
143 127 78
154 137 83
130 115 72
130 116 73
175 155 91
130 116 73
81 72 54
100 89 61
143 126 78
116 103 67
144 126 77
163 138 83
165 146 87
158 140 82
143 126 77
142 126 77
176 155 91
142 125 76
187 146 87
175 58 49
120 44 45
110 41 44
111 41 45
111 41 45
114 42 46
113 42 46
150 47 49
118 43 47
115 42 46
178 43 45
111 40 42
140 42 43
210 130 76
113 89 60
234 201 115
155 137 82
184 156 92
175 154 90
154 137 83
175 155 91
166 146 86
181 160 92
175 154 90
140 117 74
154 137 82
109 98 62
144 127 77
171 152 88
194 171 99
153 136 81
189 165 92
154 136 81
176 157 86
177 158 86
151 105 51
86 74 37
104 76 38
134 110 50
84 79 41
67 62 35
76 71 40
117 92 45
92 87 46
82 78 40
76 72 34
121 65 37
162 143 80
130 115 67
116 102 64
99 88 59
130 115 71
115 102 65
99 88 59
142 126 77
130 115 73
154 137 82
154 136 82
100 89 61
130 115 73
155 137 83
102 89 60
100 89 60
130 115 72
116 103 67
100 89 60
127 103 67
116 103 67
139 122 75
99 88 60
99 88 59
194 121 80
222 91 74
226 72 70
255 78 75
194 79 70
120 67 58
107 68 55
81 70 52
129 114 71
115 101 65
111 97 63
125 110 68
125 109 68
54 49 44
73 63 49
52 47 44
52 47 43
79 71 52
110 96 62
53 48 44
79 70 52
53 48 44
73 63 48
53 48 44
121 105 66
99 88 60
87 74 52
94 82 55
86 73 50
52 46 42
92 80 54
116 98 61
130 111 67
92 80 54
120 105 63
77 68 47
72 57 36
66 54 36
35 23 20
63 17 23
65 52 34
45 37 31
46 39 32
68 56 38
67 56 38
67 55 38
62 50 35
46 39 33
50 42 35
51 43 35
54 46 37
45 38 32
53 38 20
52 41 27
44 36 30
39 31 23
53 40 17
131 112 56
75 59 42
55 39 31
68 55 46
40 31 31
45 38 33
49 40 33
69 59 49
84 72 59
93 80 66
98 84 69
98 85 69
99 85 70
99 85 70
99 85 70
99 85 70
100 85 70
100 86 70
100 85 70
100 85 70
100 86 70
100 85 70
100 86 70
100 85 70
99 85 70
99 85 70
99 85 70
99 85 70
98 84 69
98 84 69
91 79 65
82 70 58
71 61 51
48 41 34
46 39 33
47 39 33
45 38 32
56 37 44
46 39 33
45 38 32
39 33 27
50 43 36
51 44 37
43 37 31
38 32 26
46 39 33
47 39 33
48 37 32
76 1 22
61 30 27
37 28 24
68 50 38
53 48 43
54 49 45
54 49 45
54 49 45
53 48 44
54 49 45
55 49 45
56 50 46
56 50 46
55 50 46
54 49 44
55 50 46
55 50 46
54 49 45
54 49 45
54 48 44
55 50 46
55 50 46
55 50 46
55 50 46
55 50 45
55 49 45
53 48 44
54 48 44
54 49 45
56 51 47
55 49 45
53 42 40
55 41 35
255 255 192
255 244 143
128 86 75
139 96 85
147 102 91
149 104 92
149 104 92
148 103 92
145 101 91
64 54 43
51 47 43
51 46 42
74 62 47
70 57 46
56 51 46
55 50 46
56 51 46
75 72 51
56 51 47
56 51 47
55 50 46
56 51 47
55 50 46
55 50 46
56 51 47
56 51 47
56 51 47
56 51 47
56 51 47
56 51 47
56 51 47
56 51 47
56 51 47
55 50 46
55 50 46
56 51 47
56 51 47
56 50 46
55 51 47
56 51 47
55 50 46
56 51 47
55 50 46
56 51 47
55 50 46
56 51 47
56 51 47
56 51 47
56 51 47
55 50 46
55 50 46
56 51 47
56 51 47
59 57 48
56 51 47
56 51 47
81 72 54
81 72 54
55 50 46
56 51 46
56 51 47
56 51 47
56 51 47
56 51 47
81 72 54
56 51 47
55 50 46
55 50 46
58 53 49
58 53 48
62 55 50
66 61 55
58 53 48
84 75 57
65 59 54
65 60 54
61 55 50
64 58 53
62 57 51
62 57 52
67 61 54
62 59 51
61 55 50
55 50 47
55 50 47
56 51 47
55 50 46
56 51 47
56 51 47
55 50 46
56 51 47
55 50 46
55 50 46
81 72 54
55 50 46
54 49 45
55 50 46
72 67 58
119 112 96
131 123 105
137 128 108
140 131 109
141 131 110
140 131 109
137 128 108
131 123 105
239 218 134
133 97 76
53 48 44
54 49 45
81 73 55
56 51 47
81 73 54
56 51 47
56 51 47
56 51 47
55 50 46
56 51 47
81 73 55
100 89 61
81 73 54
55 51 47
81 73 54
56 51 47
81 72 54
80 72 54
81 73 55
80 72 54
81 72 54
55 50 46
99 88 60
81 72 54
56 51 47
81 73 55
55 50 46
80 72 53
79 71 52
82 73 56
54 49 45
49 43 40
52 42 35
82 66 46
52 42 38
52 42 38
57 46 41
58 46 41
55 45 40
55 45 40
52 42 39
54 43 39
83 65 44
50 40 35
94 57 39
124 97 57
105 92 61
58 51 44
87 76 54
84 74 54
116 103 67
81 72 54
130 115 72
154 137 82
116 103 67
56 51 47
165 146 87
116 103 67
81 72 54
143 126 78
81 72 54
154 137 83
155 137 83
130 115 73
165 146 87
130 115 73
130 115 72
116 103 67
116 103 67
130 116 73
165 146 87
130 116 73
117 103 67
175 155 91
130 115 72
154 136 82
154 136 82
154 136 82
144 126 77
117 102 66
115 102 66
132 114 71
128 101 64
104 37 42
130 48 42
107 39 42
120 43 40
211 74 55
107 39 44
164 58 47
166 58 49
105 39 43
143 44 46
107 37 41
93 34 37
94 33 37
159 133 78
151 118 73
157 135 80
192 164 95
142 126 77
131 114 71
204 179 103
176 155 91
165 146 87
185 163 95
195 172 99
144 127 78
116 103 67
175 155 91
130 115 72
154 136 82
165 146 87
160 142 82
198 176 100
178 155 90
162 144 80
157 140 78
168 143 79
174 147 58
124 77 34
174 136 49
101 71 36
71 67 37
60 57 33
112 83 39
106 76 38
62 59 34
94 99 36
127 112 65
111 98 60
127 113 69
173 153 88
101 94 57
116 103 66
129 115 72
143 126 76
115 102 66
130 115 73
130 115 72
130 115 73
56 51 46
55 50 45
141 116 73
130 115 72
165 146 87
130 115 73
130 115 72
130 115 72
115 102 66
55 50 46
100 89 61
80 72 53
171 81 64
186 58 64
255 82 80
235 71 73
190 57 65
131 40 56
129 39 54
173 50 59
168 72 61
74 46 46
53 48 44
100 89 60
115 102 65
94 82 57
73 64 49
53 48 43
99 88 60
80 71 52
80 71 52
88 74 52
72 62 48
116 99 62
105 91 59
78 70 51
52 47 42
88 74 52
135 117 71
73 62 47
71 61 47
55 49 43
54 48 42
100 88 59
113 100 63
115 98 60
92 80 54
99 83 53
52 45 41
73 58 37
73 57 36
41 34 28
33 19 17
37 28 23
65 53 36
61 49 35
84 69 43
68 56 38
67 55 37
48 38 32
80 57 46
75 55 44
45 38 32
55 46 38
47 39 33
169 104 29
84 56 22
57 42 30
54 24 29
45 31 27
45 38 32
45 39 32
41 38 29
50 42 35
77 61 53
56 49 42
82 79 52
57 52 40
72 57 45
47 39 33
49 45 36
61 52 43
78 67 55
79 68 56
86 73 61
96 82 68
97 83 69
98 84 69
98 84 69
98 84 69
98 84 69
98 84 69
98 84 69
96 83 68
95 82 68
86 73 61
82 70 58
70 60 50
69 59 49
55 47 39
46 39 33
47 39 33
47 40 33
51 43 36
47 39 33
46 39 33
51 37 35
78 29 37
57 40 34
75 47 35
54 43 37
65 52 44
45 38 32
45 38 32
47 39 33
47 39 33
46 39 32
46 35 30
31 12 13
64 34 30
43 36 30
51 45 40
53 48 44
54 49 44
55 50 46
54 49 45
55 50 45
54 49 45
55 50 46
55 50 45
55 50 46
56 51 46
54 49 45
55 50 46
56 51 46
80 71 53
56 50 46
54 49 45
54 49 44
56 51 47
55 49 45
56 51 47
54 49 45
55 50 46
55 50 46
56 51 47
55 49 45
56 50 46
54 49 45
51 36 35
72 47 39
255 255 255
65 43 35
105 68 58
126 84 72
143 100 90
145 101 90
146 102 91
145 101 91
143 100 90
64 54 42
50 45 41
52 47 43
51 47 43
55 50 45
55 50 46
75 72 51
56 51 46
54 49 45
56 51 47
56 51 47
68 59 48
55 50 46
56 51 47
81 72 54
55 50 46
56 51 47
56 51 47
55 50 46
55 50 46
56 51 47
56 51 46
55 50 46
56 51 47
56 51 47
55 50 47
56 51 47
56 51 47
55 50 46
56 51 47
56 51 47
55 50 46
55 50 46
56 51 47
56 51 47
55 51 46
56 51 47
56 51 47
56 51 47
56 51 47
55 51 47
56 51 47
56 51 47
56 51 46
56 50 46
55 50 46
55 50 46
55 50 46
55 50 46
55 50 46
56 51 47
55 50 46
55 50 46
81 73 54
55 50 46
56 51 47
56 51 47
56 51 47
56 51 47
63 58 52
60 54 49
140 86 57
60 52 48
82 73 55
56 51 47
60 55 50
57 52 47
60 54 50
61 56 50
59 53 49
86 78 59
58 53 48
83 75 66
55 50 46
55 50 46
55 50 46
55 50 46
54 50 45
81 72 54
55 50 46
56 51 47
56 51 47
56 51 47
55 50 46
56 51 47
81 72 54
56 51 47
54 50 44
107 101 88
129 121 104
136 127 107
142 132 110
144 134 111
144 134 111
143 133 111
140 131 109
135 126 107
255 255 255
255 255 255
157 141 79
56 51 47
56 51 47
81 72 54
56 51 47
81 73 55
81 73 54
56 51 47
81 73 55
56 51 47
56 51 47
56 51 47
55 50 46
81 73 55
55 51 46
100 89 61
55 51 46
100 89 61
81 72 54
81 72 54
56 51 47
54 49 46
80 72 54
81 72 54
54 49 45
80 71 53
116 103 67
100 89 61
79 71 53
79 70 52
98 87 58
77 68 50
43 35 32
75 53 39
54 41 37
50 41 37
54 43 37
52 41 38
53 41 36
66 52 37
52 42 37
63 51 36
63 51 35
42 34 31
60 47 37
80 68 44
99 88 59
104 91 59
83 73 53
115 102 66
117 104 66
80 71 53
147 129 79
103 91 62
81 72 54
116 103 67
119 105 68
155 137 83
116 103 67
143 127 78
145 128 78
100 89 61
143 127 78
130 116 73
144 127 78
56 51 47
165 146 87
100 89 61
100 89 61
165 146 87
143 126 77
116 103 67
100 89 61
154 137 82
130 115 72
127 104 67
143 126 77
130 115 72
131 115 72
166 146 86
143 125 76
101 86 57
165 143 83
149 73 49
113 41 40
160 58 42
90 33 37
96 35 38
148 53 40
134 41 42
105 39 42
195 63 50
92 33 37
93 34 38
165 45 44
98 34 33
155 117 72
168 145 85
174 154 90
173 146 87
174 147 88
166 146 87
173 146 87
235 207 117
165 146 87
192 165 96
234 207 117
175 155 91
155 137 83
142 126 77
130 115 72
175 155 91
115 102 65
185 161 92
141 125 75
128 114 68
145 127 74
142 125 72
141 122 65
98 87 46
117 90 43
102 66 30
97 64 31
61 57 33
67 62 30
98 67 33
55 50 29
43 42 25
63 53 27
45 41 30
75 67 48
76 68 49
97 87 57
99 88 58
114 102 65
116 103 67
100 89 60
116 103 66
115 102 66
163 137 83
99 88 60
154 136 82
81 72 54
101 88 60
102 90 61
101 90 60
54 49 45
86 74 55
165 146 87
99 88 60
81 72 54
100 89 60
255 140 96
255 100 92
234 70 72
235 70 73
130 40 56
131 40 55
174 51 60
134 40 54
125 38 52
117 35 48
113 35 48
92 70 53
121 105 66
80 72 54
111 97 63
80 72 53
81 72 54
124 109 67
79 71 52
73 64 49
80 72 53
79 71 52
126 110 69
94 82 55
72 63 48
52 47 43
53 48 44
52 47 43
105 90 58
78 69 50
71 61 47
49 44 40
93 81 56
92 79 53
116 99 60
49 44 40
80 71 51
111 92 56
47 40 35
88 70 41
58 38 31
69 54 33
40 32 27
40 32 27
47 39 33
68 56 38
63 48 35
67 56 38
214 133 63
255 237 117
109 75 58
86 67 53
76 63 50
46 38 32
170 111 31
57 38 15
44 33 25
109 13 32
78 17 28
45 38 32
37 46 26
3 36 1
55 48 34
84 69 51
40 32 27
42 32 22
51 45 34
48 37 29
51 42 31
52 51 35
73 49 35
54 47 37
60 36 33
58 48 37
47 39 33
44 39 32
48 49 36
58 41 33
64 55 43
56 48 40
54 46 36
51 43 36
46 39 33
47 39 33
47 39 33
46 39 33
47 39 33
48 40 34
47 39 33
47 39 33
50 41 33
50 36 22
63 54 44
51 54 44
45 40 33
50 36 32
52 19 26
74 34 36
82 45 32
106 72 65
85 59 53
47 39 33
58 49 43
67 58 51
47 39 33
46 39 33
40 30 26
38 31 26
46 38 32
45 37 31
52 47 43
79 71 52
54 49 45
55 50 46
54 50 45
53 48 44
55 50 46
54 49 45
55 50 46
55 50 46
55 50 45
54 49 45
55 50 46
81 72 54
57 52 46
55 50 46
55 50 46
54 49 45
54 49 45
99 81 57
54 49 45
54 48 44
54 48 45
55 49 45
54 48 44
53 48 44
53 46 43
54 48 44
54 37 36
53 36 35
80 53 33
38 24 21
63 38 34
114 76 67
137 96 87
139 97 88
140 98 89
139 97 88
138 97 88
51 47 43
52 47 43
53 48 44
53 48 44
56 51 47
55 50 46
55 51 46
55 50 46
56 51 47
55 50 46
55 50 46
56 51 47
56 51 47
56 51 47
56 51 47
56 51 47
55 50 46
55 50 46
56 51 47
56 51 47
56 51 47
55 50 46
56 51 47
81 73 55
56 51 47
56 51 47
55 51 47
56 51 47
56 51 47
56 51 47
56 51 47
72 55 48
55 50 46
55 50 46
55 50 46
56 51 47
55 50 46
80 72 54
56 51 47
56 51 47
55 50 46
55 50 46
56 51 47
56 51 46
55 50 46
81 72 54
56 51 47
55 50 46
55 50 46
56 51 47
56 50 46
56 51 47
56 51 46
56 51 47
56 51 47
56 51 47
56 51 47
54 49 45
54 49 46
56 51 47
61 55 50
61 55 50
58 53 48
57 52 47
54 50 45
105 94 66
58 53 49
62 56 51
63 58 52
55 50 46
59 54 49
69 61 56
83 77 68
54 49 46
55 50 46
56 51 47
55 50 46
55 50 46
56 51 47
56 51 47
55 50 46
81 73 55
55 50 46
56 51 47
54 50 46
56 51 46
56 51 47
97 84 70
120 113 99
131 123 105
137 128 108
142 132 110
144 134 111
144 134 111
143 133 111
141 131 110
135 126 107
255 255 178
255 255 255
255 255 255
97 87 59
56 51 47
56 51 47
55 50 46
55 50 46
82 73 55
81 72 54
55 50 46
55 50 46
56 51 47
56 51 47
81 73 55
56 51 47
55 50 47
56 51 47
56 51 47
56 51 47
56 51 47
100 89 61
81 73 55
55 50 46
54 50 46
81 73 55
80 72 53
80 72 54
55 50 46
99 88 60
55 50 46
79 70 52
114 101 65
96 85 56
48 41 37
45 35 33
44 36 33
61 48 39
47 38 34
54 43 36
47 38 34
46 37 33
46 38 34
80 63 36
39 32 28
47 37 30
32 25 23
113 100 61
113 100 63
86 75 53
69 54 42
134 118 72
99 88 60
109 95 63
117 104 67
80 72 54
116 103 67
100 89 61
130 116 73
116 103 67
130 115 72
116 103 67
116 103 67
56 51 47
143 126 78
81 72 54
116 103 67
100 89 61
155 137 83
143 127 78
130 116 73
143 127 78
130 116 73
116 103 67
100 89 61
140 117 73
142 126 77
142 126 77
100 89 61
130 115 72
99 88 59
154 135 81
126 102 65
164 145 85
180 153 88
119 98 61
85 31 35
122 44 37
90 33 37
87 32 35
156 55 44
136 46 40
158 55 44
157 55 43
166 56 46
83 30 33
147 32 35
135 100 62
134 112 67
170 137 81
233 201 114
164 144 85
155 136 81
144 126 78
174 147 88
154 137 83
171 152 88
175 155 91
143 126 77
130 115 72
130 116 73
219 193 110
175 155 90
115 102 66
175 155 90
154 136 81
99 88 58
113 101 64
203 180 102
126 111 65
144 126 72
110 98 56
67 60 37
50 46 21
122 95 30
35 34 20
88 57 27
86 54 24
33 31 21
28 25 22
34 32 25
70 62 42
76 68 45
76 68 49
55 50 44
115 102 64
142 126 77
81 72 54
126 110 70
142 126 77
129 114 71
144 127 78
116 103 67
100 89 60
154 137 83
116 103 67
142 126 76
97 74 56
81 72 54
130 115 72
99 88 60
130 115 72
113 89 61
221 91 74
255 80 79
255 81 80
186 56 63
131 40 56
130 40 56
130 39 55
128 39 54
130 40 55
128 39 54
122 37 51
230 65 62
164 68 55
100 88 59
53 48 44
55 49 45
73 63 49
100 89 61
69 49 44
88 75 53
94 82 56
104 82 57
73 63 48
80 71 53
54 49 45
98 87 59
87 74 52
71 61 47
87 74 51
50 45 41
121 104 64
50 46 42
125 109 68
69 59 44
116 99 61
97 86 56
49 44 40
69 59 44
102 88 55
77 68 48
77 62 38
59 47 32
41 34 28
42 34 29
43 36 30
45 37 31
64 49 36
46 39 33
46 38 32
75 53 35
78 47 33
88 60 46
90 62 49
46 38 32
45 38 32
64 53 35
40 30 24
44 28 25
27 18 16
30 18 18
48 40 32
43 36 30
28 29 20
28 24 19
34 28 23
44 37 31
75 60 36
44 31 24
45 29 18
113 32 53
58 27 35
54 46 28
70 50 29
51 39 30
42 32 25
69 63 45
43 50 46
34 38 41
67 57 46
41 32 37
46 39 31
92 67 52
57 86 55
32 43 36
54 37 35
50 53 38
46 39 33
66 37 28
92 66 54
47 39 33
59 49 37
88 72 47
38 31 26
40 36 29
32 36 24
39 34 28
43 36 30
73 12 40
70 3 38
45 27 27
75 49 46
45 35 31
51 43 37
96 83 71
84 69 61
46 39 33
54 46 37
54 45 37
45 37 31
46 38 32
48 41 36
53 48 44
54 49 45
54 49 45
54 48 44
52 47 43
53 48 44
56 50 46
53 48 44
54 49 45
55 50 46
55 50 45
55 50 46
55 50 46
55 50 46
55 50 45
77 66 51
54 49 45
54 49 45
55 50 46
55 50 46
55 49 45
55 50 46
53 47 43
54 49 45
54 49 44
52 47 43
99 73 54
53 46 42
53 38 37
54 37 37
50 34 31
31 20 19
56 38 34
120 84 78
128 90 84
131 92 85
132 93 85
132 93 86
131 92 85
51 46 42
66 56 45
53 48 44
67 57 46
54 49 45
55 50 45
54 49 45
55 50 46
55 50 46
56 51 47
55 50 46
56 51 47
55 50 46
56 51 47
55 50 46
56 51 47
55 51 46
55 50 46
56 51 47
56 51 47
55 51 46
81 72 54
56 51 47
55 50 46
56 51 47
81 73 55
55 50 46
56 51 47
56 50 46
62 51 46
88 56 43
107 59 40
114 60 38
113 60 39
166 87 45
81 53 42
65 51 45
81 72 54
56 51 47
56 51 46
56 51 47
55 50 46
55 50 46
55 51 46
56 51 47
56 51 47
55 50 46
55 51 46
56 51 47
81 72 54
81 73 54
56 50 46
56 51 47
56 51 47
56 51 47
80 72 54
80 72 54
55 50 46
54 50 46
163 144 82
71 64 57
85 76 57
58 53 48
67 61 54
60 55 50
61 56 50
62 57 51
58 53 49
64 58 53
58 53 48
40 35 39
101 92 83
64 59 53
55 50 46
54 50 46
55 50 46
55 50 46
54 49 45
55 50 46
55 50 46
81 73 54
55 50 47
55 50 46
56 51 47
56 51 47
79 71 53
53 49 45
78 73 65
123 115 101
131 123 105
136 127 107
140 131 109
142 132 110
142 132 110
141 131 110
138 129 108
134 126 106
127 119 102
255 255 255
255 255 255
96 87 59
55 50 46
55 50 46
55 50 46
55 50 46
81 72 54
56 51 47
56 51 47
56 51 47
56 51 47
55 51 46
100 89 61
56 51 47
81 73 55
56 51 47
56 51 47
55 50 46
56 51 47
80 72 54
55 50 46
55 50 46
81 72 54
56 51 47
80 72 53
100 89 61
99 88 60
79 71 52
80 71 53
77 69 51
77 69 50
47 43 40
76 68 49
38 32 30
47 37 31
42 34 32
45 36 33
41 33 30
76 53 40
79 62 40
42 34 31
53 37 34
39 31 27
33 27 24
69 61 40
110 97 59
127 112 68
82 72 52
100 89 60
129 115 72
58 51 44
82 72 53
99 88 60
85 75 54
54 49 45
130 115 72
100 89 61
81 73 54
81 73 54
155 137 83
100 89 61
81 73 55
81 73 55
116 103 67
116 103 67
100 89 61
143 127 78
130 115 73
155 137 82
116 102 66
81 72 53
154 137 82
116 103 67
116 103 67
175 155 91
100 88 60
100 89 61
154 136 82
143 125 76
128 113 70
115 100 63
164 145 85
113 99 61
140 122 72
87 58 40
126 41 32
93 34 34
153 53 42
119 42 38
140 55 41
121 43 39
75 27 29
78 27 30
130 38 33
99 78 48
131 110 65
99 84 55
176 153 89
173 145 84
131 113 69
143 126 76
144 126 77
140 116 72
130 115 72
100 89 60
99 89 60
194 171 99
130 115 72
130 115 72
143 126 78
165 146 87
154 136 82
154 136 82
116 103 67
141 125 75
153 135 80
115 102 64
128 113 68
142 123 70
126 111 64
67 60 36
35 32 21
42 29 22
25 23 16
15 14 12
25 23 21
57 48 30
37 33 30
41 37 31
47 41 35
52 47 41
77 68 49
98 87 57
116 103 66
93 81 55
80 72 53
72 63 48
127 104 68
80 71 53
163 137 83
56 51 47
115 102 66
142 126 77
140 116 73
100 89 61
115 102 66
130 115 72
129 115 72
141 115 72
128 104 68
100 89 60
255 109 96
255 80 77
123 38 54
188 57 64
127 39 55
128 39 55
128 39 55
128 39 55
127 38 54
124 38 53
122 37 51
158 45 50
155 44 48
118 85 59
60 50 45
55 51 44
99 88 60
75 70 50
72 62 47
99 88 60
110 96 62
78 70 51
73 63 49
53 48 44
109 96 61
100 87 56
69 49 44
100 84 55
69 60 45
93 81 55
76 67 48
52 47 43
85 72 49
78 69 50
126 107 65
49 44 40
85 72 49
135 113 65
71 60 44
97 81 51
77 63 40
77 62 38
59 47 32
44 37 31
46 38 32
62 50 35
46 39 33
46 38 32
46 38 32
62 46 33
56 39 27
48 33 27
79 62 30
82 67 41
45 38 32
46 39 32
46 39 33
46 39 32
45 38 32
62 49 30
89 68 35
72 56 34
47 39 33
46 39 32
46 39 33
56 63 32
34 43 25
37 35 26
42 35 30
41 20 27
67 16 40
55 29 28
39 31 23
49 39 35
123 92 75
76 62 43
74 92 52
33 46 38
45 38 32
37 37 26
53 56 28
76 54 46
62 47 41
47 39 33
129 72 46
75 47 17
46 39 32
82 29 25
77 32 29
47 39 33
45 37 31
39 33 26
51 37 32
40 34 28
31 26 22
45 38 32
45 34 31
52 2 29
40 23 25
38 28 26
34 26 24
43 35 30
71 61 54
80 69 60
49 42 37
50 41 34
51 43 35
44 37 31
45 38 32
46 38 32
52 47 42
56 51 46
54 48 44
53 48 43
56 51 47
54 49 45
55 49 45
55 50 46
55 50 46
55 50 46
55 50 46
54 49 45
53 49 45
80 63 50
81 72 54
55 49 45
54 48 44
80 71 52
56 51 46
55 50 45
55 50 46
80 63 50
80 63 50
55 48 45
55 49 45
53 47 43
53 46 43
53 47 44
50 44 41
53 39 38
53 36 36
54 37 36
54 37 37
51 35 33
76 52 50
87 60 57
113 80 75
122 86 83
119 77 74
255 28 57
51 46 42
50 45 41
52 47 43
53 49 44
74 70 50
55 50 46
56 51 47
56 51 47
56 51 47
55 50 45
55 50 46
56 51 47
56 51 47
56 51 47
55 50 46
55 50 46
55 51 46
56 51 47
55 50 46
56 51 46
55 51 47
55 50 46
55 50 46
55 50 46
80 72 54
56 51 47
56 51 47
56 51 47
88 55 42
115 61 39
116 61 39
116 61 39
117 61 39
117 61 39
113 59 37
115 60 38
165 85 43
194 103 51
56 51 47
55 50 46
56 51 47
56 51 47
55 50 46
55 50 46
55 50 46
55 50 46
56 51 47
81 72 54
56 50 46
55 50 46
54 49 45
55 50 46
80 72 54
55 50 46
55 50 46
55 50 46
55 50 46
55 50 46
54 49 45
54 50 46
86 78 69
230 202 112
51 43 39
60 54 49
57 52 47
59 54 49
64 59 52
73 66 46
51 47 35
116 99 84
110 98 84
94 85 66
53 49 45
55 50 46
80 72 53
55 50 46
54 50 46
55 50 46
80 72 54
54 49 46
55 50 46
54 49 45
56 51 47
56 51 47
55 50 46
56 51 47
91 83 64
84 75 65
119 109 95
128 120 103
132 124 106
136 127 107
138 128 108
137 128 108
136 127 107
134 125 106
130 122 104
170 150 104
217 170 94
183 164 89
95 87 59
100 89 61
55 50 46
55 51 47
81 72 54
99 89 60
100 89 61
81 73 54
54 49 46
81 72 54
56 51 47
81 72 54
81 72 54
81 73 55
81 73 54
81 72 54
81 73 55
56 51 47
55 50 46
81 72 54
70 56 46
81 72 54
80 72 54
54 49 45
51 47 43
53 48 45
54 49 46
115 102 65
78 70 52
49 45 41
47 43 40
44 39 36
39 35 32
38 32 30
36 29 27
42 34 32
39 31 29
50 40 30
55 44 35
31 26 23
31 25 23
57 45 25
88 78 46
123 108 63
76 67 45
100 88 55
96 86 57
80 71 53
54 49 45
105 92 61
81 73 54
80 72 54
116 103 66
129 115 71
55 50 46
100 89 61
81 73 54
116 103 67
116 103 67
56 51 47
116 103 67
81 73 55
80 72 54
100 89 61
100 89 61
116 103 67
100 89 61
116 103 67
81 72 54
130 115 73
91 72 54
116 102 66
99 88 60
132 116 73
116 102 66
100 89 60
153 136 81
165 146 87
117 102 65
142 124 75
114 100 64
115 100 63
139 121 70
74 63 44
49 22 22
99 36 24
85 30 30
75 27 29
77 28 30
69 25 27
105 37 34
58 22 24
50 23 23
34 27 25
143 122 72
120 86 55
140 123 74
219 193 109
129 114 71
124 110 67
154 136 81
185 164 96
181 154 91
130 115 73
163 138 83
154 136 81
130 116 73
129 114 71
154 137 82
142 126 76
154 136 82
154 136 82
145 127 77
142 126 75
132 117 71
102 89 57
115 101 65
89 74 51
80 71 48
71 63 43
45 41 35
69 61 41
41 37 31
40 36 30
41 34 29
40 36 32
45 41 34
44 40 36
62 44 39
50 45 41
50 46 42
79 71 50
85 75 50
86 77 52
99 88 60
88 78 54
112 89 61
81 72 54
130 115 72
143 127 78
152 127 78
130 115 72
100 89 61
129 105 69
99 88 59
130 115 72
100 89 61
138 105 69
96 73 55
165 81 63
255 89 82
119 36 51
123 38 53
121 37 52
124 38 53
126 38 54
126 39 54
127 38 53
127 39 54
118 35 50
164 47 55
160 46 52
196 55 56
250 81 63
80 71 53
80 71 53
54 48 44
79 71 52
87 73 51
121 105 66
111 97 63
80 71 53
71 61 46
99 88 60
73 63 47
79 70 52
49 44 41
88 74 52
54 49 44
115 102 65
93 81 55
51 46 42
109 95 61
77 69 50
116 99 62
90 78 51
77 69 48
85 72 49
76 67 48
84 70 47
68 58 42
82 63 37
72 56 35
59 47 32
45 38 31
43 36 30
73 57 36
47 39 32
67 56 38
67 55 37
75 57 34
58 46 28
33 23 20
43 35 29
45 38 32
46 39 32
67 56 38
47 39 33
67 55 37
146 110 39
66 51 26
74 56 29
58 46 32
67 56 38
46 39 32
49 60 26
76 96 35
33 36 24
45 37 31
44 37 31
125 52 43
86 35 39
58 38 34
46 39 33
33 27 24
84 68 53
79 64 56
40 35 30
47 39 33
43 36 30
36 31 25
38 32 27
54 38 29
91 45 18
72 39 15
41 31 24
46 38 31
67 35 28
54 30 26
46 39 32
47 39 33
72 18 28
72 9 26
46 38 32
46 38 32
46 39 33
40 33 28
31 25 21
39 32 27
41 34 29
43 35 30
46 39 32
48 40 35
47 40 37
43 36 31
44 37 30
55 46 38
44 37 31
45 38 31
47 40 35
56 51 46
54 49 44
54 48 45
54 49 45
55 49 45
55 50 46
54 49 45
55 50 46
55 50 46
53 48 44
55 50 46
55 50 46
73 63 49
54 49 45
55 50 46
55 50 46
55 50 45
81 72 53
54 49 45
55 49 45
54 48 44
55 50 45
53 48 44
54 49 45
54 48 44
51 45 41
79 61 48
52 45 42
50 44 41
77 56 44
52 35 35
54 36 36
54 37 37
55 38 37
52 36 36
92 64 59
67 47 43
58 41 43
67 24 30
83 1 21
54 50 45
50 45 41
54 50 45
52 48 43
54 50 45
53 49 45
55 50 46
56 51 47
56 51 46
54 50 45
56 51 47
54 49 45
55 50 46
56 51 46
56 51 47
56 51 47
56 51 47
56 51 47
56 51 47
55 51 46
56 51 47
56 51 47
56 51 47
56 51 47
55 50 46
56 51 47
56 51 47
91 55 42
115 61 38
116 61 38
116 61 38
117 61 39
117 62 39
118 62 39
116 61 39
116 61 38
113 60 38
109 57 36
156 83 44
55 50 46
55 50 46
55 50 46
55 50 46
55 50 46
56 51 47
81 72 54
55 50 46
54 49 45
55 49 45
56 51 47
55 50 46
56 51 47
56 51 46
56 51 47
55 50 46
54 50 46
53 48 45
56 51 47
80 72 53
80 72 54
57 55 47
87 80 70
140 96 54
143 89 42
60 52 42
96 83 73
152 139 84
182 167 62
110 101 80
110 101 88
76 70 62
53 48 45
52 48 44
55 50 46
55 50 47
79 71 53
56 51 47
54 49 46
55 50 46
55 50 46
56 51 47
55 50 46
80 72 54
81 72 54
56 51 47
81 73 54
53 50 45
70 64 56
112 115 85
120 113 99
126 119 103
130 122 104
131 123 105
132 123 105
130 122 104
127 120 103
122 115 100
104 97 84
149 71 52
47 43 40
53 49 45
54 49 45
98 88 61
54 50 46
55 50 46
55 50 46
55 50 46
55 50 46
56 51 47
56 51 47
81 73 54
81 72 54
55 50 46
56 51 47
56 51 47
56 51 47
81 73 54
55 50 46
56 51 47
56 51 47
55 50 46
56 51 47
55 50 46
80 72 53
55 50 46
55 50 46
79 70 52
79 70 52
53 48 44
47 43 39
50 46 42
44 40 37
42 38 36
29 26 25
25 22 20
25 20 19
31 24 23
31 25 23
41 32 26
27 22 20
20 17 16
65 57 36
66 58 38
44 38 32
72 64 45
42 38 35
97 86 57
54 49 45
84 74 54
97 86 57
81 72 54
100 89 60
144 126 78
130 115 72
100 89 61
179 158 93
56 51 47
99 88 60
81 73 55
116 103 67
81 73 55
100 89 61
81 73 55
116 103 67
80 72 53
130 115 73
56 51 47
130 115 73
130 115 73
116 103 67
130 115 72
100 89 61
154 136 82
116 103 67
143 126 78
130 115 72
165 145 86
101 87 59
117 102 65
110 91 58
98 85 56
116 100 63
50 38 35
43 34 31
44 25 22
39 24 22
33 16 17
49 17 20
107 27 25
107 38 24
65 27 23
38 20 20
45 26 23
37 32 30
113 98 60
127 111 67
187 162 93
184 162 94
114 88 59
154 136 82
129 114 70
115 101 65
169 147 87
163 137 83
176 155 92
148 128 78
155 137 83
175 154 90
154 136 82
54 50 45
143 126 77
100 89 60
202 179 102
155 137 82
114 101 64
99 88 60
79 71 50
75 67 48
97 85 55
50 44 38
95 84 54
68 50 38
67 47 38
41 37 34
41 38 33
44 40 37
79 59 43
45 41 37
52 48 44
52 46 41
53 48 44
79 71 52
55 50 46
79 71 52
99 88 59
80 72 53
99 88 60
100 89 60
94 82 57
122 107 67
100 89 61
81 72 54
100 89 61
54 49 45
111 97 64
62 52 46
116 103 67
115 90 63
101 87 59
77 40 42
177 53 58
115 35 50
109 33 47
119 36 51
124 38 53
122 37 52
124 38 54
122 37 52
123 38 53
116 35 49
122 37 49
111 34 47
96 28 37
99 29 37
110 95 61
99 87 59
77 69 50
71 61 46
80 72 53
125 109 68
72 62 48
74 64 49
72 62 48
106 91 59
79 70 51
99 83 54
88 75 52
70 60 45
92 80 54
52 46 42
79 70 52
51 46 42
105 90 57
71 61 45
85 72 49
120 100 59
115 98 60
70 60 45
78 69 49
126 106 62
68 57 41
53 36 29
76 61 37
73 57 36
46 39 32
44 37 31
46 39 32
46 38 32
78 63 39
67 55 37
75 56 37
61 45 32
40 37 26
42 35 29
45 38 32
46 39 32
46 39 32
46 38 32
45 38 31
38 32 26
33 26 15
55 41 20
49 41 30
46 38 32
45 38 32
36 31 26
24 25 17
38 33 27
46 38 32
45 37 31
37 26 23
41 23 22
65 52 42
53 45 37
54 45 38
39 31 34
47 37 40
46 39 32
47 39 33
47 40 33
47 39 33
47 40 33
75 46 29
160 88 38
77 45 28
46 39 32
38 46 33
57 70 39
42 39 31
46 39 33
52 31 28
56 5 20
47 17 20
45 37 32
46 39 32
45 37 32
46 38 32
45 38 32
46 39 33
47 39 33
46 39 33
42 36 31
28 24 23
33 28 25
48 41 34
57 48 39
50 42 35
45 38 32
45 38 32
77 68 49
80 71 53
54 48 44
54 49 44
79 71 52
54 49 45
53 48 44
54 49 45
55 50 46
54 49 44
55 49 45
54 49 45
53 47 43
54 49 45
55 50 46
55 50 46
54 48 44
80 63 50
56 51 46
55 49 45
56 51 47
54 48 45
56 50 46
54 48 44
80 62 50
52 45 42
51 46 42
50 44 41
76 58 45
47 40 37
44 38 35
47 32 32
51 34 34
56 38 38
53 35 35
55 37 37
54 38 37
54 37 36
51 35 34
42 23 24
48 5 14
65 55 44
52 48 43
53 48 43
54 49 45
54 49 45
67 58 46
55 50 46
56 51 46
56 51 47
56 51 47
55 50 45
56 51 47
56 51 47
56 51 47
56 51 47
56 51 47
55 50 46
56 51 47
56 51 47
56 51 47
56 51 47
56 51 47
56 51 47
56 51 47
55 50 46
56 51 46
87 54 42
116 61 39
113 60 38
115 61 38
116 61 39
116 61 39
115 60 38
116 61 38
114 60 38
115 60 38
111 59 37
165 85 44
238 122 54
228 120 56
80 71 53
56 50 46
56 51 47
56 51 47
55 50 46
56 51 47
55 50 46
55 51 46
53 48 45
82 73 53
111 92 62
56 51 47
81 73 54
100 89 61
56 50 46
55 51 46
55 56 48
78 91 58
53 56 47
53 55 47
54 50 46
54 49 45
68 62 55
81 67 55
88 68 53
99 86 72
117 107 93
103 94 82
82 75 66
60 55 50
52 48 44
54 50 46
80 72 54
58 56 48
55 50 46
55 51 47
55 50 46
101 92 62
54 50 46
55 50 46
54 49 45
56 51 47
55 50 46
55 50 46
55 50 47
56 51 47
51 47 43
130 79 50
96 118 59
99 94 82
115 108 96
122 115 100
123 116 101
124 116 101
118 110 97
101 95 84
75 70 62
70 64 55
88 75 52
76 70 52
76 69 51
55 50 44
98 88 60
79 71 54
105 97 62
54 49 45
55 50 46
55 51 46
55 50 46
81 73 55
98 88 60
80 72 54
80 72 54
80 72 54
56 51 47
56 51 47
81 72 54
55 50 46
55 50 46
80 72 54
53 48 45
54 50 46
54 49 45
55 50 46
80 72 54
54 49 45
69 55 44
53 48 44
51 47 43
53 48 44
46 42 38
46 42 39
39 36 33
36 32 30
32 29 27
21 19 18
24 21 19
23 21 19
17 16 15
63 56 34
23 20 18
67 59 38
33 30 28
71 63 43
128 113 69
126 111 67
77 68 49
77 69 51
78 69 51
79 71 52
55 50 46
102 90 61
116 103 67
116 103 67
118 105 67
99 88 60
85 75 54
100 89 61
116 103 67
81 72 54
130 115 73
116 103 67
155 137 83
130 115 73
116 103 67
100 89 61
100 89 61
81 72 54
100 89 60
81 73 54
143 127 78
55 50 46
116 103 67
154 137 82
81 72 54
96 74 55
130 115 73
130 114 71
115 102 65
116 101 64
113 100 63
77 68 49
110 97 59
71 62 42
51 34 31
43 28 26
28 23 22
24 21 19
21 17 16
31 21 20
28 24 23
40 30 27
33 23 21
72 63 44
164 144 85
103 85 55
120 99 61
165 145 85
79 70 52
114 101 65
129 114 71
115 102 65
154 137 83
143 127 78
125 107 67
123 105 67
154 136 82
143 126 78
130 115 72
130 115 72
84 73 53
56 51 47
165 146 86
115 102 65
150 103 65
222 138 80
255 150 86
251 130 76
231 119 71
197 104 64
67 47 43
60 50 43
49 45 41
51 46 43
58 51 41
52 47 44
63 46 41
51 46 42
66 52 45
74 64 48
72 63 48
81 73 54
79 71 52
80 71 53
116 102 66
113 90 62
100 89 60
81 72 54
81 72 54
130 115 72
140 116 73
55 50 46
80 71 53
81 73 54
129 114 71
99 88 60
113 89 61
113 90 62
145 92 64
126 52 50
103 30 42
119 40 49
179 54 60
115 35 50
116 36 51
120 36 51
120 37 52
117 36 50
119 37 52
138 45 51
112 34 48
105 31 45
192 54 52
85 25 35
141 76 56
98 87 58
117 100 63
74 63 49
99 88 60
53 48 44
106 91 59
53 48 43
93 81 56
120 104 64
87 71 52
71 61 46
93 81 55
53 48 44
93 81 55
93 81 55
90 76 51
92 80 54
70 60 46
97 81 51
86 72 49
91 78 52
104 89 56
124 108 65
68 58 42
69 59 44
98 81 49
91 74 45
71 56 34
46 38 30
41 34 29
45 37 31
45 38 31
49 37 31
62 47 35
46 39 32
45 38 32
83 68 41
44 36 30
67 55 37
47 39 33
45 38 31
47 39 33
53 47 33
48 41 34
44 37 31
39 33 27
33 28 22
44 37 31
43 36 30
46 39 32
47 39 33
46 39 32
46 39 32
46 38 32
45 38 32
46 39 33
46 39 33
49 41 35
81 68 53
92 81 44
103 79 57
104 80 58
53 41 33
46 39 33
47 40 33
47 39 33
44 36 30
66 38 23
138 76 30
66 42 29
40 33 28
21 25 19
27 30 23
40 34 28
45 38 32
76 34 33
88 33 35
74 33 33
46 39 32
48 39 33
76 50 40
79 51 40
46 39 32
47 39 33
47 39 33
45 38 32
37 31 27
36 30 26
44 37 30
46 38 32
51 43 35
45 38 31
46 38 32
45 38 32
52 47 43
53 48 44
52 47 43
53 48 44
55 50 46
80 71 52
54 49 45
56 51 46
53 48 44
55 50 46
52 47 43
55 49 45
54 49 45
56 51 46
55 49 45
54 49 45
56 51 46
54 49 45
54 49 45
58 51 46
79 71 52
55 50 46
54 49 45
54 48 44
55 49 45
52 47 43
52 46 43
51 44 41
48 42 39
47 37 34
40 33 31
74 53 39
41 27 27
49 32 32
53 35 35
56 39 38
51 35 34
52 35 34
52 35 34
47 31 30
43 28 28
49 45 41
53 49 44
53 48 44
54 49 45
54 49 45
55 51 46
54 49 45
55 50 45
55 51 46
56 51 46
56 51 47
56 51 46
55 51 46
56 51 47
57 52 47
56 51 47
56 51 47
56 51 47
55 50 46
56 50 46
56 51 46
56 51 47
56 51 47
55 50 46
55 50 47
56 49 45
107 58 38
112 59 38
115 60 38
114 60 38
115 61 38
112 59 37
113 60 38
110 58 37
114 60 38
113 60 38
205 105 49
107 56 36
157 81 40
90 48 31
58 51 46
55 50 46
54 49 45
71 53 44
55 50 46
56 51 47
55 51 46
55 50 46
54 49 45
55 50 46
55 50 46
56 51 47
81 72 54
81 75 55
79 80 56
54 68 52
78 97 60
53 67 51
53 67 51
78 97 60
96 118 67
96 114 65
79 86 56
54 50 46
54 49 45
54 49 45
54 50 45
53 48 44
80 72 54
52 48 44
54 49 45
55 50 46
54 49 45
53 48 45
54 49 46
54 50 46
55 50 46
55 50 46
56 51 47
81 72 54
55 50 46
55 50 46
55 50 46
80 71 53
81 72 54
81 72 54
52 48 44
52 48 44
68 78 46
49 46 41
70 65 59
82 77 67
97 89 81
97 86 82
80 72 70
77 71 63
82 76 66
71 67 60
76 70 52
54 50 46
95 86 58
97 88 59
139 125 77
97 87 59
56 51 47
77 70 52
54 49 45
55 51 46
79 71 54
79 72 54
56 51 47
55 50 46
56 51 47
55 50 46
81 72 54
56 51 47
100 89 61
56 51 47
55 50 46
100 89 61
58 53 47
55 50 46
56 51 47
56 51 47
54 49 45
55 50 46
54 49 45
53 48 44
52 47 44
51 45 40
49 44 41
50 46 42
40 36 34
37 33 31
40 37 34
36 32 29
32 29 27
27 25 23
36 33 31
30 27 25
35 32 29
71 63 43
43 39 36
72 64 45
47 43 39
76 68 49
99 86 57
100 89 60
80 72 53
109 92 60
99 88 60
99 88 60
80 72 54
100 89 61
116 103 67
56 51 47
81 73 55
81 73 55
56 51 47
100 89 61
100 89 61
116 103 67
81 72 54
130 115 72
100 89 61
100 89 61
100 89 61
100 89 61
116 103 67
100 89 61
143 126 78
81 72 54
100 89 60
100 89 61
80 71 53
116 103 67
61 49 45
129 114 71
56 51 47
99 88 60
97 85 56
48 42 39
51 41 38
49 44 40
44 39 36
38 33 31
33 26 25
34 29 27
42 32 29
33 28 26
37 32 30
45 35 32
79 65 46
90 66 46
76 68 49
57 44 40
78 69 51
158 136 81
142 126 77
99 88 59
115 102 65
122 104 67
130 115 73
116 103 67
100 89 61
154 136 82
102 89 61
107 91 61
116 103 67
130 115 73
96 74 55
155 137 83
100 89 61
189 95 60
176 91 60
177 92 60
99 52 46
206 106 66
178 92 60
98 52 46
198 100 63
84 49 43
64 48 42
53 49 44
55 50 46
53 48 44
64 50 43
51 46 42
53 48 43
54 49 45
54 48 44
79 71 52
55 50 45
53 48 44
54 49 45
99 88 60
100 89 61
100 89 61
121 107 67
80 71 53
81 72 54
100 88 60
130 115 72
81 72 54
77 52 48
125 90 62
97 73 55
73 63 49
109 73 54
127 86 58
89 26 37
99 30 44
109 33 45
121 36 48
114 35 50
117 36 51
118 36 51
112 34 49
115 35 50
109 33 47
103 31 44
98 29 41
118 39 39
77 25 33
115 101 65
79 70 51
89 75 52
95 82 56
80 72 53
98 87 59
110 96 62
93 81 55
79 70 51
52 47 43
87 74 52
92 80 54
53 48 44
71 61 46
115 102 65
119 101 63
116 98 60
68 58 43
86 73 50
72 62 48
119 102 62
77 68 49
70 60 45
83 70 46
50 44 38
113 96 57
85 67 47
101 86 53
58 47 33
84 65 37
67 55 37
45 37 30
44 37 31
61 48 34
45 38 32
66 55 37
46 39 32
66 55 37
47 39 33
46 39 33
44 37 31
46 38 32
45 38 31
45 38 31
51 42 33
52 43 35
44 37 30
47 40 33
47 44 30
59 61 24
58 60 26
53 51 29
46 39 33
46 39 32
47 39 33
47 39 33
46 39 33
46 39 33
46 38 32
45 37 31
43 33 27
54 40 30
53 40 30
45 36 30
46 38 32
47 40 33
45 38 31
45 38 32
74 45 26
38 30 25
42 35 29
40 34 28
37 31 26
40 34 28
45 38 32
66 33 32
123 46 38
74 28 29
61 30 29
47 39 32
88 54 42
94 56 43
90 54 42
56 41 34
47 40 33
45 38 32
45 38 32
43 36 30
45 38 32
57 42 35
82 69 55
51 43 36
44 37 31
46 39 33
52 47 43
54 49 44
54 49 45
53 47 43
54 48 44
52 47 43
53 48 44
53 48 44
54 49 45
53 48 44
55 50 45
56 50 46
54 49 45
55 50 46
55 50 46
53 49 45
54 49 45
56 51 46
55 51 46
54 49 45
56 50 46
55 50 46
53 48 44
53 46 43
55 49 45
51 44 40
53 48 44
53 47 43
51 44 41
48 42 39
43 37 34
42 36 34
68 48 35
71 49 35
41 25 24
42 27 28
44 29 29
49 32 32
51 34 34
51 33 33
51 34 34
51 33 33
52 48 43
53 49 44
54 49 45
54 50 45
54 50 45
68 59 48
54 49 45
53 49 44
56 51 47
56 51 47
55 51 47
80 72 54
55 50 46
55 50 46
56 51 47
56 51 47
56 51 47
56 50 46
56 51 47
56 50 46
56 51 47
55 50 46
55 50 46
55 50 46
55 50 46
78 53 43
106 56 36
109 57 37
112 59 37
112 58 37
111 59 37
111 59 37
110 58 37
110 58 37
110 58 37
109 57 36
109 57 37
105 55 35
98 52 33
199 102 46
62 43 35
55 50 46
55 50 45
56 51 47
54 49 45
54 49 45
55 50 46
55 50 46
81 72 54
53 48 44
110 92 61
54 50 46
54 56 47
53 67 51
53 67 52
54 68 52
54 68 52
53 67 52
54 69 52
71 85 55
77 96 60
95 117 66
137 166 84
55 56 45
55 50 46
54 49 45
79 71 52
55 50 46
80 71 53
54 49 45
54 49 45
55 50 46
54 49 46
54 49 45
80 72 54
56 51 47
56 51 47
55 50 46
53 49 45
55 50 46
56 51 47
100 89 61
55 50 46
54 49 46
55 50 46
54 50 46
51 47 43
76 69 51
52 49 45
52 48 44
53 50 45
52 49 44
76 70 52
51 47 44
54 50 46
74 69 61
75 71 62
54 50 46
53 49 45
77 70 52
121 109 66
55 50 44
93 84 56
97 88 60
78 71 53
81 72 54
99 89 61
78 71 53
55 51 46
56 51 47
81 72 54
81 73 55
56 51 47
100 89 61
55 50 47
56 51 47
56 51 47
56 51 47
55 50 46
56 51 47
55 50 46
55 50 46
55 50 46
55 51 46
54 49 45
80 72 54
56 51 47
54 49 45
53 48 44
53 48 45
49 45 41
48 44 41
47 43 40
45 40 37
45 41 38
43 39 36
40 36 33
39 35 32
42 38 35
41 37 34
109 96 58
72 64 44
74 66 47
75 67 48
51 46 42
77 69 50
78 70 51
97 87 58
53 48 45
53 49 45
55 50 46
81 72 54
99 88 60
130 115 72
81 72 54
81 73 54
99 88 60
81 72 54
116 103 67
143 127 78
116 103 67
100 89 61
116 103 67
55 50 46
116 103 67
116 103 67
56 51 47
116 103 67
100 89 61
116 103 67
131 116 72
81 73 55
116 103 67
116 102 66
115 102 66
81 73 54
100 89 61
130 115 72
55 49 45
99 88 59
117 103 66
51 45 41
51 46 42
75 66 47
48 42 39
49 44 40
46 37 34
45 36 33
41 36 33
47 37 34
45 37 34
53 44 41
60 45 38
78 69 51
113 100 63
79 70 52
124 104 67
130 115 72
116 103 67
79 70 52
99 88 60
130 115 72
99 88 60
136 117 73
99 88 60
180 156 92
81 72 54
100 89 60
115 102 66
100 89 60
154 136 82
166 146 87
255 139 81
176 91 60
143 74 53
99 52 46
99 52 46
99 52 46
99 52 46
144 75 54
142 74 53
165 84 55
82 44 40
65 50 44
53 49 44
66 51 44
55 49 44
66 51 44
54 49 45
55 50 46
52 47 43
56 51 47
80 71 52
81 72 54
100 89 61
55 50 46
82 73 54
81 72 54
100 88 59
116 103 67
81 73 54
100 89 60
97 74 56
100 88 60
80 71 53
81 71 53
138 103 68
79 69 51
78 50 46
143 75 57
90 30 37
162 35 49
99 30 43
103 31 45
97 29 42
163 44 53
106 32 46
109 33 47
109 33 47
103 31 45
101 31 44
112 38 37
91 27 36
86 60 43
51 46 42
109 95 61
49 44 40
79 71 52
72 62 47
101 85 56
99 83 54
99 88 59
100 89 61
79 71 52
71 61 47
51 46 42
109 96 61
78 70 51
109 95 60
71 61 46
70 60 45
52 46 42
91 79 53
49 43 38
73 62 47
84 71 48
103 88 55
111 93 56
98 82 52
89 77 50
104 88 54
95 79 49
83 69 44
57 45 30
75 60 36
77 61 37
67 55 36
43 36 30
44 36 30
46 38 32
45 38 32
69 55 37
45 38 31
46 38 32
44 37 30
46 38 32
46 39 32
48 40 33
116 89 45
49 41 33
48 40 33
48 41 32
49 50 17
78 79 21
88 92 24
61 65 21
53 52 28
46 39 32
47 40 33
47 39 33
46 39 33
47 39 33
45 38 31
45 38 32
40 33 27
54 41 25
38 31 26
46 38 32
46 39 32
47 39 33
46 39 32
47 39 33
47 39 33
46 39 33
46 38 32
46 39 32
46 39 33
46 39 32
46 38 32
57 26 26
56 21 23
44 19 19
42 33 28
75 47 37
84 54 38
75 60 32
70 65 29
60 56 29
45 38 32
46 39 32
46 39 32
44 37 31
45 38 32
44 36 31
44 37 31
44 37 31
45 38 32
48 42 38
53 48 44
52 47 43
53 48 44
54 49 45
53 48 44
54 49 44
54 48 44
53 47 43
53 48 44
52 47 43
55 49 45
54 49 45
54 49 45
80 71 53
54 49 45
56 50 46
55 50 45
55 50 46
55 50 46
56 51 47
52 47 43
55 49 45
53 48 44
80 71 53
54 48 44
53 48 44
53 47 44
78 60 48
50 44 41
50 43 40
42 36 34
73 54 41
41 34 31
68 49 35
25 20 19
29 20 21
25 15 15
34 21 21
37 24 25
39 25 25
32 23 23
40 30 29
50 46 42
49 45 40
73 70 49
54 50 45
55 50 46
75 72 52
55 50 46
55 50 45
75 72 51
55 51 46
55 50 46
56 51 47
55 50 46
56 51 47
56 51 47
56 51 47
55 50 46
56 51 46
55 51 47
56 51 47
56 51 47
56 51 47
55 50 46
57 52 47
55 50 46
85 53 41
102 54 34
109 58 37
113 59 38
111 59 37
109 58 37
111 58 37
108 57 36
126 67 37
107 56 36
107 56 36
102 54 34
134 58 36
96 51 33
195 100 44
143 78 43
54 49 45
54 49 45
55 50 46
93 75 53
73 56 47
55 50 46
81 72 54
81 72 54
55 50 46
55 49 45
98 90 61
51 64 50
53 68 52
54 68 52
53 67 51
54 68 52
54 68 52
53 67 52
54 68 52
77 96 59
95 117 66
94 117 65
109 134 71
52 48 44
54 49 46
54 49 45
53 49 45
54 49 45
55 51 47
53 48 45
53 48 44
55 50 46
55 50 46
55 50 46
55 51 47
55 51 46
54 49 46
80 72 53
56 51 47
55 51 46
81 72 54
54 49 45
55 50 46
54 49 46
52 47 44
79 70 52
53 49 45
51 48 44
53 49 45
53 50 46
52 49 45
53 50 46
54 50 46
53 50 46
77 71 53
52 49 45
95 87 59
80 75 51
109 98 61
74 67 47
75 68 50
52 48 44
80 72 53
81 73 55
77 70 52
56 51 47
53 49 45
81 71 53
55 50 46
83 74 56
55 50 46
55 51 47
55 50 46
56 51 47
56 51 47
54 50 46
56 51 47
56 51 47
80 72 54
55 50 46
55 50 46
55 50 46
55 50 46
55 50 46
53 49 45
55 50 46
52 48 44
53 48 44
54 49 46
55 50 46
53 48 44
52 47 43
50 45 42
47 43 40
48 43 40
50 46 42
45 41 38
46 42 39
48 44 40
49 44 41
50 46 42
50 45 41
54 49 45
51 46 43
98 87 58
79 70 52
116 103 67
81 72 54
80 72 53
80 71 53
56 51 47
116 103 67
81 72 54
99 88 60
81 73 55
81 72 54
81 72 54
116 103 66
56 51 47
106 94 61
116 103 67
100 89 61
81 72 54
116 103 67
100 89 61
100 89 61
116 103 67
126 110 70
116 103 67
100 89 61
100 89 61
116 103 67
55 50 46
100 89 60
106 94 60
116 103 66
99 88 60
81 72 54
99 88 60
99 88 59
59 46 42
53 47 43
70 64 48
75 66 47
51 46 42
48 42 39
51 46 42
50 40 37
49 43 40
49 43 40
78 69 48
50 44 40
52 47 43
76 68 49
141 125 75
90 72 52
130 115 72
115 102 66
132 116 73
154 136 81
143 126 77
116 102 66
100 89 60
100 88 60
116 103 67
136 117 73
144 127 78
100 88 60
115 102 65
116 103 67
198 104 65
89 47 42
204 105 66
97 51 46
97 51 46
96 51 45
97 51 45
98 52 46
97 51 45
96 51 45
95 50 45
88 46 41
172 90 60
53 48 44
54 49 45
53 48 44
55 50 46
53 48 44
55 50 46
55 50 46
81 72 54
93 81 55
56 51 47
130 115 73
55 51 46
100 88 60
81 72 54
81 73 55
80 72 54
143 126 78
81 72 54
99 88 60
80 72 53
54 49 45
79 70 51
75 50 46
99 87 59
114 101 64
93 68 50
81 60 42
85 26 37
85 26 37
93 29 41
108 33 44
96 29 42
108 36 44
101 31 44
139 45 49
157 42 50
115 39 40
99 34 39
135 38 38
93 75 49
48 43 39
78 67 48
52 46 43
125 109 68
50 45 41
79 71 52
79 70 51
79 70 52
72 63 48
79 69 49
78 69 50
99 83 53
72 62 47
105 90 57
94 81 55
111 92 57
48 42 39
53 48 44
100 88 54
85 71 48
69 59 45
118 100 62
103 88 55
84 70 47
134 112 65
44 40 36
100 83 51
98 82 50
108 89 52
80 65 41
42 35 29
71 55 34
88 70 41
59 47 32
44 37 31
44 37 31
59 47 32
45 37 31
43 36 29
44 37 31
46 38 32
45 38 32
67 55 38
53 45 37
46 39 32
43 36 30
45 38 31
46 39 31
160 168 37
42 44 15
49 52 16
51 54 18
53 57 19
47 40 32
47 39 33
46 39 32
47 39 33
46 39 33
46 39 32
47 39 33
47 39 33
46 39 32
46 39 32
47 39 33
47 39 33
46 39 33
46 39 32
55 46 38
59 49 40
44 37 31
46 39 33
46 39 32
46 39 32
44 37 31
40 33 28
34 28 24
30 22 19
35 29 24
39 33 27
72 46 30
65 60 27
63 60 26
63 59 25
56 52 27
45 38 32
46 39 32
46 39 32
46 39 32
43 36 31
45 38 32
45 38 32
45 37 31
47 40 34
50 45 41
52 47 43
50 45 42
53 48 44
54 49 45
53 49 44
55 51 43
80 72 53
54 49 45
53 48 44
54 50 46
54 49 45
55 50 46
53 48 44
52 47 43
55 50 46
53 48 44
54 49 45
53 48 44
55 50 46
55 50 46
55 50 46
55 49 45
55 49 45
54 49 45
53 47 44
54 48 45
54 48 44
52 47 44
52 47 43
88 63 47
52 46 42
45 40 37
47 40 37
37 29 28
34 28 27
29 24 23
21 15 15
27 21 21
22 17 17
31 25 24
40 31 30
42 35 34
53 48 44
72 69 48
52 48 44
75 71 51
55 50 46
55 50 46
55 50 46
56 51 47
56 51 47
56 51 46
55 51 46
54 49 45
56 51 47
56 51 47
55 50 46
55 50 46
55 50 46
56 51 47
56 51 47
55 50 46
56 51 47
56 51 47
54 49 45
56 50 46
55 50 45
88 51 38
97 50 32
105 56 36
106 55 36
105 55 35
108 56 36
105 55 35
103 54 35
110 58 37
102 54 35
103 54 35
158 82 41
89 47 30
255 134 55
227 116 48
137 75 42
52 47 43
54 49 45
54 50 45
52 47 43
65 50 44
51 46 42
53 48 44
53 48 44
55 50 46
80 72 53
51 61 48
52 66 51
53 67 52
53 67 51
53 67 52
53 68 52
53 67 51
53 67 52
78 97 60
76 95 59
76 95 59
48 61 48
93 115 64
94 111 62
53 48 44
55 50 46
54 50 46
53 48 45
55 50 46
55 50 46
54 49 45
54 49 45
53 49 45
55 50 46
55 50 46
80 72 53
55 50 46
55 50 46
55 50 46
56 51 47
82 73 55
80 71 53
55 51 46
54 50 46
55 50 46
51 47 43
47 43 40
48 45 41
50 46 43
51 47 44
51 48 44
77 70 52
77 70 52
51 48 44
51 48 45
94 86 58
70 65 47
71 66 46
106 96 59
110 99 62
48 44 41
52 47 42
76 69 51
81 73 55
62 58 51
85 76 58
58 51 46
88 79 61
107 95 67
68 61 55
58 53 48
83 74 56
81 73 55
81 72 54
56 51 47
56 51 47
55 50 46
55 50 46
55 50 46
56 51 47
81 72 54
56 51 46
56 51 47
55 50 46
55 51 46
54 49 45
56 51 47
55 50 46
53 48 45
54 49 45
55 51 46
50 45 41
51 47 43
53 48 44
48 43 40
51 47 43
53 48 44
48 43 40
78 69 51
78 70 51
78 69 51
100 89 60
115 102 65
52 48 44
53 48 44
55 50 46
115 102 66
99 88 60
81 73 55
80 72 53
55 50 46
100 89 61
116 103 67
56 51 47
115 102 66
81 72 54
56 51 47
56 51 47
81 73 55
116 103 67
130 115 72
100 89 61
100 89 61
100 89 61
99 88 60
130 115 73
130 115 73
100 89 60
99 88 60
81 73 54
81 72 54
81 72 54
130 115 73
100 89 61
56 51 47
86 72 53
116 103 67
115 102 66
99 87 58
80 71 53
53 47 43
54 49 45
52 46 42
52 47 43
54 49 45
52 46 43
51 45 41
54 48 44
55 50 46
77 67 49
52 47 43
51 46 42
61 48 43
115 102 65
99 88 60
114 101 64
81 72 54
116 103 67
83 73 54
143 126 78
142 126 77
56 51 47
81 72 54
81 72 54
143 127 78
100 89 61
123 105 67
99 88 59
100 89 61
145 126 76
87 46 41
96 51 45
136 69 49
141 73 52
141 73 53
96 51 45
97 51 46
104 54 46
97 51 45
97 51 45
95 50 44
126 63 47
89 47 41
107 87 58
67 52 45
89 74 54
79 71 52
80 72 53
55 50 45
53 48 44
99 88 60
81 73 54
80 71 53
80 71 53
116 103 67
100 89 61
54 49 45
81 72 54
59 51 47
100 89 61
54 49 45
53 48 44
80 71 53
80 71 53
115 102 65
95 72 53
77 68 50
122 87 59
108 84 55
88 41 39
87 27 33
86 25 32
71 21 30
90 27 39
95 29 42
158 42 50
96 30 42
104 30 42
90 27 39
82 25 36
81 24 31
76 27 34
48 42 37
91 69 50
47 42 38
79 68 49
78 69 50
92 80 54
72 62 47
115 102 65
79 69 50
70 60 45
92 80 54
71 61 47
79 70 51
52 47 43
90 76 53
72 62 48
111 95 58
50 45 41
71 61 46
70 60 46
49 44 40
90 78 52
103 89 56
83 70 46
45 40 37
67 57 42
90 78 51
103 87 51
112 95 56
122 106 64
88 76 49
105 86 48
81 62 35
57 45 30
64 53 35
66 54 36
43 36 30
60 48 33
45 38 32
61 49 34
45 38 32
46 39 32
67 55 37
46 39 32
43 36 30
56 47 38
68 56 37
96 56 48
56 47 38
76 67 38
30 30 14
31 32 11
36 39 13
41 41 18
42 36 30
44 38 31
46 38 32
46 39 32
46 39 32
46 39 32
47 39 33
46 39 33
47 39 33
46 39 33
46 39 32
47 40 33
48 40 33
52 44 36
53 44 35
54 45 36
50 42 35
47 40 33
46 39 33
46 38 32
46 39 32
44 37 31
43 36 30
42 35 29
41 34 29
37 30 25
54 51 23
54 51 22
52 48 21
48 44 20
45 39 28
44 37 31
44 37 31
46 39 32
46 39 32
44 37 31
45 38 32
46 38 32
41 34 29
48 43 39
77 68 49
53 47 43
51 46 42
52 47 43
53 48 44
53 48 44
53 48 44
54 48 44
72 57 46
54 50 45
54 48 44
53 48 44
53 48 44
53 48 44
52 47 43
55 49 45
53 48 44
54 49 44
56 51 47
55 49 45
54 49 45
55 49 45
54 49 45
55 50 46
55 49 45
55 50 46
54 48 44
54 49 45
54 49 45
54 49 45
80 62 49
53 46 43
48 43 40
46 39 37
43 37 34
41 34 32
38 32 30
41 32 31
34 27 26
38 31 30
36 29 28
40 32 30
40 34 32
53 49 44
51 47 42
54 49 45
54 50 45
55 51 46
55 50 46
56 51 47
55 50 46
56 51 47
56 51 47
56 51 47
56 51 47
55 50 46
55 50 46
81 73 54
55 51 47
56 51 47
56 51 47
56 51 47
55 51 47
56 51 47
80 72 53
55 50 46
54 49 45
55 50 46
83 50 38
96 50 32
97 51 33
107 56 36
99 52 34
103 55 35
101 53 34
96 50 33
95 50 32
101 53 34
95 50 32
91 48 31
85 45 29
145 74 35
72 36 22
51 37 31
52 47 44
53 47 44
52 47 43
78 55 46
79 70 52
93 74 53
54 49 45
54 49 45
79 71 52
51 50 44
66 68 50
51 65 50
51 65 50
52 66 51
53 67 51
52 66 50
52 66 51
52 65 50
51 65 51
76 94 59
76 94 58
50 64 50
49 62 48
93 114 63
53 49 44
58 53 46
54 49 45
54 49 45
55 50 46
63 63 49
53 48 45
55 50 47
55 50 46
55 50 46
55 51 47
55 50 46
56 51 47
55 50 46
54 50 46
83 77 55
55 50 46
55 50 46
54 49 45
52 48 44
53 49 45
48 44 41
44 40 37
46 42 39
37 33 30
40 37 34
42 40 37
49 46 42
49 46 43
71 65 47
42 39 37
64 59 41
62 57 36
96 85 54
47 43 37
106 96 59
49 45 41
78 70 52
62 57 52
108 98 70
71 65 59
69 63 57
82 74 56
68 62 55
61 56 51
64 59 53
104 93 65
101 90 62
73 54 49
56 51 47
55 50 46
56 51 47
81 73 55
55 50 46
56 51 47
56 50 46
54 50 46
55 50 46
56 51 47
54 49 45
55 50 46
55 50 46
55 50 46
55 50 46
54 50 46
56 51 47
54 49 45
54 49 45
53 48 44
54 50 46
78 70 51
54 49 45
50 46 42
54 49 43
53 48 44
79 70 52
79 71 53
80 71 53
55 50 46
80 71 53
80 71 53
55 50 45
81 72 54
80 71 53
56 51 47
81 73 54
116 103 67
100 89 61
56 51 46
100 89 61
116 103 67
56 51 47
60 55 41
142 128 52
151 136 25
177 159 23
123 111 22
176 159 26
195 175 38
141 126 45
74 67 46
56 51 47
100 89 61
100 89 61
100 89 61
100 89 61
116 103 67
84 73 55
80 72 53
81 73 55
80 72 53
99 88 60
93 77 54
81 72 54
54 49 45
81 72 53
100 88 60
81 72 54
55 50 46
53 48 44
55 49 45
55 49 46
54 49 45
52 47 42
54 49 45
54 49 45
56 51 46
53 47 43
101 88 59
79 71 52
79 70 52
130 115 72
80 72 54
130 115 72
142 126 77
54 49 45
100 89 60
116 103 67
143 126 77
154 136 82
130 115 72
107 90 60
123 105 68
81 72 54
108 90 60
108 86 57
87 46 41
92 49 43
93 49 44
135 68 48
93 49 44
96 51 45
95 50 45
94 50 44
95 50 45
92 49 43
122 61 45
130 49 44
88 45 40
153 89 55
54 49 45
53 48 44
55 50 46
54 49 45
100 89 61
80 72 53
118 106 67
108 91 62
129 115 72
80 71 53
80 72 54
55 50 46
55 50 46
56 51 47
80 72 53
56 51 47
81 72 54
115 102 66
78 53 49
80 70 52
96 72 54
81 69 51
127 103 67
114 99 62
75 64 45
125 108 63
140 120 70
97 29 34
84 24 35
92 28 36
81 25 35
82 25 36
104 35 34
84 25 37
77 24 34
76 23 34
63 21 29
44 36 34
76 65 45
105 88 56
77 69 50
106 91 58
55 49 43
109 95 61
70 49 45
79 71 52
52 47 43
72 62 47
80 70 50
78 69 50
77 69 50
114 101 64
51 46 42
71 61 46
105 90 58
99 83 53
69 59 44
90 78 52
69 60 45
49 44 40
92 79 52
116 98 57
113 96 57
83 70 46
67 57 42
67 56 39
94 78 45
81 67 43
80 67 42
127 105 58
88 75 46
41 32 25
59 47 31
43 36 30
44 36 30
43 36 30
43 36 30
78 63 39
73 58 37
44 37 30
46 39 32
45 38 31
44 37 31
66 54 36
44 37 31
43 36 30
44 37 31
63 52 34
39 33 26
33 29 22
30 26 20
32 27 22
40 34 28
44 37 31
46 38 32
46 39 33
45 38 32
46 38 32
47 39 33
46 39 32
47 39 33
47 39 33
45 38 32
46 39 32
52 43 36
49 41 34
47 39 32
51 41 34
45 38 32
45 38 32
45 38 32
46 38 32
46 39 32
46 38 32
44 37 31
43 36 30
41 34 28
41 36 24
46 43 19
45 42 18
36 33 15
38 34 22
42 36 30
43 36 30
44 37 30
45 38 31
46 38 32
44 37 31
44 37 31
43 36 30
49 44 39
52 47 43
52 47 43
51 46 42
49 44 40
50 45 41
52 48 43
53 48 44
51 46 42
54 49 44
53 48 44
54 49 45
53 48 44
53 47 43
53 48 43
53 48 44
56 51 46
55 50 46
55 50 46
54 49 45
55 50 45
55 49 45
55 50 46
55 49 45
54 48 44
55 49 45
55 50 46
55 49 45
55 49 45
55 49 45
53 48 44
54 49 45
54 49 45
55 49 44
51 45 42
77 59 46
51 44 41
50 43 40
48 42 39
42 36 34
47 41 38
45 37 35
44 37 35
72 39 37
47 39 37
51 47 41
51 47 43
55 51 46
54 50 45
55 50 46
56 51 47
56 51 47
56 51 47
56 51 46
55 50 46
55 50 46
56 51 47
56 51 47
56 51 47
55 50 46
55 50 46
55 50 46
56 51 47
56 51 47
55 50 46
56 51 46
54 49 45
53 48 44
55 50 46
55 50 46
59 44 39
88 45 29
94 49 32
96 50 33
95 50 32
102 53 34
100 53 34
95 50 32
104 55 35
98 51 33
89 47 30
88 46 30
85 45 29
72 38 25
49 27 18
43 38 35
46 41 38
49 45 41
47 42 39
52 47 43
71 54 45
55 50 46
70 52 44
78 70 51
54 49 45
66 62 45
49 62 48
51 65 50
50 64 49
51 65 50
51 64 50
52 66 51
51 64 50
51 64 50
50 64 49
75 93 58
94 117 66
73 91 55
43 55 42
47 58 43
65 64 47
51 46 42
54 49 45
52 47 44
59 57 48
54 49 46
55 50 46
53 49 45
55 50 46
54 49 45
56 51 47
55 50 46
56 51 47
55 50 46
56 51 47
80 72 54
55 50 46
62 62 49
55 50 46
53 48 44
55 51 47
53 52 43
50 44 41
46 43 40
43 40 37
38 35 33
22 20 19
26 24 24
26 24 23
24 22 21
66 58 35
24 22 22
92 82 52
89 81 52
39 36 33
78 70 50
79 70 52
81 73 55
66 61 54
71 65 58
84 75 57
60 54 50
63 57 52
66 60 54
64 59 53
70 64 57
164 146 84
255 255 157
166 146 85
81 72 54
56 51 47
81 72 54
56 51 47
55 50 46
55 50 46
55 50 46
80 72 54
55 50 46
54 49 46
55 50 46
55 50 46
55 50 46
54 49 45
61 52 45
56 51 47
56 51 47
54 49 45
55 50 46
54 49 45
52 48 44
53 48 44
79 71 53
115 102 66
99 88 60
55 50 46
78 70 51
78 70 52
55 50 46
56 51 47
55 50 46
100 89 61
55 50 46
56 51 46
81 72 54
115 102 66
80 72 54
55 50 46
116 103 67
55 50 46
80 72 54
100 89 61
91 82 46
122 110 20
85 78 16
85 79 16
85 79 16
125 113 19
85 79 16
176 159 23
198 177 25
157 140 47
121 108 66
100 89 61
100 89 61
115 102 66
55 50 46
100 89 61
106 94 61
100 89 61
100 89 61
81 72 54
109 98 62
55 50 46
55 50 46
80 72 53
115 102 66
54 49 45
54 49 45
55 50 46
58 49 45
58 52 45
53 48 44
56 50 46
54 49 45
56 51 47
80 72 53
100 88 60
100 89 61
55 50 46
100 89 60
116 102 66
56 50 46
130 115 72
81 72 54
54 48 44
116 103 67
130 115 72
81 73 55
116 102 66
130 115 73
68 54 47
91 75 55
148 128 78
151 132 79
54 49 45
82 48 41
85 45 40
88 47 41
91 48 43
94 50 44
92 49 44
93 49 43
93 49 44
90 48 43
94 49 44
92 49 43
95 50 44
87 45 40
124 62 45
85 45 38
101 89 61
99 88 60
80 72 53
81 73 54
81 73 55
55 50 46
81 72 54
56 51 46
108 91 62
100 89 61
99 88 60
100 89 61
80 71 53
100 89 61
68 54 47
56 51 47
80 71 53
54 49 45
55 50 46
82 71 52
78 50 46
98 87 59
78 69 51
75 65 47
49 39 36
71 62 43
73 33 29
90 77 46
50 16 23
78 23 29
65 19 28
81 24 31
84 24 33
69 21 30
65 20 29
86 31 22
32 26 24
54 39 33
64 53 38
47 42 39
77 69 50
51 46 42
78 69 51
78 69 51
87 74 51
147 127 76
115 102 66
77 68 50
72 62 48
71 61 47
121 104 65
72 62 48
52 45 41
104 89 57
52 47 43
115 97 59
121 105 63
70 60 45
72 62 48
123 104 61
95 84 55
104 88 54
140 119 69
87 75 48
73 62 44
81 68 44
83 69 44
119 98 56
40 35 30
93 72 47
100 84 50
104 84 46
74 59 35
41 34 28
58 46 32
82 67 41
41 34 28
44 37 30
61 48 34
44 37 31
65 54 36
66 54 36
66 55 37
44 37 31
44 37 31
45 37 31
51 45 31
44 37 31
43 36 30
40 34 28
45 37 31
41 34 28
39 33 27
45 38 31
46 39 33
46 39 32
46 38 32
46 39 32
44 37 31
46 39 32
47 40 33
46 39 33
46 38 32
45 38 32
74 62 43
66 54 44
62 51 39
62 52 43
45 38 32
46 38 32
46 38 32
45 38 32
46 39 32
45 38 32
45 38 31
44 37 30
37 31 25
33 28 22
26 24 12
25 22 15
33 28 22
40 34 28
43 36 30
46 38 32
45 38 31
45 37 31
45 38 31
44 37 31
41 34 29
50 45 40
49 44 40
48 43 39
49 43 39
52 47 43
53 47 43
53 47 43
78 69 51
50 46 42
53 48 44
52 47 43
53 48 44
52 46 42
53 48 44
55 50 46
54 49 45
52 47 43
80 72 54
54 49 44
54 49 45
54 49 45
53 48 44
54 49 45
55 49 45
54 49 45
56 50 46
55 50 46
54 49 45
55 49 45
55 49 45
56 51 46
54 48 44
53 47 43
56 51 46
54 48 44
79 62 49
51 46 42
53 45 42
53 46 42
52 45 42
49 42 39
48 42 39
52 45 42
51 44 40
47 41 38
49 42 39
54 49 45
55 51 46
55 50 46
56 51 47
54 49 45
55 51 46
55 51 46
56 51 47
55 50 46
55 51 46
56 51 47
56 51 47
56 51 47
56 51 47
56 51 47
55 51 46
56 51 47
55 50 46
55 50 45
55 49 45
55 50 46
54 49 45
54 49 45
53 48 44
55 50 46
52 47 43
74 39 26
84 44 28
129 53 32
131 54 32
130 52 32
85 45 29
87 46 30
141 64 37
84 44 29
83 44 29
72 39 25
78 41 27
63 34 22
44 28 23
45 40 37
44 39 36
49 44 41
70 52 44
51 45 41
86 60 47
55 50 46
71 54 45
52 47 43
71 53 45
46 52 43
49 61 48
50 63 48
50 63 50
49 61 48
51 65 50
50 64 50
49 62 49
49 62 48
49 62 48
47 60 47
48 61 48
44 56 44
92 114 63
70 87 52
95 110 62
53 48 44
52 48 44
55 54 45
56 55 46
53 48 44
80 72 53
56 51 47
54 50 46
55 50 46
54 49 45
56 51 47
55 50 46
54 50 45
59 56 47
56 51 47
56 51 47
54 49 45
53 49 45
53 48 44
52 48 44
52 47 44
48 44 40
49 45 42
48 44 41
55 46 36
39 35 33
36 33 31
34 31 30
33 31 29
69 62 43
92 82 53
71 64 46
71 65 46
94 85 57
79 71 52
50 46 43
65 59 54
65 60 54
67 61 55
66 60 54
68 62 55
64 58 53
68 62 55
60 55 50
58 53 49
68 62 56
163 144 82
255 255 158
62 56 51
54 49 45
81 72 54
71 57 47
79 72 54
54 50 46
55 50 46
55 50 46
56 51 47
55 50 46
56 51 47
56 51 47
55 50 46
55 51 46
80 72 54
81 72 54
55 50 46
55 50 46
53 49 45
54 49 45
53 49 45
80 72 54
78 70 51
55 50 46
79 71 53
81 73 55
59 52 46
80 72 53
79 71 52
100 89 61
55 50 45
80 72 54
81 72 54
55 50 46
55 51 46
80 72 54
100 89 60
56 51 47
55 50 46
99 88 60
116 103 67
87 78 44
84 77 16
84 78 16
86 79 16
86 80 16
85 79 16
124 112 19
86 79 16
84 78 16
84 77 16
152 136 21
145 130 37
80 72 53
100 89 61
100 89 61
65 59 46
80 72 53
130 115 73
100 89 61
116 103 67
116 103 67
114 101 65
118 105 68
110 94 60
55 50 46
142 125 76
55 50 46
56 51 47
56 50 46
80 71 53
56 51 47
55 50 46
55 50 45
58 50 45
102 89 61
99 88 60
56 51 47
81 72 54
90 74 55
100 89 60
98 85 58
116 103 67
115 102 66
100 89 61
130 115 72
81 73 54
100 89 61
130 115 72
79 70 52
100 89 61
80 72 54
130 115 72
107 90 60
86 72 53
141 125 76
121 64 44
161 80 49
88 47 42
88 46 41
90 48 43
89 47 42
87 46 40
91 48 43
92 49 44
88 47 42
91 48 43
124 62 46
88 46 41
82 43 39
81 43 36
51 46 42
115 102 65
81 72 54
54 49 45
81 72 53
62 52 45
100 89 61
56 50 46
80 72 53
101 90 61
116 103 66
56 51 47
55 50 46
55 50 46
81 72 54
56 51 46
55 50 46
81 72 54
115 102 66
52 46 43
77 68 50
82 70 52
76 66 48
76 46 42
107 84 55
70 61 41
40 34 32
65 56 35
17 10 11
20 15 15
37 13 18
49 18 23
49 14 21
30 14 16
23 17 16
28 23 21
33 27 25
48 38 33
51 42 38
45 40 37
49 44 40
54 47 43
50 45 41
54 47 41
70 60 43
75 64 49
51 45 42
87 74 52
111 96 62
79 70 52
116 99 62
73 62 47
53 47 43
73 63 47
71 61 46
103 88 55
96 73 50
85 71 48
97 85 56
70 59 43
50 44 38
118 98 56
92 79 52
80 67 43
123 104 61
66 57 41
85 71 46
56 49 36
42 37 32
113 95 55
94 78 47
90 73 43
80 62 35
85 68 38
41 34 27
57 45 30
41 34 28
59 47 33
40 33 27
44 37 31
42 35 29
60 48 33
44 37 30
44 37 30
45 37 31
45 37 31
45 38 32
66 54 36
44 37 31
45 37 31
52 47 32
45 38 32
45 38 32
45 38 32
45 38 32
45 38 31
46 39 32
47 39 33
45 38 32
45 38 32
46 38 32
46 38 32
45 38 32
46 38 32
45 38 32
45 38 32
66 55 37
45 38 32
45 38 32
45 37 31
46 39 32
45 38 32
45 38 31
45 38 31
44 37 31
41 34 28
41 34 28
38 32 26
31 26 21
35 30 24
41 34 28
43 36 29
43 36 30
44 36 30
43 36 30
43 36 30
42 35 29
41 34 28
46 40 35
50 45 41
48 42 38
47 43 39
52 47 43
54 49 44
51 46 42
54 48 44
51 46 42
52 46 42
51 46 43
52 47 43
53 48 44
52 47 43
52 47 43
53 48 44
53 48 44
54 49 44
54 49 45
55 50 46
55 50 46
54 49 45
53 48 44
54 49 45
55 50 46
55 50 46
55 50 46
56 51 46
54 49 45
55 50 46
55 49 45
54 49 45
55 49 45
54 48 44
52 47 43
53 47 43
54 47 44
54 48 45
53 47 43
54 47 44
54 48 44
77 47 45
50 44 41
52 45 42
51 45 42
50 42 39
51 45 41
53 48 44
54 50 45
54 50 45
55 51 46
54 50 45
56 51 47
54 50 45
56 51 47
56 51 47
56 51 47
55 50 46
56 51 46
55 50 46
56 51 47
55 50 45
56 51 47
55 50 46
56 51 46
54 49 45
55 50 46
55 50 46
55 50 46
54 49 45
55 50 46
51 46 42
53 48 44
63 44 37
70 36 24
67 35 23
89 46 30
84 44 29
85 45 29
78 40 26
80 42 28
89 47 31
77 40 26
70 37 24
58 30 20
49 27 18
57 36 31
38 34 31
69 51 43
49 44 40
48 42 39
54 47 42
51 46 42
78 70 51
81 72 54
53 48 44
51 46 42
44 53 43
51 60 44
47 60 47
45 56 44
48 61 48
48 61 47
46 58 45
45 57 45
47 60 47
48 60 47
45 57 45
47 60 47
45 57 45
42 54 42
69 86 50
79 90 53
52 51 42
51 47 43
52 48 44
52 48 44
53 48 44
54 49 45
55 50 46
56 51 47
54 50 46
53 48 45
55 50 46
56 51 47
55 51 46
55 50 46
55 50 46
55 50 46
54 49 45
53 49 45
55 50 46
53 49 45
52 48 44
53 52 43
48 44 41
48 44 41
48 44 41
47 43 40
44 40 37
46 42 39
95 84 55
47 43 40
52 47 42
48 44 41
74 67 49
77 70 52
53 48 45
96 87 59
57 52 48
86 77 58
57 52 48
67 61 55
62 56 51
58 53 48
67 61 54
62 57 51
66 60 54
68 62 55
67 61 55
173 154 87
83 74 56
58 53 48
55 50 46
55 51 47
56 51 47
56 51 47
56 51 47
56 51 47
56 51 47
81 72 54
56 51 47
54 50 46
56 51 47
55 50 46
80 72 54
56 51 47
56 51 47
56 51 47
81 72 54
54 49 45
53 49 45
55 50 46
100 89 61
116 103 66
80 71 53
116 103 67
55 51 46
55 50 46
81 72 54
81 72 54
55 50 46
100 89 60
56 51 47
80 72 54
81 73 54
116 103 67
80 71 53
100 89 61
116 103 66
81 73 54
88 80 47
80 74 15
82 76 16
84 77 16
85 79 16
83 77 16
84 78 16
84 78 16
85 79 16
123 111 19
83 76 16
121 110 18
142 125 19
87 79 48
81 72 54
81 72 54
80 72 53
81 72 54
100 89 61
100 89 61
81 72 54
106 94 61
100 89 61
55 50 46
143 126 78
65 59 46
65 59 46
100 89 60
55 50 46
80 72 53
80 72 53
110 95 57
255 255 191
255 255 255
255 255 255
255 255 242
255 255 139
81 72 54
80 72 53
81 72 54
116 103 67
56 51 46
100 89 61
55 50 46
116 103 67
132 117 73
116 103 67
81 72 54
57 51 46
56 51 46
100 89 61
81 72 54
107 91 61
100 89 61
78 70 51
121 103 66
71 45 41
84 44 37
85 45 40
82 43 39
91 47 40
88 47 42
87 46 41
114 56 44
117 56 42
89 47 42
89 47 42
86 45 40
114 57 40
79 41 37
66 40 36
147 127 76
99 87 58
79 70 52
98 87 59
55 50 46
82 72 54
54 49 45
57 50 46
54 49 45
56 51 46
130 115 73
56 51 47
55 50 46
100 89 61
81 72 54
77 52 48
81 72 54
100 89 60
54 49 45
55 50 46
53 48 44
53 46 43
54 49 45
52 47 43
54 45 42
51 45 41
74 63 43
90 79 48
71 59 39
30 26 24
24 18 17
24 21 20
26 21 20
29 24 22
32 28 26
59 48 31
40 35 32
43 38 35
49 44 40
46 40 37
50 44 41
53 48 44
70 60 45
71 61 46
79 71 52
78 70 51
71 61 46
73 63 49
77 68 49
52 47 43
71 61 47
93 80 55
71 61 46
51 46 42
116 98 61
86 72 49
85 72 48
92 80 54
59 52 43
81 67 43
84 71 47
114 101 64
113 96 57
69 59 42
83 70 46
89 77 50
112 95 55
45 40 35
101 86 52
81 67 42
63 52 35
67 56 37
64 54 36
30 24 21
68 52 30
77 61 36
58 46 31
63 52 33
41 34 28
64 52 34
41 34 28
42 35 29
65 54 36
43 36 30
43 36 29
41 34 28
44 37 31
66 55 37
66 54 36
45 38 32
44 37 30
44 37 31
44 37 31
44 37 31
44 37 31
44 37 31
44 36 30
46 39 32
45 38 32
44 37 31
45 38 32
46 39 32
45 38 32
45 37 31
47 34 29
48 31 27
49 33 29
48 35 30
46 39 32
44 37 31
45 38 31
45 38 32
43 36 30
45 37 31
42 35 29
42 36 29
43 36 30
42 35 29
42 35 29
43 36 30
42 35 29
45 38 32
44 37 30
44 37 31
44 37 31
41 34 29
43 36 29
45 39 34
47 42 38
51 43 39
48 43 39
49 44 40
50 45 41
48 43 39
51 46 41
50 45 41
51 46 42
53 48 44
51 46 42
55 50 45
55 50 46
52 47 43
54 49 44
53 48 44
55 49 45
53 48 44
54 49 45
54 49 45
52 47 43
54 49 45
54 49 45
54 49 44
55 50 46
55 50 46
54 49 45
56 50 46
53 48 44
54 49 44
56 51 46
56 50 46
55 50 46
55 49 45
55 50 45
56 50 46
55 50 46
54 48 44
54 48 44
52 46 42
52 46 43
78 60 48
54 47 44
54 48 45
51 45 41
50 44 41
52 46 42
55 50 46
55 50 46
55 50 46
80 72 54
56 51 46
55 50 46
54 50 46
56 51 47
55 51 46
56 51 47
56 51 47
56 51 47
56 51 47
56 51 47
55 49 45
55 50 46
54 50 45
55 50 46
56 50 46
55 50 45
54 49 45
53 48 44
54 48 44
51 46 43
54 50 46
50 44 40
45 41 37
56 35 28
66 35 23
78 41 27
107 48 28
71 37 25
72 38 25
71 37 25
68 36 23
67 35 24
57 29 20
47 25 17
27 21 19
36 32 30
39 35 32
89 71 49
48 44 40
45 40 37
71 54 45
70 52 43
54 49 45
78 70 51
50 46 42
52 47 43
49 50 43
43 54 43
45 57 44
46 58 45
45 57 45
46 59 46
53 68 45
44 56 44
46 59 46
43 55 43
45 57 45
47 53 40
38 48 39
40 49 37
89 109 55
52 51 42
45 41 38
58 59 45
49 45 41
58 56 47
54 50 46
53 48 44
53 49 45
55 50 46
55 50 46
55 50 46
56 51 47
56 51 47
55 50 46
54 49 45
56 51 47
54 50 46
56 51 47
55 50 46
55 50 46
54 49 46
53 48 45
53 48 45
51 47 43
50 46 43
51 47 43
51 47 43
50 46 42
78 70 52
51 47 44
79 71 53
61 56 46
52 47 44
52 48 44
52 48 44
52 48 44
60 55 50
59 54 49
65 59 54
66 60 54
66 61 54
67 61 54
59 54 49
61 56 50
66 60 54
85 76 58
67 61 55
65 60 54
67 60 53
66 61 54
55 50 46
81 72 54
55 50 46
55 50 46
55 50 46
56 51 47
56 51 47
56 51 47
56 51 46
55 51 46
81 72 54
53 49 45
56 51 47
54 49 45
54 49 45
55 50 46
80 72 53
55 50 46
81 72 54
55 50 46
81 72 54
54 50 46
56 51 47
55 50 46
100 89 60
100 89 61
100 89 61
81 72 54
55 50 46
81 73 54
56 51 47
81 73 55
100 89 61
100 89 61
130 115 72
54 49 45
64 58 45
87 78 53
80 72 54
93 85 35
78 72 15
79 74 15
82 76 16
83 77 16
83 77 16
84 78 16
82 76 16
85 78 16
83 77 16
81 75 15
78 72 15
116 103 17
120 108 24
105 94 60
106 94 60
99 88 59
55 50 46
114 101 65
55 50 46
116 102 66
81 72 54
80 72 54
100 89 61
88 79 54
54 49 45
130 115 72
116 103 67
101 89 61
113 96 59
201 146 68
123 110 80
255 255 232
255 255 255
255 255 255
255 255 255
255 255 255
255 255 255
97 85 56
100 89 61
81 72 54
55 50 46
100 89 60
80 72 53
116 103 67
100 89 61
81 73 54
99 88 60
116 103 67
55 50 46
79 70 52
90 74 54
100 89 61
115 102 65
78 69 51
154 136 81
131 104 61
74 39 35
76 40 36
79 42 38
77 41 37
85 45 41
81 43 39
82 43 39
85 45 41
84 44 40
114 54 41
78 41 37
73 38 34
67 34 31
96 69 47
77 69 50
55 50 45
80 71 53
80 72 53
53 48 44
80 71 52
54 49 45
99 88 60
54 49 45
100 89 61
80 71 53
55 50 46
100 89 61
90 74 54
113 89 61
56 51 47
116 102 66
81 72 54
96 72 54
99 88 60
81 72 53
58 49 45
79 69 51
52 46 42
77 67 48
97 85 57
74 65 45
44 38 36
42 36 34
38 32 30
41 35 33
64 50 34
60 48 32
37 29 28
64 51 36
46 41 38
44 39 36
57 41 36
48 42 39
47 42 39
69 59 44
71 60 46
71 61 46
53 48 44
80 69 50
52 47 43
117 100 62
110 96 61
64 48 43
54 48 43
93 81 55
110 96 61
74 63 48
73 62 46
87 74 51
85 72 49
70 59 45
70 61 46
72 62 46
130 111 66
84 70 47
97 81 51
48 43 39
85 71 48
68 57 40
122 106 62
96 80 48
65 55 39
65 55 40
82 68 43
99 84 50
96 79 46
114 98 55
79 66 40
33 26 20
55 43 27
87 68 39
36 30 25
36 30 25
40 33 28
70 55 33
65 53 35
60 47 33
44 37 31
43 35 29
45 38 31
65 54 36
44 37 31
44 37 31
44 37 30
67 55 38
44 37 31
43 36 30
44 37 30
45 37 31
44 37 31
45 37 31
43 36 30
44 36 30
42 35 29
67 55 37
43 34 28
48 27 24
55 18 20
54 17 19
54 17 19
55 18 19
55 18 20
51 29 26
46 38 32
44 37 31
44 37 31
43 36 30
44 37 31
44 37 31
44 37 31
45 38 31
45 38 31
43 36 30
44 36 30
45 38 32
44 37 31
44 37 31
43 36 30
42 35 29
42 35 29
44 39 34
48 43 39
46 41 37
47 42 38
50 45 41
51 46 42
50 45 41
48 44 40
50 45 41
49 44 40
53 48 44
51 46 41
50 45 41
52 47 43
51 46 42
53 48 44
53 48 44
54 48 44
53 48 44
51 46 42
53 48 44
55 50 46
54 49 44
55 50 46
54 49 45
55 50 46
55 49 45
54 49 45
56 51 46
55 50 46
53 48 44
55 50 46
56 51 46
54 49 45
55 50 45
55 51 46
54 49 45
54 52 45
56 50 46
54 48 44
55 50 45
54 49 45
54 49 45
53 48 44
54 49 45
79 62 49
77 47 45
54 48 44
49 44 40
54 50 45
56 51 46
56 51 47
55 50 46
55 50 46
54 49 45
56 51 47
56 51 47
55 50 46
56 51 47
55 51 46
56 51 47
56 51 47
55 50 46
56 51 47
56 51 47
55 50 46
55 50 46
55 50 46
56 50 46
53 48 44
53 47 43
53 48 44
53 48 44
53 48 44
48 44 40
44 39 35
41 36 33
46 31 25
50 28 21
62 32 21
60 31 21
64 33 22
55 29 19
57 30 20
52 28 19
46 25 17
20 15 13
24 19 18
42 38 34
42 38 35
47 43 39
48 44 40
51 46 42
49 45 41
91 73 51
71 53 45
52 47 43
70 53 44
71 53 44
49 47 41
40 50 39
41 52 41
40 50 39
43 55 43
46 58 46
43 55 43
44 55 43
42 53 42
41 52 41
43 55 43
40 50 40
69 85 50
35 44 35
65 78 43
44 40 37
44 40 37
67 54 43
56 54 45
53 48 44
54 52 43
52 48 44
54 49 45
55 50 46
55 50 46
55 50 46
55 50 46
54 49 45
56 51 47
56 51 47
55 51 46
55 50 46
55 50 46
55 50 46
56 51 47
54 50 46
54 49 45
54 50 45
54 50 46
52 47 44
52 47 44
53 48 44
50 46 42
51 47 43
54 49 45
77 70 52
79 72 52
52 48 44
54 49 45
79 71 53
80 71 53
61 55 50
62 57 52
62 57 52
65 59 53
90 81 62
61 56 51
62 57 52
84 76 57
69 63 56
84 76 57
69 63 57
64 58 51
62 56 51
85 76 58
58 53 48
55 50 47
56 51 46
56 51 47
55 50 46
55 50 46
56 51 47
55 50 46
55 50 46
55 50 46
56 51 47
55 50 46
81 72 54
55 50 46
55 50 46
100 89 61
100 89 61
81 73 54
81 72 54
55 50 46
81 72 54
56 51 47
100 89 61
56 51 47
80 72 54
99 88 60
100 89 61
80 72 54
81 72 54
54 49 44
58 52 47
198 116 49
64 57 52
106 87 69
162 143 81
182 161 90
56 51 46
100 89 61
89 69 43
71 66 14
81 75 15
79 73 15
79 73 15
82 76 16
84 78 16
84 78 16
83 76 16
81 75 15
82 76 16
81 74 15
79 73 15
119 108 18
71 66 14
101 79 50
116 103 67
55 50 46
121 107 66
54 49 45
88 78 54
53 48 44
116 103 66
100 89 61
56 50 46
114 100 65
100 89 61
56 51 47
100 89 61
97 85 54
191 113 49
123 105 79
131 115 86
135 118 88
136 119 88
136 119 88
134 117 87
129 113 85
174 132 90
193 151 76
142 126 76
100 89 61
80 72 54
90 74 54
81 72 54
90 75 55
108 91 61
116 103 67
80 72 53
81 73 54
81 72 54
147 119 73
97 73 54
135 116 72
54 49 45
51 46 42
139 119 71
95 83 54
83 45 35
118 59 38
78 41 37
78 41 37
74 39 35
72 38 34
78 41 37
78 41 37
83 43 36
76 40 36
92 38 36
69 36 32
57 30 27
48 39 36
114 101 64
97 86 57
80 71 52
51 46 43
52 47 43
79 71 52
53 48 44
81 72 54
100 89 60
55 50 46
100 89 61
100 89 61
55 50 46
130 115 72
55 50 46
55 50 46
56 51 47
55 50 46
56 50 46
55 49 45
53 48 44
115 101 65
54 49 45
79 70 51
51 45 42
52 45 42
78 68 49
54 44 41
45 39 36
52 41 39
76 67 47
42 34 31
52 40 36
43 36 34
43 37 34
46 39 36
68 59 44
45 40 37
51 44 41
69 58 44
72 59 45
86 73 50
72 62 48
72 62 48
55 48 43
100 84 55
121 104 65
54 48 44
53 48 43
52 47 43
77 69 50
86 73 50
53 47 43
71 61 46
71 61 46
104 89 57
77 68 49
113 96 58
70 60 45
45 40 37
47 42 38
84 71 48
69 59 44
45 39 35
113 96 57
72 64 44
67 57 41
91 78 50
95 78 46
35 30 27
41 35 30
81 67 42
61 52 35
62 51 33
60 49 31
49 38 23
37 28 22
61 50 32
38 31 26
36 30 25
63 52 34
58 46 31
43 36 30
46 38 31
43 36 30
42 35 29
42 35 29
41 34 29
42 35 29
44 37 31
44 37 30
44 37 30
66 55 37
43 36 30
44 37 31
44 37 31
60 48 33
43 36 30
42 35 29
42 35 29
63 52 34
45 23 21
47 15 17
78 25 21
76 24 20
53 17 18
52 17 18
51 16 18
51 16 18
46 35 29
44 36 30
44 37 31
43 36 30
43 36 30
44 37 31
42 35 29
45 37 31
43 36 30
43 36 30
44 36 30
41 34 29
41 34 28
43 36 30
43 36 30
40 33 28
43 38 34
46 41 37
45 40 37
48 43 39
47 42 38
48 43 39
52 47 42
51 46 42
48 43 39
49 44 40
50 45 40
51 46 42
52 47 43
49 44 40
52 46 42
52 47 43
53 48 43
50 46 42
53 48 44
52 47 43
52 47 43
55 50 45
54 49 45
53 48 44
51 46 42
53 48 44
53 49 44
55 50 46
54 49 45
55 50 46
54 49 45
55 50 46
56 50 46
55 50 45
54 49 45
54 49 45
56 51 47
55 49 45
58 53 48
55 49 45
57 51 46
53 48 44
54 47 43
56 50 46
54 49 45
54 48 44
53 47 44
53 47 44
52 46 42
53 47 43
55 51 46
56 51 47
55 51 46
54 49 45
56 51 47
56 50 46
54 49 45
56 51 46
54 50 46
55 50 46
55 50 46
56 51 47
55 51 46
56 51 47
54 49 45
56 51 47
56 51 47
56 51 46
55 50 46
55 50 46
56 51 47
58 49 44
53 48 44
53 47 43
51 46 42
47 42 39
46 41 38
38 33 30
33 28 26
28 25 23
35 26 23
35 21 17
37 21 15
32 19 15
24 14 10
25 18 15
20 16 15
26 23 21
60 38 31
41 36 33
46 42 38
47 43 39
49 44 40
72 52 41
51 46 42
54 49 45
53 48 44
52 48 44
51 47 43
49 45 41
48 44 40
38 44 36
35 44 35
40 50 40
41 52 41
37 47 37
38 48 38
39 49 39
41 52 41
37 46 38
37 48 38
35 44 36
31 40 32
34 42 34
37 36 32
44 40 37
51 50 41
46 43 39
51 47 43
52 47 44
52 47 44
55 50 46
52 48 44
52 48 44
56 51 47
54 49 45
55 50 46
55 50 46
55 51 46
56 51 47
55 50 46
56 51 46
55 51 46
55 50 46
54 50 46
56 51 47
54 49 46
56 51 47
53 48 45
55 51 46
54 49 45
53 49 45
53 49 45
55 51 47
98 87 59
54 50 46
54 49 45
55 50 46
55 50 46
53 49 45
55 50 46
67 62 55
54 50 46
61 55 50
85 76 58
87 78 60
66 60 54
57 52 48
58 53 48
88 79 61
57 52 48
61 56 51
81 73 55
84 75 57
82 74 55
82 62 54
55 50 46
55 50 46
56 51 47
55 50 46
81 73 54
56 51 47
116 103 67
55 50 46
80 71 53
81 73 55
56 51 47
56 51 47
81 72 54
55 50 46
56 51 47
100 89 61
81 72 54
56 51 47
130 115 73
81 72 54
55 50 46
81 72 54
56 51 46
56 51 47
55 51 47
81 73 54
55 50 46
58 53 48
59 52 45
81 73 54
69 64 57
57 52 47
65 59 53
102 91 63
255 255 158
255 245 129
232 205 109
57 52 34
65 60 12
70 65 13
79 73 15
81 75 15
81 75 15
79 74 15
80 74 15
80 74 15
77 71 15
78 72 15
79 73 15
77 71 15
72 66 14
108 95 15
81 73 48
80 72 53
105 93 59
142 126 77
99 89 60
116 102 66
88 79 54
100 89 61
55 50 46
81 73 54
65 59 46
99 88 59
81 72 53
54 48 43
77 65 51
118 104 79
130 114 86
136 119 88
139 122 89
141 123 90
141 123 90
138 121 89
134 117 87
128 112 85
119 105 81
89 78 44
80 71 52
130 115 72
116 103 67
56 51 47
81 72 53
107 91 61
78 68 51
99 88 60
116 103 66
116 103 67
55 50 46
115 102 66
97 86 57
80 71 53
96 85 56
113 100 63
111 97 60
59 38 32
80 48 32
62 33 30
60 32 29
70 37 34
75 40 36
72 38 35
115 53 38
81 43 36
71 38 34
67 35 32
110 49 35
96 79 48
74 66 47
140 124 74
98 87 58
78 69 51
51 46 42
80 72 54
79 70 52
100 88 60
80 72 53
87 74 54
56 51 47
81 72 54
54 49 45
100 89 60
55 50 46
100 89 61
81 72 54
56 51 47
54 49 45
81 72 54
80 72 54
100 89 61
54 49 45
56 51 47
54 48 45
55 49 45
114 100 64
98 87 58
99 87 59
53 44 40
51 45 41
50 43 40
51 46 42
51 40 38
72 59 45
47 41 38
50 45 41
50 45 41
48 42 37
72 62 47
53 48 43
71 61 46
52 47 43
74 64 48
53 48 44
72 62 47
71 60 45
52 47 43
54 49 44
92 80 54
93 81 55
92 80 54
70 60 45
52 47 43
86 72 49
69 59 44
69 59 44
71 61 46
51 45 42
49 43 39
71 61 45
69 59 44
98 82 52
90 78 52
50 43 38
66 57 42
42 37 34
94 81 53
66 57 41
63 53 36
81 68 42
40 36 32
76 56 37
61 50 32
60 49 31
63 52 33
46 39 22
75 62 35
75 60 34
70 53 30
37 31 26
37 30 25
39 32 27
39 32 27
39 33 27
58 46 31
41 34 29
58 47 32
44 37 28
65 53 35
39 33 27
43 36 30
43 36 29
42 35 29
43 36 30
44 37 31
43 36 30
41 34 28
41 34 29
40 34 28
45 33 27
38 30 26
96 30 24
107 33 24
74 23 20
74 23 19
46 15 16
97 30 23
47 15 16
42 16 16
39 32 27
42 35 29
43 36 30
43 36 30
43 36 30
44 37 31
44 36 30
44 37 31
41 34 28
43 36 30
40 33 27
41 34 28
41 34 28
43 36 30
38 32 27
41 36 32
46 41 35
46 41 38
44 39 36
48 43 39
48 43 39
50 45 41
49 44 40
50 45 41
50 45 41
52 47 43
54 49 45
50 45 41
49 45 41
53 47 43
51 46 42
53 48 44
53 48 44
54 49 45
52 47 43
52 46 42
55 50 46
54 49 45
53 48 44
56 51 46
55 50 46
55 50 46
53 48 44
54 49 45
55 50 46
55 50 46
54 49 45
54 49 45
53 48 44
54 48 44
54 49 45
55 50 46
56 50 46
66 60 54
69 63 57
65 58 52
63 57 51
60 55 50
76 66 60
70 62 55
60 54 49
54 48 44
54 48 44
54 48 44
77 46 45
53 47 44
55 51 46
55 50 46
55 50 46
55 51 46
56 51 47
56 51 47
56 51 47
75 72 51
55 50 46
55 50 46
54 49 46
55 50 46
56 51 47
54 49 45
55 50 46
54 49 45
56 51 47
56 51 47
53 48 44
54 49 45
54 49 45
53 48 44
54 49 45
52 47 43
50 44 40
48 43 40
46 41 38
41 36 33
41 36 33
34 30 28
33 29 27
27 23 22
25 21 20
26 23 21
28 24 22
34 30 28
32 27 25
35 31 28
39 33 30
42 37 34
45 41 38
48 43 39
78 69 51
50 46 42
53 48 44
79 71 52
52 48 44
50 46 42
76 68 49
49 44 41
50 45 41
46 43 39
34 44 35
35 45 36
36 46 37
37 48 38
38 48 39
37 47 37
36 45 36
36 46 37
32 41 33
31 39 32
39 49 35
24 27 23
35 32 30
40 37 34
50 45 40
47 43 40
50 45 42
47 44 40
54 49 45
55 50 46
52 48 44
52 48 44
54 49 45
53 49 45
56 51 47
58 56 47
56 51 47
54 49 45
55 50 46
55 51 46
55 50 46
56 51 47
54 50 46
56 51 47
55 50 46
55 50 46
56 51 47
55 50 46
55 50 46
54 49 45
55 50 46
54 49 45
54 49 45
55 50 46
59 53 47
55 51 47
56 51 47
54 49 46
100 89 61
83 72 54
84 76 57
64 57 52
57 53 48
87 78 60
62 56 52
60 55 50
62 57 52
65 59 54
61 56 51
62 57 51
60 55 50
57 52 48
58 53 48
117 102 64
54 49 45
54 49 46
99 89 61
56 50 46
55 50 47
56 51 47
56 51 47
80 72 53
55 50 46
56 51 47
55 50 46
56 51 47
81 72 54
55 50 46
56 51 47
55 50 46
81 72 54
100 89 61
56 51 47
54 49 46
81 73 55
81 72 54
81 72 54
55 50 46
55 51 46
54 49 45
81 72 54
88 80 62
60 54 49
118 105 69
90 81 62
74 67 59
88 79 60
56 51 46
60 55 50
60 54 50
166 147 83
65 59 39
44 41 8
68 63 13
71 65 13
77 72 15
76 71 15
77 71 15
82 75 15
77 71 15
76 70 14
78 72 15
99 85 15
70 64 13
73 68 14
65 59 12
107 94 32
94 84 53
105 93 59
87 77 52
87 78 53
54 49 45
55 50 46
130 115 73
106 94 61
54 49 45
81 72 54
114 101 65
78 69 51
61 53 38
104 92 72
126 111 84
133 116 87
137 120 89
140 122 90
142 124 90
141 123 90
139 122 90
136 119 88
130 114 86
122 107 82
135 103 64
53 46 39
56 51 46
81 72 54
100 89 61
100 89 61
80 72 54
55 50 46
79 71 52
99 88 60
99 88 59
90 74 54
99 88 59
130 114 71
107 90 60
98 86 57
51 44 40
46 41 37
127 111 67
72 58 37
113 56 34
76 40 33
81 48 34
64 34 30
63 33 30
62 33 30
61 32 29
102 47 33
64 33 31
53 32 29
39 33 30
47 41 38
96 85 56
49 45 41
51 46 42
115 102 65
100 89 60
82 72 53
55 50 46
99 88 60
56 51 47
55 50 46
80 72 54
56 51 47
83 74 55
100 89 61
130 115 72
76 63 50
56 50 46
80 72 53
100 89 60
56 50 46
94 81 56
115 102 66
80 72 53
54 48 44
99 88 59
78 69 50
78 69 50
55 48 44
98 86 57
78 68 50
53 48 44
52 47 43
72 62 48
85 72 49
50 45 41
52 47 43
54 49 45
50 45 42
54 49 45
54 48 44
53 48 44
52 47 43
71 61 46
54 49 44
88 74 52
73 63 49
59 49 44
53 48 44
106 91 59
52 47 43
86 73 50
86 73 50
71 61 46
92 80 54
51 46 42
102 85 55
71 61 47
54 48 42
68 58 43
91 79 53
49 44 40
92 79 52
90 78 51
46 41 38
44 40 36
73 64 44
41 37 33
41 36 33
67 56 39
63 52 33
79 65 40
39 35 32
61 51 34
83 71 43
35 30 25
67 58 37
88 75 43
82 70 41
33 28 21
54 42 27
59 48 29
55 43 29
37 31 26
63 52 34
55 44 29
39 32 27
65 54 36
58 46 32
41 34 28
40 33 28
42 35 29
44 34 28
42 35 29
41 34 28
49 36 30
42 35 29
64 53 35
40 33 27
40 33 27
43 30 25
32 26 22
30 9 10
38 12 13
92 29 20
92 29 21
32 10 10
32 10 10
35 17 16
35 26 22
38 31 26
42 35 29
43 36 30
40 33 27
43 36 29
43 36 29
42 35 29
43 36 30
41 34 28
41 34 28
40 34 28
41 34 28
40 33 28
38 32 27
62 51 38
42 37 34
43 38 35
45 41 37
47 42 38
48 43 39
47 42 38
44 39 35
50 45 41
48 43 39
51 46 42
50 46 42
51 46 42
50 45 41
52 46 42
50 45 42
51 46 42
52 47 43
51 45 41
50 45 41
52 47 43
52 47 43
52 47 43
51 47 43
54 49 44
55 50 46
53 47 43
54 49 45
54 49 45
55 50 45
54 49 45
53 48 44
54 49 44
54 49 44
54 49 45
55 49 45
55 50 46
54 50 46
61 56 50
65 59 53
68 62 55
63 56 51
62 56 50
60 53 47
59 54 48
59 54 49
61 56 50
55 54 46
54 49 45
54 47 43
78 49 46
52 46 42
55 50 46
56 51 46
56 51 47
54 49 45
55 50 46
55 50 46
56 51 47
56 51 47
56 51 47
55 51 47
56 51 47
56 51 47
62 53 48
81 73 55
56 51 47
55 50 46
55 50 46
54 49 45
55 50 46
53 47 43
54 49 45
53 48 44
54 49 45
52 48 44
52 48 44
50 45 42
47 43 39
45 40 37
45 40 37
35 31 28
36 31 29
36 31 28
36 32 29
32 28 26
34 29 27
44 36 32
40 35 32
44 40 36
47 42 38
50 44 41
78 70 51
52 47 43
54 49 45
53 48 45
52 47 43
52 48 43
52 47 43
52 48 44
77 69 50
47 43 39
47 43 39
44 41 37
40 39 35
35 42 34
38 48 35
54 50 36
30 38 31
31 40 33
32 41 33
27 34 28
27 34 28
25 32 27
28 31 26
25 23 22
35 33 30
39 36 33
44 41 37
46 42 38
50 46 42
53 48 44
52 48 44
52 47 43
53 49 45
53 48 44
55 50 46
59 57 48
55 50 46
55 50 46
56 51 47
55 51 46
56 51 47
56 51 47
56 51 47
56 51 47
56 51 47
55 50 46
56 51 47
56 51 47
56 51 47
56 51 47
80 72 54
81 72 54
54 49 46
56 51 47
55 50 46
55 50 46
55 51 47
54 49 46
80 72 54
54 50 46
55 50 47
83 116 60
64 59 53
61 56 51
58 53 48
62 56 51
84 74 57
62 57 52
58 53 49
101 90 62
60 55 49
58 53 48
64 58 53
78 71 52
51 47 43
64 58 53
80 72 54
55 50 46
55 50 46
55 50 46
55 50 46
55 51 47
81 73 54
55 50 46
55 50 46
55 50 46
56 51 47
56 51 47
81 73 54
56 51 47
80 72 54
81 72 54
56 51 47
55 51 46
55 50 46
55 50 46
55 50 46
55 50 46
81 73 54
81 72 54
81 73 55
80 72 53
81 73 54
62 57 51
61 55 50
61 56 50
65 59 52
118 105 68
92 83 63
86 77 58
55 51 46
84 76 57
83 75 56
101 90 61
58 53 34
58 53 11
70 64 12
71 66 14
66 61 13
76 71 15
75 70 14
73 68 14
75 70 14
71 66 14
76 70 14
71 65 13
75 69 13
100 87 14
116 101 44
85 76 50
78 70 51
79 71 52
93 83 52
99 88 60
105 94 60
116 103 67
54 49 45
80 71 53
87 77 54
81 72 54
102 89 55
115 98 37
160 139 68
125 110 84
132 116 87
136 119 88
139 121 89
140 122 90
140 122 90
138 121 89
135 118 88
129 114 85
235 186 91
195 149 71
94 76 44
114 100 64
54 49 45
81 72 54
81 73 54
99 88 60
80 71 53
80 72 54
54 49 45
53 48 44
80 72 53
80 71 53
80 70 51
98 87 58
77 68 50
126 112 68
74 65 46
41 35 32
92 79 47
41 26 24
62 32 26
47 25 23
58 30 27
53 28 26
53 28 26
69 36 29
49 26 24
42 25 23
36 29 27
92 81 51
95 84 54
102 86 56
98 87 58
54 49 45
98 87 58
99 87 59
85 72 52
99 88 59
94 82 57
100 89 61
81 71 53
100 89 60
116 103 66
74 64 50
55 50 46
55 50 46
100 89 61
55 50 46
56 51 46
56 51 47
56 51 47
56 51 46
54 48 45
54 47 44
55 49 45
100 88 60
94 81 56
78 70 51
53 48 44
57 47 43
54 49 45
80 71 53
93 81 55
79 70 51
52 46 43
53 48 44
51 45 41
53 48 44
53 48 44
53 48 44
53 48 43
53 48 44
54 48 44
53 48 44
88 75 52
55 49 44
53 48 43
52 46 42
54 49 45
55 50 45
53 48 44
72 62 47
71 61 46
72 62 48
50 45 41
86 73 50
104 89 57
110 91 56
96 85 55
85 72 49
73 62 44
111 92 56
52 46 41
84 71 48
91 79 51
67 56 39
83 69 45
66 56 41
87 75 48
101 83 47
94 78 47
39 34 31
105 87 50
35 31 28
80 66 39
34 29 24
77 63 37
67 59 38
31 26 22
60 49 28
32 25 22
71 56 31
59 48 30
37 29 23
36 29 25
35 29 24
38 31 26
37 31 25
42 35 29
38 32 26
39 32 27
64 52 34
42 35 29
39 32 27
46 34 28
41 34 28
81 66 40
68 53 35
41 34 29
37 30 25
37 31 26
33 27 23
26 21 17
91 31 22
23 14 11
22 13 11
26 17 15
29 22 18
33 27 22
42 31 26
40 33 27
41 34 28
41 34 29
41 34 28
39 33 27
43 36 30
41 34 28
40 33 27
40 33 27
41 34 28
38 31 26
37 30 25
36 32 29
39 35 32
38 33 30
44 39 36
44 40 36
46 41 38
46 41 38
44 39 36
48 43 39
41 37 33
49 44 40
49 44 40
46 41 38
49 44 40
48 44 40
52 46 42
51 46 42
50 45 41
50 45 41
49 44 40
51 46 42
53 48 43
53 48 44
52 46 42
53 48 44
53 48 44
55 50 46
55 50 46
55 50 46
53 48 44
53 48 44
79 70 52
53 48 44
56 51 46
55 50 46
54 49 45
55 50 46
56 50 46
62 56 51
116 116 66
58 52 47
60 55 50
66 60 54
61 55 50
68 62 55
55 50 46
58 53 47
57 52 45
59 54 49
69 61 54
64 56 51
50 44 41
52 46 42
52 45 42
55 50 45
56 51 47
54 49 45
81 73 55
55 51 46
55 51 46
56 51 46
55 50 46
55 50 46
54 49 45
56 51 47
56 51 46
56 51 47
56 51 47
55 50 46
54 49 45
55 50 46
55 49 45
54 49 45
56 51 47
55 50 46
53 48 44
55 50 46
52 47 44
55 50 46
48 42 38
52 47 43
50 44 41
49 45 41
44 39 35
45 40 37
42 37 34
41 36 33
42 38 35
46 41 38
47 42 39
45 41 37
47 42 38
45 40 37
52 47 43
78 70 51
53 48 44
53 48 44
56 50 44
80 71 53
53 48 44
49 44 40
52 47 43
51 46 43
50 45 41
47 42 39
45 41 38
37 34 31
34 31 28
24 27 23
27 33 27
27 35 28
26 33 27
24 31 25
22 29 23
20 24 20
18 17 16
25 23 21
24 23 21
40 37 34
37 34 32
48 44 40
50 46 42
50 46 42
52 48 44
54 49 45
53 49 45
55 50 46
54 49 45
55 50 46
55 50 46
55 50 46
55 50 46
56 51 47
56 51 47
55 50 46
56 51 47
55 50 46
80 72 53
56 51 47
56 51 47
55 50 46
55 50 46
54 49 45
56 51 47
81 72 54
55 51 46
54 49 45
55 51 47
55 50 46
54 49 45
81 72 54
79 71 53
55 50 46
56 51 47
55 50 46
80 71 53
96 85 56
87 78 59
65 59 53
64 58 52
82 75 57
70 64 57
83 74 56
61 56 50
62 56 51
55 50 46
58 53 48
50 46 41
84 76 58
80 72 54
80 71 53
55 50 46
54 49 46
81 72 54
56 51 47
55 51 46
56 51 47
80 72 54
55 50 47
56 51 47
55 50 46
100 89 61
54 50 46
55 51 47
80 72 54
81 73 55
55 50 46
56 51 47
81 73 55
56 51 47
56 51 47
82 73 55
55 51 47
55 50 46
81 72 54
55 50 46
106 95 67
82 73 55
85 76 57
57 52 45
62 57 51
82 73 55
62 57 51
61 56 50
88 79 60
115 102 66
56 51 47
105 94 65
56 51 42
63 56 13
59 54 11
68 63 13
84 70 15
66 61 13
71 65 13
74 78 14
73 68 14
66 61 13
69 64 13
101 83 14
57 51 10
57 52 12
71 57 39
75 67 47
80 72 43
51 46 42
80 72 53
113 98 61
79 71 52
55 50 45
81 73 54
81 72 53
80 71 52
81 73 54
79 70 50
51 45 16
102 90 65
123 108 83
129 113 85
133 117 87
136 119 88
137 120 89
136 119 88
135 118 88
132 115 86
127 112 85
150 118 67
76 55 31
108 87 47
77 67 48
80 71 53
81 72 54
56 51 46
80 72 53
100 89 61
54 49 45
55 50 46
55 50 45
55 50 45
115 102 66
100 88 59
77 69 50
76 67 48
78 69 50
46 41 38
93 83 53
91 80 49
67 59 39
23 19 18
28 16 16
33 18 17
93 41 23
34 18 17
32 21 20
36 30 28
27 24 22
36 30 27
44 40 37
42 38 35
76 67 48
76 68 49
76 67 48
80 71 53
79 71 52
57 50 46
55 50 45
55 50 46
56 49 45
56 51 47
54 49 45
116 103 67
56 51 47
100 89 61
55 50 46
80 72 53
80 72 53
55 50 46
94 82 57
81 72 54
55 50 46
81 72 54
54 49 45
55 50 46
80 71 52
80 71 53
99 87 59
114 101 65
79 70 52
79 70 52
55 50 45
88 74 52
54 49 45
99 87 59
53 47 44
55 50 46
53 48 44
54 49 45
53 48 44
54 49 45
56 48 44
75 64 49
54 49 45
52 47 43
87 74 51
53 48 44
73 63 48
71 61 46
71 61 47
64 61 47
79 71 52
72 62 47
93 81 55
86 73 50
77 69 49
50 45 41
53 48 44
49 43 39
49 44 40
51 46 42
87 74 50
77 68 49
45 41 37
67 57 42
113 96 57
43 38 34
87 75 48
67 57 42
81 67 43
82 69 44
96 79 46
86 74 45
78 65 39
93 76 45
100 84 49
70 61 40
58 48 31
79 65 38
25 22 19
25 22 20
27 22 19
24 20 17
59 48 29
66 51 29
38 31 24
54 43 28
38 31 26
34 28 23
38 31 25
60 44 29
37 30 25
39 32 27
40 33 27
63 52 33
41 34 28
37 31 26
39 32 27
38 31 26
38 32 26
60 49 31
48 31 25
33 27 23
31 25 21
33 27 22
34 28 23
39 28 23
35 29 24
38 30 25
39 33 27
38 31 26
40 33 27
42 35 29
41 34 28
39 32 27
38 31 26
38 32 26
38 32 26
39 32 27
38 31 26
39 34 30
35 30 27
38 34 31
44 40 36
42 38 35
45 40 37
42 38 34
46 41 38
48 43 39
48 42 39
45 41 37
49 44 40
47 42 38
50 44 40
51 46 42
51 46 41
48 44 40
49 44 41
53 47 43
53 48 43
53 48 44
53 48 44
50 45 41
52 47 43
54 49 45
53 48 44
52 47 43
54 49 45
53 48 44
54 49 45
53 48 44
53 47 43
54 49 44
54 49 45
53 48 44
54 49 45
53 48 45
55 50 45
54 49 45
58 53 48
59 54 49
64 58 53
59 54 48
59 53 48
58 53 48
63 57 51
65 59 53
66 60 54
60 54 49
69 63 56
66 60 54
59 54 49
64 53 49
53 47 43
52 47 43
53 47 43
56 51 47
56 51 47
55 50 46
56 51 47
56 51 47
55 50 46
56 51 47
56 51 46
55 50 46
56 51 47
55 50 46
56 51 47
55 50 46
55 50 46
56 51 47
55 50 46
54 49 45
55 50 46
53 48 44
55 50 46
53 48 44
54 49 45
54 49 44
55 50 46
53 48 44
52 47 43
50 45 41
49 44 40
48 43 39
50 45 41
49 44 40
45 40 37
47 42 38
49 45 41
48 43 40
47 41 38
49 44 40
51 46 42
52 47 43
52 47 43
50 45 41
54 49 45
54 49 45
53 49 45
54 48 44
51 47 43
51 46 43
50 45 42
51 47 43
49 45 42
48 44 41
47 43 40
35 32 30
35 32 30
31 29 27
19 17 16
23 23 21
35 35 23
21 20 18
15 15 13
23 22 20
30 27 25
33 31 28
41 38 35
42 39 36
47 43 40
47 43 40
48 44 41
53 48 44
53 48 44
54 49 45
53 48 45
55 50 46
54 50 46
54 49 45
55 50 46
56 51 47
55 51 46
55 50 46
56 51 47
56 51 47
56 51 47
55 50 46
56 51 47
55 50 46
55 51 47
55 50 46
56 51 47
56 51 47
56 51 47
56 51 47
56 51 47
56 51 47
56 51 47
55 50 46
80 72 54
56 51 47
55 50 46
55 50 46
55 50 46
54 49 46
80 72 53
255 255 142
255 255 141
64 58 52
64 59 53
64 58 52
81 74 56
59 54 48
64 59 53
59 53 49
56 51 47
92 81 62
88 82 64
71 65 58
54 49 46
80 72 54
55 50 46
54 50 46
54 49 46
56 51 47
81 72 54
80 72 54
81 72 54
54 49 46
56 51 47
56 51 47
56 51 47
81 73 54
55 50 46
55 50 46
100 89 61
55 50 45
81 72 54
81 72 54
56 51 47
56 51 47
81 72 54
81 72 54
56 51 47
80 72 53
82 74 55
78 72 63
84 76 57
64 58 53
83 74 56
92 82 63
59 54 49
57 52 48
103 92 64
87 78 60
92 81 60
120 106 71
61 55 50
54 50 43
81 72 39
48 46 9
58 52 11
64 60 12
61 56 12
74 68 14
67 62 13
67 61 13
70 64 12
123 96 14
63 58 12
51 46 9
119 104 35
81 73 46
78 70 49
62 56 43
53 48 41
86 77 51
64 58 45
102 90 61
133 117 70
78 69 51
58 52 46
78 69 51
81 72 53
74 64 43
96 82 10
92 80 52
119 105 81
125 110 84
128 112 85
130 114 86
132 116 87
131 115 86
130 114 86
127 112 85
122 108 83
106 92 71
42 36 29
69 58 35
111 96 59
99 88 60
163 143 83
110 95 60
80 72 53
55 50 46
81 72 54
80 67 49
80 72 54
80 71 53
81 71 52
54 49 45
79 71 52
77 69 50
50 44 41
76 67 47
41 36 33
109 96 58
37 31 29
66 58 37
24 20 19
30 26 25
25 22 20
23 20 19
25 18 16
32 28 26
39 33 30
42 35 32
40 35 33
75 66 47
52 47 44
51 46 42
54 49 45
54 49 45
80 71 53
80 72 53
94 82 56
55 50 46
81 72 54
81 72 54
100 89 61
56 51 47
55 50 46
100 89 61
55 50 46
56 51 47
55 50 46
100 89 60
100 89 61
80 72 54
80 72 53
81 72 54
80 71 53
56 50 46
94 82 57
55 50 45
56 51 46
53 48 45
73 63 49
52 47 43
80 71 53
106 90 59
53 48 44
53 47 44
79 65 50
55 50 46
89 75 53
87 74 51
73 62 48
58 52 46
54 49 45
54 49 45
55 50 46
72 62 48
72 62 47
53 48 44
73 63 49
51 46 42
52 46 42
79 71 52
53 48 44
71 61 46
72 62 48
71 61 47
71 61 46
87 74 51
85 71 48
78 69 51
72 62 47
69 59 44
69 59 44
84 70 47
48 43 39
76 68 49
45 40 37
72 64 44
63 49 40
90 78 50
92 71 46
108 89 53
66 56 41
38 34 31
94 78 46
60 50 34
35 31 28
37 32 27
89 78 47
67 59 37
57 48 30
64 56 35
28 25 23
55 46 28
64 56 33
26 21 18
56 46 27
27 21 18
34 28 23
76 62 35
52 41 26
36 29 24
35 28 23
61 50 31
36 30 24
35 29 24
35 29 24
40 33 27
36 29 24
40 33 27
38 31 26
39 32 27
38 32 26
36 29 24
34 28 23
36 30 25
37 31 25
37 31 25
38 32 26
40 33 27
38 31 26
42 35 29
37 31 26
37 31 25
34 28 23
35 29 24
37 31 26
35 28 23
31 25 21
35 30 26
30 26 23
40 36 32
39 35 32
40 36 32
41 37 34
42 38 34
43 38 35
47 42 39
45 40 36
44 39 36
45 40 36
51 45 41
46 42 38
46 40 37
51 46 42
71 61 46
50 45 41
50 45 41
53 47 43
52 47 42
51 46 42
50 45 41
52 47 43
50 45 41
51 46 42
53 48 44
52 47 42
56 51 47
52 47 43
55 50 46
52 47 43
53 48 44
54 49 45
54 49 45
55 50 46
55 50 45
53 48 44
54 49 44
55 50 46
55 50 45
68 62 55
59 54 48
56 51 46
59 54 49
58 52 46
64 58 51
61 55 49
62 56 51
65 58 52
66 60 54
60 54 49
72 66 59
60 54 49
58 52 48
62 45 43
51 46 42
52 47 43
56 51 47
56 51 47
56 50 46
56 51 47
56 51 47
56 50 46
55 50 46
56 51 47
55 50 46
55 51 46
55 50 46
56 51 47
55 50 46
56 51 47
56 51 47
55 50 46
54 49 45
56 51 46
56 51 47
55 50 46
55 50 46
56 51 47
55 50 46
54 49 45
52 47 43
52 47 43
53 48 44
50 45 41
52 47 43
50 45 41
54 49 45
49 44 40
51 46 42
51 46 42
52 47 44
50 44 40
54 48 44
53 48 44
55 50 46
54 49 45
54 49 45
55 50 46
52 47 43
53 48 44
52 47 43
71 53 44
53 48 44
55 50 46
51 47 43
67 49 40
48 44 41
47 43 39
39 35 33
41 38 35
38 35 33
24 22 20
22 21 19
30 28 26
25 23 21
26 24 22
36 33 30
37 34 32
39 36 33
43 40 36
44 40 37
47 43 39
52 47 43
49 45 41
51 47 43
53 48 45
52 47 43
53 48 44
54 50 45
56 51 47
72 58 47
55 50 46
56 51 47
56 51 47
55 50 46
55 50 46
56 51 47
55 50 46
55 50 46
55 51 46
81 73 54
74 64 50
81 72 54
56 51 47
55 50 46
55 50 46
56 51 47
55 51 46
59 54 47
56 51 47
55 50 46
56 51 47
56 51 47
56 51 47
56 51 47
55 50 47
54 50 46
55 50 46
54 49 46
255 255 255
255 255 156
106 94 76
140 75 55
109 95 64
47 43 42
57 52 49
81 68 57
109 101 89
255 255 162
77 71 62
80 72 54
80 71 53
55 50 46
54 49 46
81 72 54
54 49 45
55 50 46
55 50 46
56 51 47
56 51 47
55 50 46
56 51 47
81 72 54
56 51 46
81 73 55
55 50 46
56 51 47
55 50 47
81 73 55
56 51 46
56 51 47
55 51 47
55 51 46
100 89 61
56 51 47
81 73 54
78 70 51
55 51 46
67 61 55
56 51 47
69 63 56
67 61 55
88 79 60
57 52 47
102 91 62
82 74 55
61 56 50
56 51 46
68 62 55
58 53 47
86 77 58
101 80 32
57 52 11
54 50 10
58 54 11
60 56 12
61 56 11
63 58 12
56 52 11
65 58 12
53 48 10
51 47 10
50 45 9
73 65 42
96 83 52
60 54 40
50 45 39
78 70 51
51 46 42
105 93 60
115 102 66
83 74 54
80 72 53
80 72 53
79 71 52
128 113 69
94 81 51
76 59 20
77 67 53
112 94 74
116 102 80
121 107 82
124 110 84
125 110 84
125 110 84
123 109 83
120 106 82
125 114 76
83 65 50
75 64 42
52 45 36
79 70 50
55 49 45
114 100 64
81 72 54
130 115 72
115 101 65
80 72 53
80 72 53
81 73 54
81 72 54
80 71 53
97 85 57
52 47 43
78 70 51
114 100 64
96 85 56
76 66 46
48 43 40
40 36 33
36 32 29
35 31 28
34 29 27
35 31 29
32 28 26
37 33 31
41 35 32
43 39 36
45 40 37
46 41 37
76 68 49
46 41 38
78 70 52
78 69 51
80 72 53
80 72 53
80 71 53
81 72 54
54 48 44
55 50 46
56 51 46
81 72 54
81 72 54
56 50 46
55 50 46
80 71 53
56 51 47
81 71 53
81 72 54
94 82 56
81 72 54
94 82 57
81 72 54
100 89 60
99 88 60
116 103 67
56 51 46
80 71 53
129 114 71
94 81 56
55 50 46
53 48 43
55 49 45
99 88 59
80 72 53
76 63 50
68 54 47
80 71 53
52 47 43
73 63 49
87 74 52
54 49 45
53 48 44
52 47 43
54 49 44
57 51 45
53 48 44
53 48 44
53 48 44
55 49 43
73 63 49
72 63 48
79 70 52
54 49 44
106 90 59
104 90 58
72 62 48
86 72 49
85 72 49
93 81 54
48 43 39
88 74 50
70 59 43
77 68 49
71 59 43
97 81 51
45 40 35
85 71 46
101 86 53
41 37 33
69 59 42
65 54 38
63 53 37
88 76 49
35 31 28
62 52 36
70 62 42
39 33 27
92 76 44
70 61 39
62 51 32
30 26 24
17 14 12
29 26 24
22 18 16
25 21 19
31 26 20
57 46 27
58 47 28
33 26 20
52 41 26
31 25 21
34 28 23
36 30 24
33 27 23
33 28 23
32 26 22
31 26 21
35 29 24
35 29 24
35 29 24
37 31 25
36 29 24
36 30 24
40 33 28
39 32 26
37 31 25
37 31 26
35 29 24
37 31 26
37 31 26
33 27 22
34 28 23
37 31 25
33 27 23
31 25 21
31 27 23
29 25 22
38 34 31
36 31 28
36 32 29
40 35 32
40 36 33
40 35 31
45 40 36
44 39 36
43 39 35
44 39 36
44 39 36
47 42 38
48 43 39
48 43 39
51 46 42
50 45 42
50 45 41
48 43 39
51 46 41
50 45 41
50 45 41
54 47 42
49 44 40
50 45 41
52 47 43
53 48 44
52 47 42
54 49 45
52 47 43
55 50 45
51 46 42
53 48 44
53 48 44
52 47 42
53 48 44
54 49 45
54 49 45
54 49 45
53 48 44
55 50 46
53 48 44
57 52 47
62 56 51
65 59 53
57 52 47
60 55 50
63 58 52
62 56 50
57 52 47
59 54 49
69 63 56
63 57 51
61 56 50
62 56 51
63 58 52
61 47 44
54 48 44
54 50 45
56 51 47
55 51 47
55 50 46
55 50 46
56 51 47
56 51 47
56 51 47
55 51 46
56 51 47
55 50 46
56 51 46
55 51 46
56 51 47
55 50 46
55 50 46
56 51 47
55 50 46
55 50 46
55 50 46
54 49 45
74 70 50
54 49 45
55 49 45
54 49 45
54 49 45
54 49 45
54 49 45
49 44 40
54 48 44
53 48 44
53 48 44
52 47 43
52 47 43
51 45 42
54 49 45
53 48 44
53 48 44
54 49 45
55 50 46
54 49 45
53 48 44
54 48 44
55 50 46
52 48 44
52 48 44
54 49 45
54 49 45
54 49 45
55 51 46
50 46 42
51 47 43
49 44 41
46 42 39
45 41 37
40 37 34
39 36 34
45 42 37
32 30 27
35 33 31
39 35 33
40 36 33
43 39 36
44 40 37
48 44 41
51 47 43
49 45 42
51 47 43
52 48 44
55 50 46
53 49 45
53 49 45
55 50 46
55 50 46
55 50 46
54 50 46
55 50 46
55 50 46
56 51 47
56 51 47
56 51 46
55 51 46
80 72 54
56 51 47
56 51 47
55 50 46
55 51 46
55 50 46
56 51 47
55 50 46
100 89 61
56 51 47
56 51 47
55 50 46
80 72 54
81 72 54
81 73 55
55 50 46
56 51 47
55 50 46
55 50 46
80 72 54
54 49 45
53 49 45
55 50 46
71 65 58
114 104 91
114 103 90
255 169 80
82 60 49
91 72 59
102 91 77
94 86 75
62 57 51
79 71 53
54 50 46
80 72 54
81 72 54
79 71 53
55 50 46
116 103 67
55 50 46
56 51 47
81 72 54
56 51 47
54 49 46
55 51 46
56 51 47
81 73 54
55 50 47
81 73 54
81 73 55
56 51 47
81 72 54
100 89 61
81 72 54
55 50 46
55 50 46
81 73 55
55 51 47
81 73 54
79 70 50
80 72 53
82 73 55
60 55 50
64 58 52
82 73 55
87 78 59
60 55 49
88 79 60
84 75 56
61 55 49
60 55 49
121 108 73
84 75 57
96 86 61
110 99 34
60 56 12
56 51 11
104 94 14
56 52 11
56 52 11
79 64 10
54 50 10
52 48 10
56 52 9
49 45 9
36 33 22
69 61 40
95 85 55
45 41 35
48 44 40
54 49 43
80 71 53
53 49 44
52 48 43
86 77 53
53 48 44
81 72 54
99 88 58
79 70 51
94 81 51
47 41 33
74 63 41
87 56 49
74 64 52
94 80 61
170 125 66
115 101 78
114 101 79
104 87 64
94 83 64
82 71 53
74 64 41
94 81 49
51 45 36
76 66 47
97 85 57
82 73 53
114 100 64
105 88 60
55 50 46
54 49 45
79 71 52
100 88 60
55 50 45
81 72 54
56 50 45
99 88 59
115 102 66
98 87 58
53 48 44
98 87 58
46 41 38
50 46 42
46 41 38
46 41 38
43 39 36
44 40 37
41 37 34
46 41 38
49 44 41
47 41 38
45 40 37
77 69 50
78 69 51
79 70 52
79 70 52
51 46 42
52 47 43
80 71 53
54 49 45
81 72 54
55 49 45
80 72 53
100 88 60
81 72 54
54 49 45
55 50 46
116 103 66
81 72 54
80 72 54
54 49 46
80 71 53
100 89 61
100 89 61
81 72 54
81 73 54
81 72 54
55 50 45
80 72 54
55 50 46
100 88 60
74 64 50
55 49 45
80 71 53
55 50 46
55 50 46
81 72 53
80 71 53
54 49 46
54 49 45
54 50 45
54 49 45
54 49 45
54 49 45
94 82 56
54 49 45
53 48 44
72 62 48
56 50 44
72 62 47
55 50 45
53 48 43
54 48 44
54 49 45
53 48 44
88 74 52
77 68 49
51 46 42
71 61 46
53 48 44
51 46 42
52 46 42
70 60 46
50 45 41
85 72 49
67 57 42
51 45 37
70 59 43
45 41 37
69 59 44
67 57 40
67 57 42
96 80 49
38 33 30
65 55 39
63 53 37
60 50 33
45 40 36
41 36 32
61 51 35
60 49 31
59 49 32
30 26 24
35 31 28
31 27 24
57 47 29
36 34 20
56 46 28
55 46 28
22 19 18
26 21 15
54 45 26
24 20 18
59 48 28
30 25 21
29 24 20
58 47 29
34 28 23
60 47 28
29 23 19
32 26 22
34 27 23
31 25 21
34 28 23
33 27 23
32 26 22
33 27 23
34 28 24
36 29 24
32 26 22
33 27 22
32 27 22
31 26 21
33 27 22
33 27 23
29 23 19
30 25 21
57 40 28
30 26 24
33 29 27
36 32 29
36 32 29
34 30 27
41 37 34
38 34 31
40 35 32
37 33 30
43 38 34
43 39 35
44 39 36
45 40 37
45 41 37
48 43 39
44 39 35
44 39 36
49 44 40
50 45 41
50 45 41
50 45 41
51 46 42
52 47 43
48 44 40
52 47 43
52 47 43
52 47 43
51 46 42
52 47 42
53 48 44
54 49 45
51 46 42
52 47 43
51 46 42
52 47 43
53 49 45
55 50 45
55 50 45
54 49 45
53 48 44
55 50 45
53 48 44
51 46 42
55 51 46
61 55 50
59 54 49
59 54 49
61 55 49
58 53 48
67 61 55
65 59 52
64 58 52
57 52 48
59 54 48
61 56 50
57 52 48
64 59 53
65 60 54
57 52 48
58 52 47
52 47 43
56 51 47
56 51 47
55 51 46
55 50 46
56 51 47
56 51 47
55 50 46
55 50 46
55 50 46
56 51 47
56 51 46
55 50 46
55 50 46
56 51 47
56 51 47
56 50 46
55 50 45
56 51 47
54 49 45
56 50 46
55 49 45
55 50 46
54 49 45
56 51 47
54 49 45
55 50 46
79 71 52
54 48 44
55 50 46
52 47 43
55 50 46
55 49 45
54 48 44
53 48 44
55 50 46
54 49 45
56 51 46
54 49 45
54 49 45
55 50 46
54 49 45
55 50 46
53 48 44
55 50 46
55 50 46
54 49 45
49 45 41
52 48 44
53 48 44
52 47 43
53 48 44
50 46 42
48 44 40
47 43 40
48 44 41
44 40 37
41 38 35
41 38 35
46 42 39
45 41 38
47 43 39
44 41 38
44 40 37
50 46 42
49 45 41
52 48 44
51 47 43
52 48 44
54 49 45
54 49 45
54 49 45
55 50 46
54 50 46
56 51 47
55 50 46
80 72 53
56 51 47
56 51 47
56 51 47
81 72 54
55 50 46
81 73 55
81 72 54
56 51 47
115 103 66
81 73 55
54 49 46
80 72 54
55 50 46
56 51 47
55 50 46
56 51 47
56 51 47
55 50 46
55 50 46
56 51 47
81 72 54
54 49 45
55 50 46
55 50 46
56 51 47
58 53 47
80 72 54
55 50 46
56 51 47
55 50 46
73 67 59
79 72 63
78 72 63
76 67 59
67 61 54
80 71 53
55 51 47
55 50 46
55 50 46
54 49 46
54 49 46
55 50 46
81 72 54
56 51 47
55 50 46
56 51 47
56 51 47
81 73 54
56 51 47
56 51 47
56 51 47
56 51 47
81 73 54
81 72 54
54 49 45
55 50 46
56 51 47
55 50 46
56 51 47
56 51 47
56 51 47
55 50 46
100 89 61
56 51 47
54 49 44
55 50 44
57 52 47
150 112 80
89 80 61
57 52 46
82 74 55
68 62 55
82 74 56
56 51 45
86 78 59
80 71 52
107 95 68
57 52 47
54 49 45
50 47 41
43 40 24
52 48 12
43 40 8
48 45 9
47 43 9
53 47 9
47 43 9
40 38 7
69 61 30
26 24 15
39 35 28
42 38 34
45 41 37
113 100 62
77 69 48
53 48 44
98 87 58
54 49 45
89 77 54
99 88 59
116 103 67
79 71 52
52 47 43
119 104 62
99 88 59
49 43 34
56 47 35
52 45 36
52 45 37
113 81 39
150 105 44
115 86 46
56 48 38
117 80 31
77 67 44
55 48 39
52 45 37
75 64 42
96 83 52
114 101 64
77 68 49
78 70 51
55 50 46
116 103 66
80 72 54
80 72 53
55 50 46
116 103 66
115 102 66
53 48 44
80 72 53
115 102 66
79 71 53
54 48 43
94 82 54
52 47 43
51 46 42
46 41 37
49 44 40
46 41 38
46 41 38
44 40 37
45 40 37
48 42 39
49 44 40
50 43 38
51 46 43
52 47 43
51 46 42
71 62 47
53 48 44
53 48 44
82 73 54
116 103 67
54 49 45
94 82 57
81 72 53
81 72 54
56 51 46
81 72 54
55 50 46
55 50 47
74 65 51
71 52 47
55 50 46
55 50 46
56 50 46
81 72 54
100 88 60
100 88 60
55 50 46
56 51 47
55 50 46
56 51 47
99 88 60
81 72 54
81 72 54
56 50 46
80 72 54
94 82 57
55 49 45
55 50 46
81 72 54
80 71 53
73 64 49
55 49 45
55 49 45
55 50 46
55 49 45
54 49 45
80 71 53
79 70 52
55 50 46
54 48 44
72 63 48
73 63 49
53 48 44
78 70 51
51 46 42
72 62 48
54 49 44
52 47 43
79 71 52
52 47 43
50 45 41
72 62 47
70 60 44
91 79 53
71 61 46
49 44 40
49 44 40
67 57 41
47 42 38
84 70 46
82 69 45
77 68 48
66 57 42
102 87 54
63 54 38
64 54 38
45 40 35
62 53 36
62 52 36
36 32 29
43 38 32
35 30 27
62 52 36
39 34 28
31 27 25
30 26 23
31 26 21
57 47 30
26 23 21
28 24 22
64 56 34
26 20 16
25 22 21
66 58 35
18 16 14
10 8 7
23 19 17
19 15 13
21 17 14
23 19 16
26 21 17
30 25 20
32 26 22
32 25 20
26 21 18
36 23 19
31 26 21
27 22 18
24 20 16
28 23 19
32 26 21
26 21 18
28 24 20
29 24 20
26 22 20
21 18 16
28 24 22
25 22 20
28 25 23
33 30 27
32 28 26
33 29 27
37 33 30
36 32 30
38 34 31
38 33 30
37 33 30
35 31 28
44 40 36
43 39 35
43 38 35
46 42 38
48 43 39
48 43 39
46 41 38
47 42 38
49 44 40
48 43 40
50 45 41
49 44 40
53 48 44
51 45 42
52 47 43
52 47 43
52 47 43
50 44 40
53 48 44
53 47 43
53 48 44
53 48 44
52 47 43
52 47 43
53 48 43
54 48 44
54 49 45
54 49 45
55 50 46
53 48 44
53 48 44
54 49 45
53 48 44
53 48 44
68 62 57
65 60 53
59 54 48
55 50 46
58 53 48
68 62 56
61 55 50
57 52 48
67 61 55
68 62 55
56 51 46
58 53 48
71 64 57
63 58 52
63 55 50
57 52 47
54 49 45
56 51 46
55 50 46
54 49 46
57 52 47
55 50 46
55 50 46
56 51 47
56 51 47
56 51 47
56 51 47
55 50 46
54 49 45
56 51 47
56 51 47
56 51 47
55 50 46
56 51 47
56 50 46
55 50 46
55 50 46
56 51 47
55 50 46
55 50 46
56 51 47
55 50 46
55 50 46
55 49 45
55 50 46
53 48 44
56 51 46
53 48 44
55 50 46
55 50 45
54 49 45
53 48 44
54 49 45
56 51 47
54 49 45
55 50 46
55 50 46
55 50 46
54 48 44
55 50 46
54 49 45
53 49 45
54 49 45
53 49 45
55 50 46
55 50 46
54 49 45
54 49 45
52 48 44
52 48 44
49 46 41
54 49 45
49 45 41
52 47 43
48 44 41
77 69 50
44 41 38
51 46 43
52 47 43
47 43 40
49 45 41
52 47 43
53 48 44
55 50 46
54 49 45
53 49 45
80 72 54
56 51 47
54 50 46
54 49 45
55 50 46
80 72 54
55 50 46
56 51 47
56 51 47
56 51 47
54 50 46
56 51 47
56 51 47
55 50 46
56 51 47
81 72 54
56 51 47
54 49 45
55 50 46
56 51 47
56 51 47
55 50 46
55 50 47
55 50 46
80 72 53
56 51 47
55 50 46
100 89 61
56 51 47
81 72 54
81 72 54
55 50 46
55 50 46
55 50 46
99 88 60
80 72 54
54 49 45
55 50 46
55 50 46
55 50 46
55 50 46
55 50 46
80 72 54
55 50 46
55 50 46
80 72 54
80 72 54
54 49 46
55 50 46
55 50 46
54 50 46
55 50 46
55 50 46
81 72 54
54 50 46
56 51 47
56 51 47
56 51 47
55 50 45
55 50 46
81 73 54
55 50 46
55 50 46
55 50 46
55 50 46
55 51 46
56 51 47
55 50 46
100 89 61
55 50 46
55 51 47
55 50 46
54 49 44
54 50 44
61 56 48
83 74 56
57 52 47
99 88 59
62 57 52
61 55 50
63 58 52
56 51 47
64 59 52
83 74 55
58 52 48
84 76 57
103 92 64
49 45 39
33 30 27
26 24 21
77 62 14
25 24 8
28 26 5
30 28 6
25 23 8
25 23 13
65 58 36
31 29 26
70 63 42
95 84 52
73 65 45
75 67 48
76 68 49
52 48 42
79 70 50
99 88 60
55 50 45
99 88 59
58 52 45
99 88 59
99 88 59
52 47 41
127 110 62
73 63 42
50 44 35
50 44 35
63 51 36
48 41 33
39 32 25
48 42 34
52 45 37
53 46 37
75 65 42
53 46 37
52 46 37
50 44 35
111 97 59
48 43 39
79 70 51
52 47 43
98 86 58
114 100 63
116 103 67
80 71 53
130 116 73
93 77 55
55 50 46
80 71 53
130 115 72
99 88 60
79 70 51
58 49 44
53 47 44
80 71 53
79 71 52
50 45 42
51 47 43
51 46 42
51 46 43
53 48 44
55 49 44
50 44 40
52 47 43
50 45 41
55 49 45
51 46 42
51 46 42
54 49 45
56 51 47
55 50 46
100 89 61
54 48 44
54 49 45
54 49 45
55 50 46
81 72 54
80 72 54
81 73 54
100 89 61
81 72 54
130 115 72
55 50 46
100 89 61
56 51 47
55 50 46
56 51 47
55 50 46
81 72 54
55 50 45
81 72 54
80 72 53
107 92 61
80 72 53
56 51 47
56 51 46
55 49 45
55 50 46
74 65 51
55 50 45
80 71 53
55 50 46
79 70 52
53 48 44
53 48 44
54 49 45
55 50 46
54 49 44
79 70 52
55 50 46
74 64 50
53 48 44
55 50 45
54 48 44
53 48 44
52 47 42
55 50 45
79 71 52
54 48 43
71 61 46
55 50 46
53 48 44
71 61 47
50 45 41
72 62 47
51 46 42
49 45 41
49 43 39
85 72 49
76 67 48
47 42 38
47 42 38
50 45 41
68 58 43
46 41 37
68 57 41
75 66 47
54 39 36
97 80 48
71 60 43
64 54 37
41 34 31
40 35 32
65 55 40
43 38 35
98 84 50
41 35 28
37 32 27
28 25 23
59 49 33
30 26 25
102 88 50
54 45 27
59 49 31
24 21 19
62 55 32
25 22 18
23 21 19
34 34 19
19 16 14
20 17 16
17 15 14
11 10 9
21 18 16
20 17 15
20 17 15
17 14 12
21 18 15
19 15 13
23 19 16
21 18 16
18 15 13
20 18 16
31 27 25
24 19 17
25 22 20
27 24 22
27 23 21
26 23 21
25 22 20
29 25 23
27 23 21
35 31 28
35 31 28
41 36 33
38 33 30
35 31 29
40 35 32
41 36 33
41 37 34
44 39 35
44 39 36
42 37 33
45 40 37
46 42 38
49 45 41
45 40 37
46 41 38
47 42 38
48 43 39
48 43 39
49 44 40
48 43 39
50 45 41
49 44 40
49 44 39
51 46 42
51 46 42
52 47 43
52 47 43
51 46 42
52 47 43
54 49 45
52 47 43
52 47 43
53 48 44
53 48 44
54 49 45
55 50 45
53 48 45
55 51 46
53 49 45
54 50 46
52 47 44
53 48 44
60 54 49
63 43 41
63 57 51
60 55 50
66 60 54
55 50 46
55 50 45
59 55 48
64 59 53
64 58 53
65 59 53
70 64 57
60 55 50
58 53 49
56 51 47
60 55 49
53 47 44
55 50 46
54 49 45
56 51 47
56 51 46
55 50 46
54 49 45
55 50 46
55 50 46
56 51 47
55 50 46
56 51 47
55 50 46
55 50 47
56 51 47
56 51 47
56 51 47
55 50 46
56 51 47
81 73 55
56 51 47
80 72 54
54 49 45
56 51 47
55 50 46
55 50 46
55 49 45
55 50 46
55 50 46
54 49 46
54 49 45
55 50 46
53 48 44
53 48 44
55 50 46
56 51 46
56 51 47
55 50 46
55 50 46
56 51 47
54 50 46
55 50 46
54 49 45
56 50 46
55 50 46
55 50 46
53 48 44
53 48 44
54 50 46
54 49 45
51 47 43
51 46 42
54 49 45
54 49 45
50 46 42
49 45 42
51 47 43
52 48 44
53 49 45
48 44 41
54 49 45
52 48 44
54 49 45
52 48 44
79 71 52
53 49 45
49 45 41
55 50 46
54 49 45
54 49 45
55 51 47
54 50 46
55 50 46
55 50 46
54 50 46
55 50 46
56 51 47
56 51 47
54 50 46
55 50 46
55 50 46
56 51 47
55 50 46
55 50 46
80 72 54
56 51 47
55 50 46
56 51 47
56 51 47
56 51 47
60 55 48
56 51 47
77 64 54
56 51 47
56 51 47
55 51 46
56 51 47
81 72 54
56 51 47
95 83 58
100 89 61
55 50 46
100 89 61
100 89 61
81 72 54
55 50 46
80 71 53
54 49 46
55 50 46
54 49 45
54 49 46
55 50 46
53 48 45
53 49 45
55 50 46
55 50 46
56 51 47
54 50 46
55 50 46
55 50 47
55 51 47
55 50 46
56 51 47
55 51 47
56 51 47
56 51 47
81 73 55
56 51 47
56 51 47
55 51 46
100 89 61
57 51 47
55 51 46
55 50 46
55 50 46
81 73 54
116 103 67
55 51 47
75 62 50
80 72 54
55 50 46
55 50 46
80 72 54
86 74 53
59 54 49
81 73 54
52 47 44
78 70 51
115 102 66
80 72 53
57 52 47
115 102 66
56 51 47
57 52 47
100 89 61
65 59 52
84 77 64
36 33 28
36 33 27
31 28 26
25 23 20
23 21 19
16 15 12
13 12 9
22 20 17
32 29 24
30 27 24
71 63 41
70 62 41
73 65 42
41 37 33
50 45 41
53 48 43
79 71 53
80 71 52
79 71 52
80 71 53
141 124 75
54 49 45
80 71 53
54 49 45
125 109 66
53 47 41
113 100 62
70 60 38
74 64 41
75 65 42
52 45 37
50 44 35
52 45 37
52 45 36
52 45 36
94 80 48
51 44 35
50 43 34
125 109 64
127 112 67
122 105 61
78 69 50
54 48 43
99 88 60
80 71 53
54 49 45
100 89 60
100 89 60
55 50 46
100 89 61
81 73 55
56 51 46
80 72 53
55 49 45
81 73 54
54 49 45
54 49 45
129 115 72
79 70 52
78 70 51
54 49 45
54 49 45
73 63 48
53 48 44
51 46 42
52 47 43
52 47 44
54 49 45
54 49 45
53 49 45
54 49 45
53 48 44
54 48 44
55 50 46
94 82 56
80 72 53
81 72 54
81 72 54
54 49 45
81 72 54
76 63 50
55 50 46
81 73 54
81 73 55
56 50 46
55 50 46
74 64 49
55 50 46
81 72 54
56 50 46
55 50 46
100 89 61
116 102 66
54 48 44
154 113 66
210 153 86
135 88 48
99 72 56
64 42 40
79 70 51
54 49 45
56 50 46
55 49 45
100 89 60
82 78 54
54 49 45
53 48 44
56 50 46
55 50 45
53 48 44
57 51 45
55 50 46
80 71 53
55 50 45
54 49 45
53 48 44
55 49 44
51 46 42
52 47 42
53 48 44
53 48 44
54 48 43
54 49 44
67 51 46
72 63 48
53 48 44
70 61 46
50 45 41
49 44 40
52 47 43
68 58 42
69 59 44
70 59 44
68 58 43
91 79 52
47 42 38
67 57 42
66 57 41
47 42 38
46 41 36
44 39 36
66 56 41
111 93 54
103 87 54
97 80 48
71 62 42
40 36 32
45 39 32
51 31 29
60 50 33
36 31 26
34 29 25
33 29 27
33 29 26
83 71 41
42 40 28
26 22 20
26 23 20
27 23 21
23 20 18
25 22 20
22 19 17
26 22 18
22 20 18
24 22 20
18 15 14
27 22 17
17 15 14
21 18 16
17 14 13
19 17 15
24 21 19
23 20 19
18 15 14
26 23 21
23 20 18
24 21 20
28 24 21
31 27 25
38 27 24
31 27 25
28 25 23
29 25 23
37 33 30
28 24 22
33 29 26
36 32 29
32 29 26
39 35 32
36 33 30
40 35 31
37 32 30
45 40 37
41 37 33
45 40 37
44 39 36
46 41 38
46 41 37
47 42 38
48 44 40
48 43 39
44 39 36
48 44 40
49 44 41
50 45 41
51 46 41
50 45 41
52 47 43
50 45 41
53 48 43
51 46 42
50 45 41
52 47 43
51 46 42
52 47 43
52 46 42
54 48 44
54 49 44
51 45 41
53 48 44
54 49 45
53 48 44
54 49 45
55 50 45
54 48 45
52 47 43
54 49 46
52 48 44
159 42 50
64 51 46
59 53 48
64 58 52
57 52 47
57 52 47
56 51 45
57 52 47
59 52 48
64 58 53
64 56 51
57 52 47
63 58 52
61 56 51
54 49 45
53 48 44
56 50 46
82 51 48
55 51 46
56 51 47
56 51 47
56 51 47
54 49 45
55 50 46
56 51 47
56 51 47
55 50 46
56 51 47
55 50 46
56 51 47
56 51 47
56 51 46
56 51 47
56 51 47
56 51 47
55 50 46
54 49 45
56 51 47
56 50 46
55 50 46
55 50 46
56 51 46
55 50 46
56 51 47
55 50 46
56 50 46
56 51 47
54 50 46
55 50 46
56 51 47
56 51 47
55 50 46
55 50 46
55 50 46
56 51 46
55 50 46
56 51 47
55 50 46
56 51 47
55 51 46
54 49 45
55 50 46
56 51 47
56 51 47
55 50 46
53 48 44
55 50 46
52 48 44
54 50 45
71 54 45
50 46 42
52 47 43
53 48 44
53 49 45
53 48 44
52 48 44
54 49 45
54 49 45
53 49 45
55 50 46
55 50 46
53 49 45
56 51 47
56 51 47
54 49 45
56 51 47
55 50 46
54 50 46
56 51 47
55 50 46
56 51 47
55 50 46
56 51 47
81 72 54
56 51 47
80 72 54
55 51 46
56 51 47
56 51 47
56 51 47
55 51 47
56 51 47
55 50 46
55 51 47
56 51 47
81 72 54
56 51 47
56 51 47
54 49 46
81 73 55
55 50 46
56 51 47
100 89 61
81 73 55
100 89 61
81 72 54
116 103 67
100 89 61
81 72 54
55 50 46
55 50 46
55 50 46
55 50 46
80 72 54
54 49 45
54 50 46
71 57 46
54 49 45
55 50 46
54 49 46
55 50 46
55 50 46
80 72 54
81 73 55
56 51 47
56 51 47
81 73 55
56 51 47
56 51 47
56 51 47
56 51 47
81 72 54
56 51 47
100 89 61
56 51 47
56 51 47
55 50 46
81 73 54
55 50 46
55 50 46
55 51 46
81 72 54
55 50 46
55 50 46
81 72 54
55 50 46
55 50 46
55 50 46
84 74 55
255 255 211
255 255 135
82 73 55
82 73 54
57 52 48
84 75 56
58 52 48
85 76 56
80 72 53
106 95 67
57 52 48
99 90 81
60 55 47
43 40 36
47 43 36
37 34 30
35 32 28
32 30 27
23 21 18
32 28 24
39 35 30
39 36 32
41 38 34
42 38 32
74 66 47
75 67 47
51 46 42
63 57 43
80 72 53
79 70 52
98 87 58
55 50 45
85 72 52
80 71 53
100 89 60
75 66 47
58 51 44
98 87 58
73 63 44
49 44 38
70 62 41
70 58 34
45 38 31
48 41 33
48 41 33
50 43 35
63 51 36
49 42 34
45 39 31
47 40 32
92 80 46
46 41 34
74 66 46
127 112 68
67 57 43
99 88 59
79 71 52
53 48 44
54 49 44
100 89 60
56 51 47
55 50 46
100 89 61
81 73 54
55 50 45
80 72 54
81 73 55
54 49 45
54 49 45
97 85 57
80 71 53
54 49 45
81 72 53
52 46 42
54 49 45
55 49 45
56 51 47
55 50 46
54 49 45
54 49 45
53 47 43
54 49 45
55 49 45
54 49 45
82 73 54
55 50 46
81 72 54
81 72 54
80 72 53
81 72 54
80 72 53
55 50 46
56 51 47
81 73 54
102 91 62
81 73 54
56 51 47
56 51 47
81 72 54
81 73 54
55 49 45
80 72 53
55 50 46
56 51 47
54 48 44
255 255 142
255 255 255
255 255 255
255 213 124
119 89 78
116 87 77
111 82 73
86 61 55
98 86 57
55 50 46
75 62 49
55 49 45
73 64 49
55 50 46
55 50 46
81 72 54
54 49 45
81 73 55
80 71 53
55 49 45
53 47 43
54 49 44
54 49 45
53 48 44
55 50 45
52 47 43
53 48 44
87 71 51
88 75 52
73 63 49
78 70 51
54 49 45
53 48 44
53 48 44
72 62 48
49 45 41
50 45 41
52 47 43
49 44 40
76 67 48
70 60 45
50 45 39
90 78 52
75 67 47
75 67 48
90 78 51
69 58 43
47 42 38
48 43 39
50 40 34
65 55 40
45 41 37
41 37 34
55 45 36
36 32 29
39 34 31
36 32 29
39 35 32
38 33 28
37 33 30
35 31 28
37 33 30
57 48 30
33 29 26
70 62 40
25 22 20
31 27 22
26 22 20
35 30 25
55 45 28
23 20 18
24 20 18
51 36 25
22 19 18
30 27 24
23 20 18
23 20 18
23 20 18
23 20 18
21 18 17
28 25 23
22 19 18
28 25 22
21 17 16
30 26 24
26 22 20
30 27 24
29 26 24
35 31 28
31 27 25
31 27 25
34 30 27
34 30 27
37 33 30
36 32 29
42 37 34
38 33 30
41 36 33
42 37 34
43 38 35
39 35 32
43 38 35
42 38 34
46 41 38
47 43 39
47 42 38
49 44 41
49 44 40
46 41 37
47 42 39
48 43 39
49 44 40
49 44 41
48 44 40
51 46 42
53 48 44
50 46 42
51 46 42
51 45 41
54 49 45
52 47 43
53 48 44
54 49 44
53 48 44
54 49 45
54 49 45
52 47 43
54 49 45
54 50 45
53 48 44
54 49 45
54 49 45
52 48 44
54 49 45
53 48 44
53 48 45
72 53 50
70 37 38
56 48 44
66 59 53
58 52 47
55 49 46
59 54 48
52 48 44
60 54 49
57 51 47
54 49 46
57 52 47
60 55 50
55 50 46
163 145 82
55 50 46
54 49 45
106 51 49
255 122 78
71 47 44
55 51 46
56 51 46
55 50 46
55 50 46
56 51 47
55 50 46
55 50 46
55 50 46
55 50 46
56 51 47
56 51 47
55 50 46
55 50 46
55 51 46
56 51 47
55 50 46
56 51 47
55 50 46
55 50 46
56 51 47
55 50 46
55 50 46
55 51 46
56 51 47
55 50 46
55 51 46
55 50 46
56 51 47
56 51 47
56 51 47
55 50 46
56 51 46
55 50 46
56 51 47
55 50 46
54 49 45
56 51 47
55 51 47
55 51 47
55 50 46
55 50 46
55 50 46
55 50 46
56 51 47
55 50 46
56 51 47
52 48 44
55 50 46
55 50 46
54 49 45
54 49 45
54 49 45
53 48 44
55 50 46
55 50 46
54 49 45
55 50 46
55 50 46
52 47 43
53 49 45
55 51 46
54 49 45
55 50 46
81 72 54
55 50 46
55 50 46
56 51 47
81 72 54
54 49 45
55 50 46
56 51 47
56 51 47
55 50 46
55 50 46
56 51 47
54 50 46
56 50 47
56 51 47
55 50 46
56 51 47
55 50 46
56 51 47
56 51 47
56 51 47
56 51 47
55 50 46
56 51 47
56 51 47
56 51 47
56 51 47
81 72 54
100 89 61
100 89 61
56 51 47
81 73 55
100 89 61
81 72 54
130 115 73
100 89 61
116 103 67
56 51 47
56 51 47
55 50 46
80 72 54
80 72 54
80 72 54
55 50 46
55 50 47
54 49 46
55 50 46
56 51 47
54 49 45
55 50 46
100 89 61
100 89 60
55 51 47
55 51 47
81 72 54
56 51 47
56 51 47
56 51 47
56 51 47
55 50 46
56 51 46
56 51 47
80 72 54
56 51 47
56 51 47
54 49 45
55 50 46
56 51 47
56 51 47
56 51 46
79 72 54
55 50 46
80 72 54
55 50 46
54 50 46
54 49 45
255 255 159
255 255 255
255 255 243
119 105 69
101 90 62
105 94 66
53 49 45
82 73 54
49 44 40
49 44 38
110 97 90
75 69 61
46 42 38
47 43 39
42 38 34
46 42 38
38 35 31
41 38 35
40 36 32
40 36 32
45 41 37
45 41 37
45 41 37
45 41 37
48 44 39
77 69 50
77 69 50
51 47 42
79 71 51
99 88 59
76 67 48
99 88 60
53 48 43
85 75 52
80 72 53
55 50 46
61 55 41
52 47 42
77 68 49
46 42 38
47 42 35
69 61 40
39 34 27
34 29 24
39 33 27
41 35 28
42 36 29
39 34 26
35 31 26
31 27 24
41 36 30
95 84 52
76 68 48
45 41 37
100 89 59
55 50 46
83 74 53
100 89 60
80 72 53
100 89 61
53 49 44
55 50 46
80 72 53
56 51 47
56 51 47
81 73 54
80 72 53
80 72 54
80 71 53
80 71 53
55 50 46
53 47 44
55 50 46
55 50 46
55 50 46
55 50 46
53 48 44
65 52 46
55 50 46
53 48 44
55 50 46
54 49 45
54 49 45
55 50 46
55 50 46
81 73 54
56 51 47
56 51 47
80 72 54
55 50 46
55 49 45
58 52 47
56 51 47
56 51 47
81 72 54
81 73 55
81 73 54
56 51 46
76 63 51
81 73 54
55 50 46
56 50 46
80 72 53
52 46 42
255 255 177
255 255 255
255 255 241
183 134 93
126 94 81
128 95 81
127 94 81
124 92 80
226 155 94
220 149 84
68 49 39
80 71 53
55 50 45
73 63 49
82 75 54
54 49 45
81 72 53
80 71 52
54 48 44
55 50 46
54 49 45
53 48 44
54 49 45
53 48 44
55 50 45
56 50 46
53 48 44
55 50 45
53 48 44
53 48 44
71 61 46
53 48 44
53 48 44
54 49 44
54 49 44
50 45 41
51 46 42
51 46 42
73 63 47
71 61 46
86 73 50
48 43 39
49 44 40
50 44 39
49 44 40
49 44 40
69 59 44
68 58 43
68 58 43
48 43 39
76 67 46
41 37 34
67 57 42
71 61 44
63 54 38
39 35 32
43 38 35
39 35 32
37 32 29
41 37 34
68 60 39
43 37 33
32 29 27
32 28 25
42 40 27
88 78 46
34 30 28
29 26 23
28 24 22
67 59 38
26 23 21
25 22 20
33 29 27
24 21 19
25 22 20
21 18 17
26 24 21
27 24 22
25 22 20
26 22 20
26 22 20
30 26 24
25 22 20
33 22 19
25 22 20
30 27 25
28 25 23
32 28 26
29 25 23
33 29 26
32 28 25
33 29 26
36 32 29
36 32 30
35 31 28
38 34 31
36 31 28
37 32 29
39 34 31
42 38 35
41 37 34
45 41 37
44 39 35
45 40 37
45 40 36
48 43 39
45 40 36
48 43 39
49 44 40
46 41 37
47 42 38
46 41 38
48 43 39
50 45 41
50 46 42
50 45 42
52 47 43
50 45 41
53 48 44
53 48 44
52 47 42
52 47 43
52 47 43
52 47 43
53 48 43
52 47 43
54 49 45
53 48 44
53 48 44
53 49 45
52 47 43
55 50 46
53 48 44
54 49 45
54 49 45
53 48 44
53 48 44
54 49 45
79 51 49
95 83 69
50 57 42
71 65 56
55 49 45
60 54 49
64 58 52
55 50 46
61 56 50
62 56 51
57 52 47
56 51 46
56 53 46
56 51 46
53 48 44
53 48 44
108 52 49
158 75 57
155 73 56
218 106 68
56 51 47
55 50 46
56 51 47
54 49 45
55 50 46
56 51 47
56 51 47
55 50 46
55 50 46
55 50 46
56 51 47
55 49 45
55 50 46
55 50 46
55 51 46
54 49 45
55 50 46
56 51 47
56 50 46
55 50 46
56 51 47
55 50 46
56 51 47
55 49 45
55 50 46
56 50 46
56 51 47
55 50 46
55 50 46
56 51 47
54 49 45
56 51 47
55 50 46
55 51 46
55 50 46
55 50 46
55 50 46
56 51 47
55 50 46
55 50 46
55 50 46
55 50 46
56 51 46
55 50 46
54 49 45
55 51 47
54 49 45
54 49 45
56 51 47
55 50 46
55 50 46
55 50 46
55 51 47
56 51 47
55 50 46
80 72 53
55 50 46
56 51 47
54 49 45
55 50 46
55 51 46
55 50 46
55 50 46
55 51 47
54 50 46
55 50 46
55 50 46
55 51 47
56 51 47
55 50 46
55 50 46
56 51 47
80 72 53
56 51 47
56 51 47
56 51 47
56 51 47
56 51 47
55 50 46
55 50 46
81 73 54
55 50 46
56 51 47
55 50 46
54 50 46
55 50 46
55 50 46
80 72 54
55 50 46
55 50 46
81 73 55
81 72 54
100 89 61
116 103 67
80 72 54
81 73 54
55 50 46
99 89 61
55 51 47
81 73 54
55 50 46
55 50 47
55 50 46
55 50 46
55 51 47
81 72 54
54 49 46
81 72 54
54 49 46
56 51 47
56 51 47
55 50 47
56 51 47
56 51 47
56 51 47
55 51 47
81 72 54
54 49 45
56 51 47
56 51 47
81 72 54
56 51 47
56 51 47
81 72 54
56 51 47
56 51 47
56 51 47
81 72 54
81 72 54
55 50 46
81 72 54
80 72 53
54 49 45
55 50 46
54 49 45
55 50 47
55 50 46
55 50 46
55 50 46
224 198 106
255 255 255
255 255 255
255 242 139
204 99 86
255 239 130
153 91 57
71 60 51
75 66 58
74 68 59
51 47 43
51 46 42
48 44 40
50 46 42
48 44 40
48 43 40
48 43 39
47 42 39
45 41 37
44 40 36
46 42 38
46 42 38
49 45 41
52 48 42
50 46 42
50 46 41
54 49 45
51 46 42
54 49 44
51 47 42
52 47 43
55 50 46
79 71 52
54 49 45
53 48 43
78 70 51
51 47 42
52 47 43
46 42 38
44 40 35
39 35 31
37 33 29
32 27 23
40 29 26
25 22 20
24 21 19
29 25 22
32 25 22
38 35 31
40 36 32
44 39 35
50 44 38
115 101 65
98 87 58
80 71 53
79 71 52
55 50 46
55 50 46
81 72 54
100 89 60
54 49 45
55 50 46
100 89 61
81 73 55
150 132 79
73 63 49
100 89 60
56 51 47
81 72 54
56 51 46
55 50 46
54 49 45
55 50 46
54 49 45
55 50 46
54 49 45
55 50 46
55 50 45
55 50 46
55 50 46
54 49 45
56 51 47
55 50 46
55 50 46
55 50 46
55 50 46
56 51 47
56 51 47
55 50 46
55 50 46
56 51 47
80 72 54
56 51 47
55 50 46
81 72 54
56 51 47
55 49 45
81 72 54
81 72 54
54 49 45
56 50 46
55 49 45
73 51 38
255 255 180
225 163 103
125 93 80
129 96 82
131 97 83
132 98 83
131 98 83
129 96 82
119 87 73
255 196 99
132 87 48
65 49 39
55 50 45
54 49 45
80 72 53
55 50 46
54 48 44
55 50 45
53 48 44
54 49 45
81 72 54
100 89 61
80 71 52
54 49 45
53 48 44
75 62 49
71 61 47
53 48 44
93 81 55
54 49 45
73 63 49
53 48 44
53 48 44
73 63 48
49 44 40
49 44 41
53 48 44
49 44 40
70 60 45
51 46 42
77 68 49
91 79 52
47 43 39
47 42 38
68 58 43
49 44 40
98 82 52
76 67 48
68 58 43
46 41 38
46 41 37
67 57 42
47 42 38
65 55 39
72 64 44
80 66 42
45 40 37
40 36 33
62 53 37
40 35 32
41 37 34
69 60 38
42 37 31
33 30 27
35 32 29
34 29 27
58 48 31
33 29 27
29 25 23
30 26 24
33 29 27
39 28 25
33 29 27
31 27 25
27 24 22
24 21 19
36 26 23
29 26 23
38 27 24
31 27 25
25 22 21
23 20 18
30 26 24
31 27 25
31 28 25
27 24 22
40 29 26
39 35 32
34 30 28
34 30 27
30 27 24
36 32 29
35 31 28
38 34 31
38 33 30
41 37 34
38 34 30
40 35 32
41 36 33
38 34 31
40 36 33
46 41 38
42 38 35
42 37 33
46 41 37
46 41 38
48 43 39
47 43 39
48 43 39
51 46 42
49 45 41
49 44 40
48 43 39
51 46 42
51 46 42
50 45 41
51 46 42
51 46 42
52 47 43
53 48 44
53 48 43
53 48 44
52 47 43
53 48 44
54 49 45
52 47 43
53 48 44
53 48 44
52 47 43
53 48 44
52 47 43
52 47 43
54 49 45
51 47 43
52 48 44
54 49 45
53 48 44
53 49 45
53 48 44
87 79 69
122 112 98
84 58 53
50 34 33
52 43 39
56 47 42
82 74 54
69 63 56
65 58 51
79 68 56
92 81 71
63 56 50
54 48 44
54 49 45
54 49 45
106 51 49
106 51 49
155 74 56
188 89 60
135 72 53
55 50 46
56 51 46
55 49 45
55 50 46
71 54 48
55 49 46
56 50 46
56 50 46
56 51 47
55 50 46
55 50 46
54 50 46
56 51 47
55 50 46
56 51 46
55 49 46
56 51 47
56 51 47
55 50 46
55 50 46
55 50 46
56 51 47
56 51 47
55 50 46
56 51 47
55 50 46
53 48 44
56 51 47
56 51 47
55 51 46
56 51 47
55 50 46
56 51 47
56 51 47
55 50 46
55 50 46
55 50 46
56 51 47
80 72 54
56 51 47
73 56 47
55 51 47
56 51 47
55 50 46
55 51 46
55 50 46
52 48 44
56 51 47
55 51 46
55 50 46
54 50 46
55 50 46
55 51 46
55 50 46
54 50 46
55 50 46
53 49 45
55 50 46
56 51 47
55 50 46
56 51 47
56 51 47
55 50 46
54 49 45
56 51 47
56 51 47
55 50 47
55 50 46
56 51 47
56 51 47
55 51 46
56 51 47
56 51 47
56 51 47
57 52 47
56 51 47
56 51 47
56 51 47
55 51 46
56 51 47
56 51 47
56 51 47
56 51 47
56 51 47
56 51 47
56 51 47
56 51 47
80 72 54
55 50 46
100 89 61
81 73 55
109 93 60
81 73 55
55 50 46
100 89 61
55 50 46
81 72 54
56 51 47
55 50 46
56 51 47
55 50 46
56 51 47
80 72 54
54 49 45
55 50 46
54 49 45
54 50 46
55 50 46
55 51 47
56 51 47
100 89 61
56 51 47
81 72 54
56 51 47
81 73 55
81 73 54
81 73 55
56 51 47
55 50 46
56 51 47
55 50 46
55 51 47
55 50 46
56 51 47
56 51 47
81 72 54
81 72 54
56 51 47
81 73 55
100 89 61
56 51 47
55 50 46
60 54 48
55 50 46
54 49 45
55 50 46
55 51 47
55 51 47
80 72 54
57 51 48
255 255 173
255 255 214
105 96 84
107 98 85
101 92 79
73 66 58
54 49 45
54 49 45
52 47 43
50 46 42
51 47 42
52 48 44
60 46 42
51 46 42
52 48 44
49 45 40
52 47 42
49 45 40
52 46 38
51 47 42
51 46 41
51 46 43
53 49 43
54 50 45
54 50 45
99 88 59
55 50 46
80 72 53
54 49 45
80 72 53
53 49 45
80 71 52
107 92 60
97 86 57
99 88 59
50 45 41
76 68 49
50 45 40
43 39 35
44 39 35
46 41 34
44 36 32
36 32 29
34 30 27
40 36 32
40 36 32
41 37 33
48 43 39
76 68 48
51 46 42
57 47 43
77 67 49
61 52 48
80 72 53
54 49 45
100 89 60
74 64 50
55 50 46
55 50 46
81 73 54
128 113 70
81 73 55
55 50 46
81 72 54
55 50 46
55 50 46
100 88 60
100 89 61
55 50 46
81 72 54
56 51 47
55 50 46
54 49 45
55 50 46
56 51 47
56 51 47
55 50 46
55 50 46
55 50 46
56 51 47
54 50 46
100 89 60
55 50 46
55 50 46
55 50 46
55 49 45
81 72 54
55 50 46
81 73 54
81 72 54
56 51 47
74 64 50
81 72 54
76 63 50
80 72 53
81 72 54
61 52 48
56 51 47
56 51 47
75 65 45
111 52 42
111 82 72
121 90 79
127 94 81
130 97 83
133 99 83
134 99 84
133 99 84
131 97 83
126 93 79
102 71 57
78 50 34
65 47 33
53 46 42
73 63 49
73 63 49
55 50 46
99 88 60
55 49 45
76 65 50
73 63 48
54 49 45
55 50 46
55 50 45
73 63 49
81 72 54
54 49 45
72 62 48
79 70 52
53 48 44
73 63 48
54 49 45
72 62 47
53 47 43
52 47 43
52 47 43
52 47 43
79 70 52
51 46 42
92 80 54
51 46 42
50 45 41
48 43 39
92 80 55
50 45 41
55 43 40
51 46 42
45 40 36
69 60 45
48 43 39
102 87 54
44 40 36
50 44 38
75 67 47
48 42 37
47 42 39
40 35 32
45 41 37
46 41 37
41 36 33
42 38 34
40 36 33
36 31 28
63 54 38
39 34 31
85 73 45
39 35 31
40 36 33
34 30 27
69 61 40
32 28 25
31 27 25
39 29 26
32 28 26
32 29 26
39 34 28
31 28 25
31 28 26
28 25 22
32 28 26
30 27 25
31 28 25
33 30 28
32 28 26
31 27 24
36 31 29
32 28 26
34 31 28
32 29 26
32 28 25
38 34 31
36 31 29
38 34 31
43 39 35
41 36 33
37 32 29
43 38 35
41 36 33
41 36 33
43 38 35
39 35 32
44 39 35
41 36 33
47 42 38
45 41 37
48 44 40
45 40 36
45 41 37
48 44 40
49 44 40
47 42 38
48 43 39
50 44 40
50 45 41
52 47 43
51 46 42
52 47 43
51 46 42
52 47 43
50 45 40
51 46 42
51 46 42
50 45 41
53 48 44
53 48 44
55 50 46
53 48 43
54 49 45
53 48 44
54 49 45
53 48 44
53 48 44
53 48 44
52 48 44
55 50 46
54 49 45
52 48 44
53 48 44
54 49 45
53 48 44
55 50 46
74 68 60
122 103 90
130 107 94
105 79 70
180 128 86
109 101 86
109 100 86
108 95 82
93 85 74
63 58 52
52 47 42
53 47 43
52 47 43
52 47 43
104 50 48
105 51 49
226 107 70
191 90 62
145 70 52
57 50 46
54 49 45
55 48 44
53 48 44
55 50 46
55 50 46
54 49 45
55 50 46
56 50 46
54 49 45
55 50 46
55 51 46
55 51 46
56 51 47
56 51 47
55 50 46
55 51 46
56 51 47
56 51 47
55 50 46
56 51 47
56 50 46
55 50 46
56 50 46
55 50 46
57 52 47
55 50 46
55 50 46
55 50 46
56 51 47
55 50 46
56 51 47
55 50 46
56 51 47
55 50 46
56 51 47
56 51 47
55 50 46
54 50 46
55 50 46
56 51 47
55 50 46
56 51 47
55 50 46
55 50 46
54 49 45
55 50 46
55 50 46
55 50 46
56 51 47
56 51 47
56 51 47
55 51 46
55 50 46
56 51 47
55 50 46
55 50 46
56 51 47
56 51 47
56 51 47
55 50 46
56 51 47
55 51 46
56 51 47
56 51 47
56 51 47
56 51 47
56 51 47
56 51 47
55 51 47
55 50 46
56 51 47
56 51 47
56 51 47
56 51 47
56 51 47
56 51 47
56 51 47
60 54 48
56 51 47
56 51 47
56 51 47
55 50 46
56 51 47
55 50 46
81 73 54
56 51 47
56 51 47
55 50 46
100 89 61
56 51 47
81 72 54
56 51 47
81 72 54
81 72 54
56 51 47
56 51 47
56 51 47
54 49 46
55 51 47
56 51 47
56 50 47
56 51 47
55 50 46
55 50 46
55 50 46
81 72 54
56 51 47
55 50 46
55 50 46
56 51 47
56 51 47
56 51 47
56 51 47
56 51 47
56 51 47
55 50 46
56 51 47
56 51 47
55 50 46
100 89 61
81 73 55
81 73 55
56 51 47
55 50 46
81 73 54
56 51 47
56 51 47
55 50 46
56 51 47
100 89 61
81 72 54
54 49 46
80 72 54
55 50 46
54 49 46
54 50 46
54 50 46
55 50 46
54 49 45
53 49 45
55 50 46
52 48 44
55 50 46
53 48 44
54 49 45
55 50 46
53 49 45
53 48 44
53 49 45
54 49 45
50 45 41
53 49 44
53 49 45
50 46 42
49 45 40
51 46 42
51 46 42
50 45 41
55 50 46
53 49 44
57 51 43
54 49 45
81 73 53
54 49 45
55 50 46
81 72 54
54 49 45
81 73 54
55 50 45
55 50 45
80 72 53
55 51 46
80 72 53
53 49 44
56 50 43
51 46 42
51 46 42
50 45 41
48 42 36
45 40 36
48 44 40
43 38 33
42 38 34
44 40 36
60 50 39
50 45 41
51 46 41
75 66 48
51 46 42
54 49 45
53 48 44
55 50 45
81 72 53
99 88 59
80 72 53
98 86 59
56 51 46
55 50 46
55 50 46
116 103 67
81 73 54
81 72 54
100 89 61
56 50 46
54 49 45
81 73 54
55 50 46
100 89 61
79 69 52
56 51 46
55 49 45
56 51 47
56 51 47
56 51 47
55 50 46
56 51 47
55 50 46
55 50 46
55 50 46
56 51 47
55 50 46
56 51 47
56 51 47
100 89 60
56 51 47
55 50 46
54 49 45
56 51 46
81 72 54
54 49 45
56 51 47
81 72 54
70 58 46
74 64 50
54 49 45
81 72 53
58 51 47
80 72 53
68 49 35
93 67 55
115 86 76
121 90 79
127 94 81
130 97 82
132 98 83
133 99 84
133 99 83
131 97 83
127 95 81
114 83 70
67 47 38
33 23 20
71 55 42
55 49 45
56 51 46
53 48 44
55 50 46
81 72 54
55 50 45
55 49 45
54 49 45
54 49 45
54 49 45
54 49 44
94 82 57
55 50 45
53 48 44
55 50 46
100 89 60
52 47 44
80 71 53
52 47 43
53 48 44
56 50 44
53 48 44
93 81 55
53 48 44
70 61 46
50 45 42
105 91 59
52 47 43
69 59 44
49 44 40
79 70 51
85 72 49
51 45 40
50 45 41
51 46 42
70 60 46
69 59 45
85 71 49
49 45 41
49 44 40
45 40 37
51 45 40
43 38 35
65 55 40
45 40 37
38 34 31
77 69 44
40 35 31
45 39 34
37 33 30
37 33 30
40 35 32
36 32 29
41 37 34
72 63 43
33 29 26
34 30 27
38 34 31
35 31 28
32 29 26
33 30 28
29 26 24
33 29 26
32 28 25
31 28 25
34 30 28
31 27 25
30 27 24
33 29 26
33 29 26
32 28 26
32 29 26
34 30 27
31 27 25
36 32 30
39 35 32
36 32 29
35 31 28
40 36 33
42 38 34
37 33 30
38 34 31
42 37 34
44 39 35
44 40 36
43 39 35
40 36 33
42 38 34
46 41 38
45 41 37
43 38 35
47 42 38
44 40 36
48 42 39
46 41 38
51 45 41
50 45 41
50 45 41
49 44 40
50 45 41
52 46 42
51 46 42
51 46 42
51 45 41
50 45 41
53 48 44
51 47 43
51 46 42
52 47 43
52 47 43
53 48 44
55 50 46
53 48 44
55 50 45
53 49 44
53 49 45
53 48 44
53 48 44
55 50 46
53 48 44
53 48 44
54 49 45
54 49 45
53 48 45
53 48 44
54 49 45
53 48 44
54 49 44
56 51 46
59 54 48
87 80 69
85 78 68
87 80 70
76 69 61
58 53 49
55 50 46
53 48 44
49 43 39
52 47 43
52 47 43
53 48 44
103 50 48
102 49 47
100 48 46
224 105 69
148 70 52
66 44 42
55 50 46
54 48 44
70 53 46
54 49 45
54 49 45
54 49 45
55 50 46
55 50 46
55 50 46
55 49 45
55 50 46
55 50 46
55 49 45
55 50 46
55 50 46
56 51 47
56 51 47
56 51 47
55 50 46
55 50 46
55 50 46
56 51 47
56 51 47
54 49 45
56 51 47
56 51 47
56 51 47
55 50 46
56 51 47
55 50 46
56 51 47
56 51 47
56 51 47
55 50 46
55 50 46
56 51 46
56 51 47
56 51 47
55 50 46
55 50 47
56 51 47
56 51 47
56 51 47
56 51 47
55 50 46
54 50 46
56 51 47
54 49 46
56 51 47
81 72 54
56 51 47
55 51 47
55 50 46
80 72 53
56 51 46
55 50 46
56 51 47
55 50 46
56 51 47
56 51 47
55 50 46
56 51 47
56 51 47
56 51 47
56 51 47
81 73 55
56 51 47
56 51 47
55 50 46
56 51 47
56 51 47
56 51 47
56 51 47
56 51 47
56 51 47
56 51 47
55 50 46
55 50 46
56 51 47
55 50 46
81 73 55
55 49 46
57 47 48
56 47 48
65 53 56
52 45 45
80 71 54
55 50 47
55 51 47
56 51 47
55 50 46
56 51 47
81 73 55
56 51 47
56 51 47
100 89 61
81 72 54
55 50 46
63 53 50
54 49 45
55 50 46
70 56 46
55 50 46
56 51 47
55 50 46
55 50 46
55 50 45
55 50 46
81 72 54
55 50 46
56 51 47
56 51 47
55 50 46
56 51 47
56 51 47
56 51 46
56 51 47
56 51 47
80 71 53
56 51 47
56 51 46
56 51 47
55 50 46
55 50 46
55 50 46
55 50 46
55 51 47
55 50 46
56 51 46
56 51 47
56 51 47
54 49 45
55 51 47
79 71 53
55 50 47
54 49 45
55 50 46
80 72 54
53 49 45
54 49 45
55 50 46
55 50 46
54 49 46
55 50 46
55 50 46
54 49 45
53 48 45
54 49 45
52 48 44
53 48 44
54 49 45
54 49 45
54 49 45
52 47 43
79 71 52
55 50 46
53 48 44
79 71 52
54 49 44
90 77 55
53 49 44
56 51 46
54 49 45
56 51 47
56 51 47
55 50 46
55 50 46
55 50 46
55 50 46
80 72 53
80 72 53
54 50 45
54 49 45
54 49 45
80 72 53
53 48 43
54 48 43
53 48 43
51 46 42
49 45 41
48 44 39
49 44 39
52 47 43
52 47 43
52 47 42
50 45 41
53 48 44
81 71 52
99 88 59
81 72 54
81 72 54
55 50 46
55 50 45
81 73 54
55 50 46
81 73 54
80 72 54
56 51 47
81 72 53
55 50 46
56 51 47
100 89 61
81 72 54
55 50 46
55 50 46
56 51 46
73 64 50
56 51 47
56 51 47
56 51 47
55 50 46
55 51 46
56 51 46
55 50 46
56 51 47
55 50 46
55 50 46
55 50 46
56 51 47
55 50 46
56 51 47
56 51 47
81 72 54
55 50 46
81 72 54
56 51 47
55 50 46
55 50 46
56 51 47
81 72 54
54 49 45
81 72 54
81 72 53
55 49 45
99 88 60
76 62 50
55 50 46
54 47 43
69 49 37
168 118 75
113 85 76
120 89 78
124 93 80
128 95 81
130 97 82
131 97 83
130 97 82
129 96 82
125 93 80
120 89 77
79 57 48
30 21 17
45 35 32
53 48 44
56 51 47
54 49 45
55 50 46
55 50 46
58 52 46
53 48 43
54 49 45
54 49 45
76 62 50
54 48 44
53 48 44
55 50 46
53 48 44
56 50 45
80 71 53
105 90 58
73 63 48
55 50 46
79 71 52
54 49 45
72 62 47
79 70 52
80 72 53
72 62 47
60 58 45
70 60 45
48 43 40
71 61 46
53 47 42
51 46 42
91 79 53
51 46 41
50 45 41
50 45 40
49 44 41
53 48 42
68 58 43
69 59 44
48 43 40
68 59 44
67 57 42
75 67 47
46 41 37
77 68 48
50 45 41
66 56 41
43 39 35
39 35 31
73 64 44
43 38 35
73 65 45
38 34 31
43 38 35
41 37 34
38 33 30
39 34 30
40 36 32
36 32 29
39 35 32
33 29 26
34 30 27
36 32 29
43 33 30
31 27 24
34 30 28
34 30 27
39 35 32
38 34 31
40 36 33
43 31 28
40 36 32
36 34 28
35 31 28
35 31 28
41 37 34
39 34 31
36 32 29
36 31 28
43 39 36
42 38 34
41 36 33
42 37 34
45 40 37
42 38 34
45 40 36
44 39 35
45 40 37
47 42 38
45 41 37
48 43 39
46 41 37
51 46 42
48 43 39
48 43 39
49 44 40
51 46 41
47 42 38
50 45 41
51 46 42
52 47 42
52 46 42
49 44 40
53 47 43
51 46 42
53 48 44
54 49 44
51 45 41
54 49 45
52 48 44
52 47 43
54 49 45
56 51 47
53 48 44
55 49 45
53 48 44
55 50 45
54 49 45
55 50 46
52 47 43
54 49 45
52 47 43
55 50 46
54 49 46
54 49 45
54 48 45
54 49 45
55 50 46
54 49 45
53 48 44
55 50 46
54 50 46
54 49 45
52 48 44
55 50 46
54 49 45
53 48 44
51 46 42
50 45 40
53 48 44
52 47 44
100 48 46
156 74 57
192 91 63
148 70 52
142 67 49
130 69 50
70 52 46
56 49 45
56 50 46
54 49 45
69 52 46
55 50 46
55 51 46
54 49 45
54 49 45
56 51 47
71 54 48
55 50 46
56 51 47
55 50 46
55 50 46
56 51 47
55 50 46
56 51 47
55 50 46
56 51 47
56 51 47
56 51 47
56 50 46
56 51 47
56 51 47
56 51 47
56 51 47
56 51 47
56 51 46
56 51 47
56 51 46
60 53 48
55 50 46
55 50 46
55 50 46
56 51 47
54 49 45
56 51 47
55 51 47
56 51 47
81 72 54
56 51 47
56 51 47
56 51 47
55 51 46
56 51 47
56 51 47
57 52 47
56 51 47
56 51 47
56 51 47
55 51 46
56 51 47
55 50 46
81 72 54
56 51 47
56 51 47
56 51 47
55 51 46
56 51 47
55 50 46
56 51 47
56 51 47
55 50 46
81 73 55
55 50 46
56 51 47
56 51 47
56 50 47
56 51 47
56 51 47
55 50 46
56 51 47
56 51 47
56 51 47
56 51 47
56 51 47
55 51 47
56 51 47
58 49 50
73 57 65
95 72 83
107 80 92
104 73 79
147 88 76
105 75 85
131 77 67
80 62 58
56 51 47
55 50 47
54 49 46
55 50 46
56 51 47
69 63 47
55 50 46
81 73 55
56 51 47
55 50 46
55 50 46
55 50 46
55 50 46
80 71 53
81 72 54
56 51 46
56 51 47
56 51 47
81 73 55
56 51 46
56 51 47
56 51 47
56 51 47
81 73 55
81 73 55
81 72 54
56 51 47
55 51 47
56 51 47
56 51 46
56 51 47
56 51 47
80 72 53
55 50 46
56 51 47
56 51 47
57 52 47
55 50 46
81 72 54
55 50 46
81 72 54
55 50 46
56 51 47
100 89 60
55 50 46
55 50 46
130 115 72
100 89 61
99 88 60
130 115 73
81 72 54
100 89 61
54 49 46
80 72 54
80 72 54
54 50 46
54 50 46
52 48 44
53 49 45
54 49 45
55 51 47
54 49 45
53 49 45
53 49 45
52 48 44
54 49 45
55 50 46
56 51 46
55 50 46
54 49 45
55 50 46
55 50 46
55 50 46
100 89 60
99 89 60
55 50 45
54 49 45
55 50 46
54 49 45
55 50 46
123 107 68
55 50 46
55 50 45
55 50 45
80 72 53
53 48 44
55 50 46
53 48 43
53 48 44
52 47 43
54 49 45
52 47 43
52 47 42
53 48 43
53 48 43
53 48 43
52 47 43
55 50 45
51 46 42
54 49 45
53 48 43
55 50 45
54 49 45
81 72 54
56 51 46
55 50 46
55 50 46
100 89 61
56 51 47
55 50 45
55 50 45
100 89 61
56 51 46
55 50 46
55 50 46
56 51 47
56 51 47
55 50 46
81 72 54
56 51 46
56 51 47
55 50 46
68 53 48
56 51 47
55 51 46
81 72 54
80 72 53
54 49 45
54 49 45
56 51 47
81 72 54
56 51 47
56 51 47
56 50 46
56 51 47
55 50 46
56 51 47
81 72 54
81 72 54
81 72 54
56 51 47
56 51 47
55 50 46
54 49 45
80 72 53
81 72 54
55 50 46
79 71 52
54 48 45
78 69 50
72 52 40
67 49 43
108 81 73
115 87 77
120 90 78
124 92 80
126 94 81
127 95 81
126 94 81
125 93 80
121 91 79
118 88 77
107 81 72
61 43 39
46 34 32
53 48 44
55 50 45
54 49 45
80 72 53
94 82 56
54 49 45
55 49 45
55 50 46
54 49 44
54 49 45
81 72 54
55 50 46
53 48 44
54 49 45
54 49 45
55 50 45
54 49 45
99 87 59
73 63 49
55 50 46
54 49 45
55 50 45
54 49 45
51 46 42
53 48 44
53 48 44
80 71 53
50 45 41
51 46 42
71 61 47
53 47 43
53 48 43
52 47 43
72 62 47
71 61 46
71 61 46
77 69 50
76 68 49
48 43 40
67 57 42
50 45 41
47 42 38
69 59 44
47 42 38
43 38 35
46 41 37
74 66 47
66 56 41
67 56 40
42 38 34
44 39 34
42 38 35
44 39 36
45 36 32
43 38 32
40 36 32
40 35 32
41 36 33
36 32 29
43 38 33
35 31 28
40 36 32
36 32 29
71 62 42
41 36 30
37 32 29
39 34 29
39 35 32
38 34 31
42 37 34
40 35 32
40 35 32
38 33 30
38 34 31
41 37 33
36 32 29
38 34 30
43 38 35
40 35 32
43 38 35
42 38 34
39 35 32
46 41 38
47 41 38
42 37 33
42 38 35
52 42 38
47 43 39
47 42 38
47 42 39
46 41 37
47 42 38
47 41 38
47 42 39
48 43 39
50 45 41
51 46 42
50 45 41
52 47 43
50 45 41
51 46 42
52 47 43
49 44 40
51 46 42
50 45 41
53 48 43
54 49 45
53 48 43
53 48 44
53 48 44
55 50 45
53 48 44
54 49 45
55 50 46
53 48 45
55 50 46
55 50 46
53 48 44
53 49 45
52 47 44
53 48 44
52 47 43
54 49 45
52 47 43
55 50 46
53 48 44
52 47 43
53 49 45
53 49 45
53 48 44
55 50 46
52 47 44
54 50 46
54 49 45
53 48 44
54 50 46
52 48 44
53 47 43
51 46 42
52 47 43
52 47 43
156 74 57
148 70 52
149 70 53
87 42 40
182 86 56
69 40 38
52 47 43
52 47 44
52 47 43
52 47 43
55 50 46
54 49 45
66 52 46
55 50 46
55 50 46
55 51 46
54 49 45
56 51 47
55 50 46
56 51 46
55 50 46
56 51 46
56 51 47
56 51 47
55 50 46
56 51 47
56 51 47
55 50 46
56 50 46
55 50 46
56 51 47
56 51 47
56 51 47
56 51 47
56 51 47
56 51 47
56 51 47
55 50 46
55 51 47
56 51 47
55 51 47
56 51 47
56 51 47
54 50 46
56 51 47
56 51 47
54 50 46
56 51 47
56 51 47
55 50 46
56 51 47
56 51 46
81 72 54
56 51 47
56 51 47
56 51 47
55 50 46
56 51 47
56 51 47
55 50 46
55 50 46
55 51 46
56 51 47
56 51 47
56 51 47
56 51 47
81 73 55
56 51 47
56 51 47
55 50 46
56 51 47
79 71 53
56 51 47
56 51 47
56 51 47
56 51 46
56 51 47
56 51 47
56 51 47
56 51 47
55 50 46
81 73 55
55 50 47
56 51 47
57 49 49
89 68 79
118 89 102
125 94 105
128 96 106
128 96 107
128 96 107
124 93 105
118 89 102
97 73 85
207 150 107
55 49 47
81 72 54
77 63 54
56 51 47
56 51 47
81 72 54
56 51 47
56 51 47
81 72 54
56 51 47
56 51 47
55 50 46
55 50 46
55 50 46
56 51 47
55 50 46
56 51 47
56 51 47
82 73 54
56 51 47
56 51 47
56 51 47
81 73 55
56 51 47
56 51 47
56 51 47
56 51 47
55 50 46
56 51 47
81 72 54
56 51 47
56 51 46
55 50 46
55 51 47
55 51 46
56 51 47
81 72 54
55 50 46
56 51 46
55 51 47
56 51 47
55 50 45
56 51 47
100 89 61
100 89 61
100 89 61
116 103 67
100 89 61
55 50 47
118 104 67
115 103 67
80 71 53
54 49 45
55 50 46
55 50 46
54 50 46
55 51 47
55 50 47
55 50 46
54 49 45
55 50 46
56 51 47
55 50 46
53 48 44
80 72 54
56 51 46
53 49 45
54 49 45
80 72 53
80 71 53
55 50 46
81 72 54
55 50 45
54 49 45
56 50 46
80 72 53
56 51 46
55 50 45
81 73 55
69 57 47
98 82 57
131 99 58
82 64 49
74 60 49
72 60 48
56 51 46
55 50 45
53 48 44
55 50 45
54 49 45
51 46 42
54 49 45
72 62 47
55 49 45
54 49 45
53 48 44
53 48 44
53 48 44
55 50 45
80 71 52
55 50 46
55 50 46
55 50 46
56 51 46
55 50 46
81 72 54
55 50 46
81 73 54
81 73 55
56 51 47
81 72 54
56 51 47
56 51 47
56 51 47
81 72 54
56 51 47
100 89 61
100 89 61
81 72 54
55 50 46
55 51 47
81 73 54
80 72 54
56 51 47
55 50 46
56 51 46
56 51 47
55 50 46
56 51 46
56 51 47
55 50 46
54 49 45
81 72 54
56 50 46
56 51 47
56 51 47
56 51 47
55 50 46
56 50 46
55 50 46
81 72 54
107 90 60
80 72 53
54 48 44
56 51 47
81 72 54
80 71 53
54 49 45
50 43 40
50 37 34
71 52 39
76 54 49
91 68 61
114 85 76
118 89 78
120 90 79
121 90 79
121 90 79
119 89 78
117 87 77
106 79 71
84 60 55
41 30 28
47 34 32
50 45 41
53 48 44
53 48 44
55 50 46
55 50 46
55 49 45
79 71 52
52 47 43
73 64 49
56 50 46
54 49 45
55 49 45
74 64 48
73 64 49
79 71 52
73 63 49
72 63 48
54 49 45
55 50 45
55 50 46
54 49 45
53 48 44
71 61 47
53 48 44
53 48 44
51 46 42
52 47 43
54 49 45
52 47 43
51 46 42
71 62 47
51 46 42
52 47 43
52 47 43
50 45 41
49 45 41
50 45 41
49 44 40
50 45 41
48 43 39
48 43 40
46 42 38
77 68 49
46 41 37
89 77 51
87 75 48
44 39 36
45 40 36
47 42 38
44 39 36
43 39 35
43 38 35
43 38 35
42 37 34
43 39 35
41 37 33
42 37 34
38 34 31
40 36 33
40 35 32
40 36 33
39 35 31
71 63 43
42 38 35
40 36 33
38 34 30
41 36 33
38 33 30
38 33 30
47 35 31
38 34 31
39 35 32
39 35 32
41 36 33
39 35 32
39 35 32
40 35 32
43 39 35
41 36 33
41 37 33
41 36 33
46 41 38
46 41 38
45 40 37
45 40 36
45 40 37
49 44 40
44 39 36
44 39 36
48 43 39
48 43 39
48 43 39
50 45 41
49 44 40
50 45 41
46 41 38
52 47 42
51 46 42
52 47 43
52 47 43
50 45 41
49 44 40
51 46 42
52 47 43
54 49 44
52 47 43
54 49 45
51 46 42
53 48 44
53 48 44
52 47 43
53 48 44
54 49 45
55 50 46
55 50 46
52 47 43
53 48 44
54 49 45
52 47 43
54 49 45
55 50 46
53 48 44
55 50 46
54 49 45
54 49 45
54 49 45
53 48 44
52 47 44
53 48 44
53 48 45
54 49 45
53 48 44
53 48 44
54 49 46
54 50 46
53 49 45
54 49 45
54 50 46
51 46 42
51 46 42
54 49 45
92 45 43
89 43 42
87 42 41
147 69 49
183 86 57
131 67 47
49 44 41
70 52 46
51 46 42
51 46 42
52 47 43
83 56 47
56 51 46
55 50 46
56 51 47
55 50 46
55 50 46
56 51 47
55 51 46
55 50 46
55 50 46
55 50 46
56 51 47
55 50 46
55 50 46
56 51 47
56 51 47
56 51 47
56 51 47
56 51 47
56 51 47
55 50 46
56 51 47
56 51 47
55 50 46
56 51 47
56 51 47
56 51 47
55 50 46
56 51 47
56 51 47
81 73 54
56 51 47
56 51 47
55 50 46
56 51 47
56 51 47
55 50 46
56 51 47
55 50 46
64 59 48
55 50 46
56 51 47
56 51 47
56 51 47
56 51 47
55 50 46
56 51 47
56 51 47
56 51 47
55 50 46
81 73 55
55 50 46
56 51 47
55 50 46
81 72 54
55 51 46
81 72 54
56 51 47
56 51 47
56 51 47
56 51 47
55 50 46
55 50 46
56 51 47
55 50 46
56 51 47
55 50 47
56 51 47
56 51 47
56 51 47
56 51 47
56 51 47
53 46 46
89 69 79
121 91 103
127 95 106
132 99 109
134 100 110
134 100 110
133 99 109
131 98 108
126 94 106
255 255 255
255 255 255
165 120 92
81 72 54
55 50 46
55 50 46
56 51 47
56 51 47
56 51 47
55 50 46
55 50 46
56 51 47
81 72 54
56 51 47
56 51 47
56 51 46
56 51 47
55 50 46
56 51 46
55 50 46
55 51 46
56 51 47
55 50 46
55 50 46
56 51 47
55 50 46
81 72 54
56 51 47
55 50 46
81 73 55
56 51 47
56 51 47
56 51 47
55 50 47
56 51 47
56 51 47
100 89 61
56 51 47
81 72 54
55 50 47
81 73 55
56 51 47
56 51 47
56 51 47
55 50 46
81 72 54
100 89 60
116 103 67
99 88 60
116 103 67
132 117 73
102 91 62
116 103 67
56 51 47
81 73 54
99 88 60
54 50 46
54 49 45
55 50 46
54 50 46
80 72 54
52 47 44
55 50 46
57 51 45
55 50 46
54 50 46
53 48 44
55 51 47
56 51 47
55 51 46
82 73 54
78 70 52
55 50 46
56 51 46
55 50 46
81 72 54
55 50 46
55 50 46
80 71 52
71 58 48
94 72 52
144 107 62
144 107 62
100 75 54
99 75 53
100 76 54
187 141 74
83 64 49
57 51 46
55 50 46
55 50 46
54 49 44
54 49 44
54 49 45
55 50 46
54 49 45
55 50 46
53 48 44
54 49 45
56 51 47
81 72 53
81 73 54
54 49 45
55 50 46
100 89 61
55 50 46
56 51 47
81 72 54
56 51 46
81 73 54
55 50 46
55 50 46
56 51 47
56 51 46
56 51 46
55 50 46
100 89 61
100 89 61
56 51 47
54 49 45
55 50 46
56 51 47
55 50 46
56 51 47
56 51 47
55 50 46
55 50 46
55 50 46
56 51 47
56 51 47
56 51 47
81 72 54
55 49 45
60 53 48
61 55 49
146 103 69
55 50 46
55 50 46
100 89 61
54 49 45
54 49 45
77 63 51
81 73 55
81 73 55
56 51 46
79 70 52
55 50 46
80 72 53
80 71 53
108 88 59
73 59 46
49 36 34
52 38 35
67 52 45
59 44 40
94 68 59
124 80 73
114 85 76
114 86 76
114 86 76
112 84 75
107 80 70
80 62 52
202 146 81
69 50 37
77 64 45
59 53 43
51 45 41
52 47 43
55 50 46
74 64 50
55 49 45
54 48 44
55 50 46
55 50 46
80 71 53
81 72 54
55 50 46
99 88 60
81 72 54
73 64 49
52 47 43
80 72 53
52 47 43
55 50 45
53 48 44
101 81 54
79 71 52
93 81 56
54 49 45
53 48 44
79 71 52
78 70 51
67 55 45
72 62 48
78 70 51
53 48 43
71 62 47
53 48 43
51 46 42
69 59 45
51 46 42
50 45 41
50 45 41
47 42 38
48 43 39
97 86 57
50 45 41
77 68 49
67 57 42
46 42 38
44 40 36
44 39 36
68 58 43
66 56 41
45 40 36
75 67 47
46 41 37
42 38 35
75 66 47
43 38 35
39 35 32
45 40 37
71 62 42
38 33 30
43 39 35
74 65 46
44 39 36
43 39 36
39 34 31
42 37 34
41 36 33
40 36 33
40 35 32
42 37 34
43 38 35
36 31 28
42 37 34
44 31 29
51 25 26
55 25 26
60 23 26
58 20 24
57 28 29
50 39 36
45 39 35
47 43 39
37 32 29
45 41 37
47 41 37
49 45 41
48 43 39
46 41 37
47 42 38
47 42 38
50 45 41
49 44 40
50 45 41
49 45 41
48 43 39
51 46 42
49 44 40
52 47 43
65 57 46
51 46 42
50 45 41
52 46 42
51 46 42
53 47 43
52 47 43
50 45 41
54 48 44
52 47 43
52 47 43
53 47 43
54 48 44
53 49 44
54 49 45
54 49 45
54 49 45
55 49 45
55 50 46
54 49 45
52 47 43
52 47 44
54 49 45
54 49 45
53 49 45
54 49 45
53 48 44
55 50 46
52 48 44
54 49 45
53 49 45
52 47 44
53 48 45
53 48 45
53 48 45
52 48 44
55 50 46
54 49 45
54 50 46
54 50 46
54 49 45
54 49 45
50 46 43
53 49 45
89 43 42
79 38 37
83 40 40
73 35 34
74 35 35
57 39 37
47 42 39
64 45 39
50 45 42
53 48 44
69 52 45
51 46 42
55 50 46
56 50 46
56 51 47
54 49 45
55 50 46
56 51 46
56 51 47
70 53 47
71 54 47
56 51 47
56 51 47
56 51 47
56 51 47
56 51 47
55 50 46
56 51 47
56 51 47
56 51 47
56 51 47
56 51 47
56 51 47
56 51 47
56 51 47
56 51 47
56 51 47
56 51 47
56 51 47
56 51 47
54 49 45
56 51 47
56 51 47
56 51 47
56 51 47
56 51 47
56 51 47
56 51 47
56 51 47
55 50 46
55 50 46
81 73 54
56 51 47
56 51 47
55 51 47
55 50 46
56 51 47
56 51 47
55 50 46
56 51 47
56 51 47
55 51 47
56 51 47
56 51 47
55 50 46
55 51 46
56 51 47
56 51 47
56 51 47
55 50 46
56 51 46
56 51 47
56 51 47
56 51 47
56 51 47
56 51 47
56 51 47
56 51 47
55 50 46
56 51 47
56 51 47
56 51 47
54 49 46
66 46 52
116 87 99
125 94 105
131 98 108
135 101 110
137 102 111
137 102 111
136 101 111
133 100 109
129 97 107
185 136 123
255 255 255
255 255 255
52 44 45
77 64 54
55 50 46
55 50 46
55 50 46
60 54 48
56 51 47
100 89 61
72 58 47
56 51 47
56 51 47
55 51 47
56 51 47
55 50 46
56 51 47
55 51 46
55 50 46
55 50 46
55 50 46
55 50 46
56 51 47
56 51 47
55 50 46
56 51 47
81 73 55
56 51 47
56 51 47
55 50 46
56 51 47
56 51 47
80 72 54
81 73 55
56 51 47
81 73 55
55 50 46
56 51 47
55 51 46
55 50 46
56 51 47
55 50 46
55 50 46
116 103 67
56 51 47
81 73 55
55 50 46
100 89 61
154 137 83
143 126 78
100 89 61
56 51 47
81 72 54
80 72 54
56 51 47
55 50 46
55 50 46
56 51 47
55 50 46
55 50 46
55 50 46
55 50 46
54 49 45
54 50 45
55 50 46
55 51 47
55 50 46
56 51 47
55 50 46
80 72 53
79 71 52
80 72 53
55 50 46
56 51 47
55 50 46
54 49 45
80 72 54
141 110 64
98 74 53
98 74 53
99 75 53
145 108 62
100 76 54
99 75 53
99 75 53
99 75 53
143 106 61
85 65 47
111 81 51
56 51 47
55 50 46
55 50 45
68 57 47
55 50 45
67 57 46
54 49 45
55 50 46
55 50 46
80 71 53
55 50 46
55 50 46
56 51 46
81 72 54
81 72 54
55 50 46
56 51 47
81 72 54
81 72 54
81 72 54
56 51 47
56 51 47
81 72 54
56 51 47
81 72 54
81 73 54
55 50 46
81 72 54
56 51 46
81 73 54
81 72 54
56 51 47
56 51 47
56 51 46
55 50 46
81 72 54
56 51 47
56 51 47
55 50 46
55 50 46
57 52 47
53 46 42
255 239 125
235 207 113
233 206 112
57 52 47
89 79 60
59 54 49
58 52 48
56 51 47
55 50 46
55 50 46
56 51 47
81 72 54
56 51 47
55 50 46
53 47 43
54 49 45
74 60 47
52 47 43
52 46 43
49 37 34
48 36 33
78 58 52
110 72 66
163 97 39
56 31 31
78 58 52
128 78 54
136 93 57
74 54 50
62 44 38
75 56 48
84 61 50
46 34 32
71 53 41
53 48 44
54 49 45
77 62 49
55 50 45
53 48 44
80 71 53
95 82 56
54 49 45
55 50 46
56 51 46
53 48 44
74 64 49
55 49 45
73 63 49
81 72 54
73 63 49
99 88 60
80 71 52
98 87 59
79 71 52
53 48 44
53 48 44
53 48 44
53 48 44
54 49 45
54 49 45
51 46 41
71 61 46
53 48 44
53 47 43
52 47 43
52 47 43
53 48 44
51 46 42
50 46 41
50 45 41
51 47 43
87 73 51
49 44 40
78 69 51
77 69 50
48 43 40
48 43 39
49 44 41
49 44 40
46 42 38
48 42 38
74 66 46
45 40 36
48 43 39
67 57 42
47 42 38
43 38 35
45 40 37
41 37 34
43 39 35
47 43 39
47 42 36
45 41 37
41 36 33
42 37 34
43 39 35
44 39 35
45 40 37
43 39 35
52 40 37
40 35 31
42 37 34
39 35 32
40 35 32
41 32 29
53 21 23
60 21 25
94 32 31
63 22 27
66 23 28
63 22 26
64 22 27
64 22 27
61 26 29
52 39 36
45 41 37
44 39 35
48 43 39
44 40 36
49 45 41
48 43 39
49 44 40
48 43 39
50 45 40
51 46 42
50 45 41
48 43 39
47 42 38
49 45 41
51 46 43
51 46 42
50 45 41
47 42 39
51 46 42
52 47 43
50 45 41
52 47 43
51 46 42
53 48 44
53 48 44
53 48 44
53 48 44
53 48 44
53 48 44
54 48 44
54 49 45
54 49 44
53 47 43
53 48 44
54 49 45
55 50 45
54 49 45
54 49 45
54 49 44
55 50 46
56 51 46
54 49 45
54 49 45
54 49 45
55 50 46
54 49 45
53 48 44
54 49 45
55 50 46
53 48 44
56 51 47
52 48 44
55 50 46
54 49 45
53 48 45
54 49 45
52 48 44
54 49 45
53 48 45
52 48 44
91 44 43
79 38 37
74 35 35
79 38 37
129 61 40
126 68 48
47 42 39
50 45 41
48 44 40
51 46 42
53 48 44
54 49 45
53 48 45
55 50 46
55 49 45
55 50 45
55 50 46
55 50 46
56 51 47
56 51 47
55 50 46
56 51 47
56 51 46
56 51 47
55 50 46
56 51 47
56 51 47
56 51 47
55 50 46
56 51 47
55 50 46
56 51 47
56 50 46
56 50 46
56 51 47
56 51 47
81 73 55
56 51 47
56 51 47
55 50 46
56 51 47
56 51 47
56 51 47
55 50 46
55 51 46
56 51 47
56 51 47
55 51 46
55 50 46
56 51 47
55 50 46
55 50 46
56 51 47
56 51 47
56 51 47
56 51 47
55 50 46
56 51 47
56 51 47
56 51 47
56 51 47
55 50 46
56 51 47
56 51 47
55 50 46
56 51 47
56 51 47
56 51 47
56 51 47
56 51 47
55 50 46
56 51 47
56 51 47
56 51 47
56 50 47
55 50 46
56 51 47
55 50 46
55 50 46
55 50 46
55 50 46
56 51 47
51 39 42
96 72 82
120 90 103
127 95 106
132 99 109
136 101 111
137 102 111
137 102 112
136 102 111
133 100 109
130 97 108
124 93 105
182 134 120
255 255 202
51 38 46
59 52 48
55 49 46
55 49 46
56 51 47
55 50 46
77 64 54
55 50 46
54 49 46
56 51 47
55 50 47
56 51 47
80 72 54
56 51 47
56 51 47
56 51 47
56 51 47
56 51 47
55 50 46
84 75 55
55 50 46
55 50 47
81 73 55
56 51 47
56 51 47
56 51 47
56 51 47
56 51 47
55 51 46
81 73 54
56 51 47
55 51 46
56 51 47
100 89 61
56 51 47
56 51 47
55 50 46
55 50 46
55 51 46
55 50 46
81 72 54
56 51 47
116 103 67
81 72 54
143 127 78
116 103 67
56 51 47
81 72 54
81 73 55
121 104 68
130 116 73
56 51 47
81 72 54
55 50 46
54 49 45
55 50 45
71 57 47
55 50 46
55 50 46
55 50 46
55 50 46
55 50 46
54 49 45
55 51 46
81 73 55
56 51 46
57 51 47
81 72 54
55 50 46
81 72 54
56 51 46
81 72 54
100 89 61
55 50 46
69 57 47
94 71 51
97 73 52
99 75 53
99 75 53
100 75 54
100 76 54
98 74 53
99 75 53
97 73 52
97 73 52
94 71 51
135 100 57
55 50 45
54 49 45
56 51 46
55 50 45
56 51 47
55 50 46
55 50 46
56 51 46
56 51 46
81 72 54
56 51 47
55 50 46
56 51 46
56 51 47
56 51 47
56 51 47
55 50 46
55 50 46
81 72 54
55 50 46
56 50 46
80 72 54
81 72 54
81 72 54
81 73 55
56 51 47
56 50 46
55 50 46
56 51 47
55 50 46
56 51 47
81 72 54
80 72 54
55 50 46
81 72 54
56 51 47
56 51 47
55 50 46
56 51 47
55 50 46
175 153 86
167 148 86
62 57 52
66 61 54
68 62 55
88 79 60
74 61 49
77 66 51
69 59 52
117 104 68
55 50 46
99 88 60
56 51 47
81 72 54
81 72 54
100 89 60
54 49 45
93 78 54
53 47 44
78 69 50
97 86 57
73 63 43
46 33 31
52 38 36
51 38 35
70 51 38
48 35 33
48 36 33
50 35 27
142 92 40
51 38 35
47 35 32
52 39 36
47 34 32
51 37 33
78 69 50
92 80 54
98 87 58
51 46 42
90 73 53
90 73 53
73 64 49
55 49 45
81 72 54
54 49 45
73 63 49
55 50 45
54 49 45
72 63 48
55 50 45
55 50 45
53 48 44
56 51 46
55 50 45
54 49 45
54 49 44
53 48 44
53 48 44
73 63 48
54 49 45
55 50 46
53 48 44
72 63 48
53 48 44
71 61 47
52 47 43
53 48 44
71 61 47
51 46 42
52 46 42
52 47 43
49 44 40
47 42 38
53 47 41
63 51 42
51 46 42
50 45 41
52 46 41
49 44 40
49 45 41
48 43 39
49 43 37
69 60 44
45 40 36
47 42 38
47 42 39
49 44 40
49 43 39
47 42 38
52 40 36
46 41 38
49 43 37
44 39 36
45 40 36
40 36 33
40 36 33
41 37 33
44 40 37
44 39 33
47 37 33
42 37 34
41 37 34
44 39 36
44 39 36
42 38 35
49 41 34
91 31 29
97 33 31
63 22 27
64 22 27
64 22 27
66 23 28
67 23 28
66 23 28
67 23 28
65 23 28
64 22 27
54 33 32
46 41 37
49 44 40
48 43 39
48 42 38
48 43 39
50 45 41
49 44 40
47 42 38
50 45 41
50 46 42
52 47 43
49 44 40
50 45 41
52 46 42
52 47 43
51 46 42
53 48 44
52 47 43
51 47 43
50 45 41
51 46 42
50 45 41
53 48 44
52 47 43
53 48 44
52 47 43
53 48 44
53 48 44
52 47 43
53 48 44
54 48 44
53 48 44
53 48 44
52 47 43
52 47 43
54 49 45
58 54 45
56 52 44
55 50 46
54 49 45
53 49 45
55 50 46
54 49 45
53 48 44
56 50 46
55 50 45
54 49 45
54 49 45
55 50 46
54 50 45
55 49 45
54 49 45
55 50 46
53 49 45
55 50 46
52 48 44
52 47 44
52 47 44
53 49 45
88 43 42
71 34 33
76 37 36
59 29 29
44 30 29
42 38 35
66 48 42
48 42 39
50 45 42
68 50 44
52 47 43
51 46 42
53 48 44
55 49 45
55 49 45
54 49 45
55 50 46
56 51 47
55 50 46
55 50 46
54 50 46
55 50 46
55 50 46
55 50 46
55 50 46
56 51 47
56 51 47
56 51 46
56 51 47
56 51 47
56 51 47
56 51 47
81 72 54
56 51 47
56 51 47
55 50 46
56 51 47
55 50 46
56 51 47
73 56 47
56 51 47
55 51 46
54 50 46
55 51 47
56 51 47
56 51 47
54 50 46
56 51 47
56 51 47
56 51 47
56 51 47
56 51 47
55 50 46
56 51 47
81 72 54
55 50 46
56 51 47
56 51 47
56 51 47
55 50 46
56 51 47
56 51 47
81 73 55
56 51 47
56 51 47
56 51 47
56 51 47
55 51 46
56 51 47
56 51 47
56 51 47
56 51 47
56 51 47
56 51 47
55 50 46
55 50 46
57 52 47
55 50 46
56 51 47
56 51 47
54 49 45
55 50 46
48 36 44
99 75 87
120 91 103
127 95 106
131 98 108
134 100 110
136 101 111
135 101 111
134 100 110
132 99 109
128 96 107
122 92 104
230 158 122
74 53 51
50 37 45
52 45 45
55 49 46
55 50 46
55 50 47
55 50 46
56 51 47
55 50 46
55 50 47
55 50 46
81 73 55
57 52 47
56 51 47
56 51 47
56 51 47
56 51 47
81 72 54
56 51 47
100 89 61
56 51 47
56 51 47
55 50 46
56 51 47
56 51 47
55 50 47
55 50 46
56 51 47
56 51 47
56 51 47
56 51 46
56 51 47
56 51 47
56 51 47
56 51 47
56 51 47
56 51 46
56 51 47
55 51 46
55 51 46
100 89 61
56 51 47
100 89 61
100 89 61
56 51 47
116 103 67
81 72 54
100 89 61
100 89 61
130 115 72
81 72 54
80 72 54
84 75 55
56 51 47
56 51 47
58 53 46
56 51 47
55 50 46
55 51 46
55 50 46
55 50 46
81 73 54
55 50 46
55 50 46
55 50 46
54 49 45
56 51 47
55 51 46
101 89 61
55 50 46
55 50 46
55 50 46
81 72 54
55 50 46
83 73 53
88 67 48
96 73 52
97 74 52
99 75 53
99 75 53
99 75 53
99 75 53
98 74 53
98 74 53
97 73 52
97 73 52
93 70 50
90 67 48
82 63 47
54 49 45
55 50 46
53 48 44
68 58 47
56 51 46
55 50 46
56 51 47
56 51 47
56 51 47
56 51 47
56 51 47
56 51 47
55 50 46
81 73 54
100 89 61
56 51 47
56 51 47
55 50 46
56 51 47
56 51 47
56 51 47
56 51 47
56 51 47
81 72 54
56 51 47
56 51 47
81 72 54
56 51 47
55 50 46
56 51 47
55 50 46
56 51 47
55 51 47
55 50 46
56 51 47
56 51 47
55 50 46
57 52 47
81 71 53
62 57 51
82 74 55
74 68 60
69 63 56
88 79 60
70 64 57
100 89 60
58 53 47
54 48 43
64 59 53
62 56 50
54 49 45
55 50 46
54 49 45
81 72 54
55 50 46
79 71 52
80 70 52
78 69 50
73 59 46
49 43 40
71 56 42
98 68 45
50 36 33
48 35 33
49 36 34
72 52 40
49 36 34
49 36 34
50 37 34
47 35 33
49 36 34
48 35 33
48 35 33
46 36 34
48 43 39
51 46 42
47 41 37
80 71 53
55 48 43
52 47 43
53 48 44
54 48 44
54 49 45
56 50 45
54 48 44
54 49 45
55 49 45
53 48 43
72 63 48
54 49 45
52 48 43
56 51 46
54 49 45
53 48 44
53 49 45
53 48 44
96 102 48
53 48 43
62 56 51
67 62 55
73 65 49
55 50 46
56 50 45
53 49 45
51 46 42
79 70 51
56 51 45
79 70 52
52 47 43
51 45 41
52 47 42
92 80 54
51 46 42
52 47 43
50 45 41
51 46 42
48 44 40
49 44 40
49 44 41
77 69 49
52 47 43
70 60 46
47 42 38
50 45 41
85 72 48
49 44 40
54 44 40
51 46 42
44 39 36
46 41 37
45 40 37
43 38 34
74 65 46
45 40 36
45 41 37
45 40 36
45 40 37
43 38 35
67 57 41
41 36 33
52 41 37
57 39 35
43 38 35
86 47 41
90 34 31
93 32 30
62 22 26
65 23 28
65 23 28
66 23 28
66 23 28
66 23 28
68 24 29
68 24 29
67 24 29
65 23 27
63 23 27
49 37 35
47 42 38
47 42 39
49 44 40
49 44 40
47 42 39
48 43 40
48 43 40
53 48 44
49 44 40
47 42 39
52 47 43
51 46 42
52 47 43
50 45 40
51 45 41
53 48 43
53 48 44
50 45 41
54 49 44
51 46 42
52 47 42
54 49 45
53 47 43
54 49 45
54 49 45
53 48 43
54 49 44
54 49 45
54 49 45
54 49 44
52 47 43
53 48 42
62 60 42
72 72 37
75 77 37
81 83 39
83 85 40
81 83 40
68 67 43
61 58 44
55 50 46
54 49 45
54 49 45
54 49 45
55 50 46
55 50 45
55 50 46
54 49 44
52 48 44
54 49 45
55 50 46
55 50 46
53 48 45
53 49 45
51 46 43
53 48 45
51 46 42
54 49 45
69 33 33
62 29 29
67 31 28
44 24 24
36 30 28
44 39 36
39 34 32
46 40 37
46 41 38
50 45 42
50 45 41
52 47 43
54 49 45
54 49 45
71 54 48
55 50 46
53 48 44
55 50 46
56 51 46
56 51 47
56 51 47
56 51 47
56 51 47
56 51 47
56 51 47
56 51 46
55 50 46
56 51 47
55 51 46
55 50 46
56 50 46
55 50 46
56 51 47
56 51 47
56 51 47
55 50 46
55 50 46
56 51 47
56 51 47
56 51 47
56 51 47
55 51 46
56 51 47
56 51 47
55 50 46
56 51 47
56 51 47
55 50 46
56 51 47
56 51 47
55 50 46
56 51 47
56 51 47
56 51 47
56 51 47
54 50 46
55 51 46
56 51 47
55 50 46
56 51 47
55 50 46
56 51 47
56 51 47
55 50 47
56 51 47
56 51 47
55 50 46
55 50 46
55 50 46
56 51 47
56 51 47
81 73 54
56 51 47
56 51 47
56 51 47
56 51 47
55 50 46
81 72 54
56 51 47
56 51 47
56 51 47
55 48 47
50 36 45
99 71 84
119 89 102
125 94 105
128 96 107
131 98 108
132 99 109
132 99 109
131 98 108
128 96 107
124 93 105
119 90 102
99 71 80
47 33 39
49 37 44
51 42 45
55 50 47
54 49 46
76 63 53
54 49 46
77 63 54
56 51 47
80 71 54
55 50 47
77 63 54
56 51 47
56 51 47
56 51 47
55 51 47
55 50 46
55 50 47
62 53 49
80 72 54
56 51 47
81 73 54
56 51 47
81 73 55
55 51 47
56 51 47
55 50 46
56 51 47
54 50 46
56 51 47
56 51 47
55 50 46
56 51 47
55 51 46
56 51 47
56 51 47
56 51 47
56 51 47
55 50 46
55 50 46
56 51 47
81 73 54
56 51 47
81 72 54
81 73 55
100 89 61
100 89 61
56 51 47
56 51 47
55 50 46
56 51 47
55 50 46
56 51 47
56 51 47
54 50 46
55 50 46
55 50 46
55 50 46
55 50 46
81 73 54
55 50 46
56 51 47
55 50 46
56 51 46
55 50 46
55 50 46
80 72 54
55 50 46
55 50 46
56 51 47
116 103 66
54 49 46
54 49 45
53 48 44
67 55 45
90 68 49
95 72 52
95 72 52
96 72 52
98 74 53
97 74 53
97 74 52
98 74 53
98 75 53
97 73 52
95 72 51
94 71 51
92 70 50
87 66 48
56 50 45
55 50 46
53 47 43
68 58 47
54 49 44
55 50 46
90 78 55
55 50 46
55 50 45
100 89 61
100 89 61
68 58 48
55 50 46
56 51 46
56 51 46
81 73 55
56 51 46
55 50 46
56 51 47
56 51 47
81 73 54
56 51 47
55 50 46
56 51 47
56 51 47
55 50 46
56 51 47
56 51 47
56 51 47
55 50 46
56 51 47
100 89 61
56 51 47
56 51 47
80 72 54
56 51 47
81 72 54
86 77 58
64 59 53
84 75 57
58 53 49
57 52 47
61 56 50
55 49 46
59 53 49
87 78 59
78 68 52
67 61 54
63 57 52
56 50 46
67 52 47
55 50 46
54 49 45
73 63 49
55 50 46
53 48 44
111 95 62
81 70 52
72 58 46
85 71 50
42 36 34
65 50 37
65 46 33
44 31 29
48 35 33
47 34 32
48 35 33
48 35 33
49 36 33
47 34 32
47 35 32
45 33 31
43 35 32
73 64 44
47 43 38
70 59 44
50 44 41
57 51 41
53 47 43
53 48 44
73 64 49
54 48 44
55 50 46
54 49 44
56 50 46
54 49 45
74 64 50
55 50 46
55 50 46
55 50 46
79 71 52
55 50 46
54 49 45
54 49 45
78 70 51
237 216 106
239 219 110
69 63 56
57 51 47
76 67 52
192 159 84
59 53 48
62 57 51
71 61 47
54 48 44
71 61 46
78 70 51
53 47 43
54 49 45
54 49 45
72 62 47
50 45 41
50 46 41
51 46 42
52 46 41
50 45 41
52 47 43
51 46 42
51 45 41
50 45 41
52 47 42
51 46 41
49 45 41
77 68 49
47 43 39
47 42 38
44 40 36
47 42 38
81 74 50
46 41 37
76 67 48
48 43 40
44 40 36
47 42 38
45 40 37
43 39 36
47 42 38
45 41 37
75 66 47
44 40 36
76 67 48
53 42 38
51 38 34
152 58 46
60 21 26
95 33 32
62 22 27
63 22 27
65 23 28
66 23 28
66 23 28
67 24 29
66 23 28
67 24 29
67 24 29
66 23 28
65 23 28
58 24 27
49 44 41
48 43 39
48 44 40
48 43 39
47 43 39
48 43 39
48 43 39
50 45 41
52 47 43
50 45 41
52 47 43
51 46 42
49 44 40
53 48 44
51 46 42
51 46 42
53 48 44
53 48 44
50 46 42
52 47 43
54 49 45
53 47 43
53 48 44
54 49 45
52 47 43
53 48 43
53 48 43
54 49 45
55 51 43
54 49 45
53 49 40
68 69 33
75 76 36
78 79 37
79 81 38
82 84 40
83 85 40
83 86 41
83 85 40
83 85 41
77 79 42
59 55 45
54 49 45
54 49 45
54 49 45
55 50 46
54 49 45
54 49 45
53 49 45
55 50 46
55 50 46
53 48 45
54 50 46
53 48 45
52 47 44
52 47 44
51 46 43
50 45 42
65 31 31
48 23 23
52 27 27
24 20 18
26 22 20
38 33 31
61 42 36
64 46 40
67 49 43
50 45 42
53 48 44
51 45 42
65 50 45
55 49 45
54 49 45
56 51 47
55 50 46
56 51 47
54 49 45
54 49 45
72 55 48
55 50 46
56 51 47
55 50 46
55 50 46
56 51 47
56 51 47
56 51 47
54 49 45
56 51 47
54 50 46
56 51 47
55 50 46
55 50 46
55 50 46
56 51 47
55 51 47
56 51 47
56 51 47
55 50 47
56 51 46
55 51 46
55 50 46
55 51 47
56 51 47
55 50 47
56 51 47
56 51 47
56 51 47
55 51 46
56 51 47
56 51 47
56 51 47
55 50 46
56 51 47
55 50 46
56 51 47
56 51 47
56 51 47
56 51 47
56 51 47
55 50 46
56 51 47
55 50 46
56 51 47
56 51 47
55 50 46
56 51 47
56 51 47
56 51 47
55 51 46
56 51 47
56 50 47
56 51 47
55 50 46
56 51 47
55 50 47
56 51 47
56 50 47
55 50 47
55 50 46
53 46 45
50 37 45
84 63 72
111 84 96
120 90 103
124 93 105
126 95 106
127 95 106
127 95 106
126 95 106
123 93 104
119 90 102
110 82 97
80 60 65
51 37 44
51 38 46
74 57 52
54 48 45
54 48 46
55 50 47
77 63 54
81 72 54
56 51 47
54 49 45
56 51 47
55 50 46
56 51 47
55 50 46
56 50 47
81 72 54
62 53 50
56 51 47
55 50 46
56 51 47
56 51 47
56 50 47
80 72 54
56 51 47
56 51 47
55 50 46
55 50 46
81 72 55
56 51 47
55 50 46
56 51 47
56 51 47
56 51 47
56 51 47
56 51 47
55 50 46
63 53 50
56 51 47
56 51 47
56 51 47
55 50 46
56 51 47
81 73 55
81 73 54
56 51 47
100 89 61
55 50 46
60 54 48
56 51 47
100 89 61
56 51 47
55 50 46
56 51 47
55 50 46
56 51 47
56 51 47
56 51 47
54 49 45
56 51 47
56 51 47
56 51 47
56 51 47
55 50 46
81 72 54
56 51 47
56 51 47
80 71 53
55 50 46
55 50 45
52 48 44
56 51 47
55 50 46
81 72 54
54 49 44
78 61 46
89 68 49
94 72 51
94 72 51
92 70 50
96 73 52
96 72 52
98 74 53
93 71 51
96 73 52
94 71 51
94 71 51
95 72 51
88 67 48
86 65 47
62 51 42
55 50 46
53 48 44
55 50 46
55 50 46
55 50 45
55 50 46
54 49 45
56 51 47
55 50 46
69 59 48
55 50 46
55 50 46
56 51 47
56 51 47
55 51 46
55 50 46
56 51 47
81 72 54
81 72 54
81 72 54
56 51 47
55 51 46
56 51 47
56 51 47
56 50 46
81 72 54
80 72 54
55 50 46
56 51 47
55 50 46
55 50 46
55 50 46
55 50 46
81 72 54
56 51 47
54 49 46
60 55 50
63 58 52
63 58 51
60 55 50
60 55 50
85 76 57
68 62 55
84 75 56
69 63 56
63 58 52
64 59 53
62 56 51
59 53 48
67 60 54
76 66 52
55 50 46
53 48 44
54 48 44
75 61 49
52 47 43
91 71 53
71 56 44
87 66 47
85 64 44
65 50 38
32 26 25
34 26 24
38 26 25
55 35 29
42 30 28
41 30 28
44 32 30
42 30 28
41 29 27
37 29 27
36 30 28
46 40 36
90 77 51
50 44 41
51 45 41
51 46 42
54 49 45
54 48 44
53 48 44
81 72 54
55 49 45
80 71 52
81 72 53
54 49 45
55 50 45
55 50 45
55 50 45
54 49 45
79 71 52
55 50 46
74 64 50
79 70 51
182 161 89
250 235 108
99 105 51
53 49 44
60 55 49
55 50 46
102 91 63
80 70 55
56 51 46
79 70 51
55 50 46
51 46 42
52 47 43
52 47 43
79 70 51
53 48 44
79 71 52
70 60 45
52 47 43
50 45 41
69 59 45
51 46 42
51 46 41
51 46 42
49 44 40
53 48 44
50 45 41
51 46 42
51 46 42
50 45 41
48 44 40
50 45 41
47 43 39
50 45 41
96 85 55
47 42 39
44 39 36
50 45 41
45 40 36
78 69 50
49 44 40
46 41 38
45 40 36
49 45 41
53 43 39
51 39 35
41 36 33
74 66 47
43 38 35
154 54 42
120 41 36
57 20 24
63 22 27
65 23 28
65 23 28
66 23 28
66 23 28
67 24 29
67 23 29
65 23 28
65 23 28
66 23 28
64 23 28
62 22 27
53 35 34
46 41 37
49 44 40
47 42 38
52 47 43
50 45 41
50 45 41
50 45 41
51 46 42
50 45 41
49 44 40
52 47 43
49 45 41
53 48 44
52 46 43
51 47 43
53 48 44
54 49 45
52 47 44
51 46 42
52 47 43
54 49 45
52 47 43
52 47 43
51 46 42
53 48 44
56 50 46
53 48 44
53 48 44
55 51 41
64 65 31
73 74 35
78 80 38
78 80 38
82 84 40
81 83 39
83 85 40
83 85 40
84 86 41
83 85 40
81 84 40
79 81 40
55 50 44
53 48 44
55 50 46
54 49 45
54 49 45
54 49 45
53 48 45
55 50 46
55 50 46
54 49 45
54 49 45
52 48 44
53 48 45
53 49 45
52 48 44
51 46 43
45 21 22
29 18 17
50 27 20
30 26 24
38 34 32
40 35 33
42 37 35
75 66 47
50 44 41
50 45 41
51 46 43
53 48 44
53 48 44
69 51 45
54 49 45
56 51 47
56 51 47
55 50 46
55 50 46
55 50 46
56 51 47
55 50 46
56 51 47
55 50 46
56 51 47
56 51 47
56 51 47
56 51 47
56 51 47
55 50 46
56 51 47
56 51 47
56 51 47
56 51 47
56 51 47
56 51 47
55 50 46
56 51 47
55 51 47
56 51 47
55 50 46
56 51 47
81 72 54
55 50 46
56 51 47
55 51 47
56 51 47
56 51 47
56 51 47
56 51 47
56 51 47
56 51 47
56 51 47
55 50 46
56 51 47
56 51 47
56 51 47
56 51 47
56 51 47
56 51 47
55 50 46
56 51 47
56 51 47
56 51 47
56 51 47
55 51 46
56 51 47
55 51 47
54 50 46
56 51 47
56 51 47
56 51 47
56 50 47
56 51 47
56 51 47
56 51 47
56 50 47
55 50 47
55 50 46
55 50 46
80 71 53
53 46 46
51 38 46
99 75 57
108 83 67
113 85 98
118 89 102
121 91 103
120 91 103
121 91 103
119 90 102
117 88 101
104 78 92
65 38 65
86 48 62
72 52 51
51 38 46
74 58 53
78 63 54
53 47 45
53 47 45
54 49 45
76 63 54
54 48 46
77 63 54
56 50 47
54 49 46
55 50 47
54 49 46
56 51 47
56 51 47
56 51 47
56 50 47
56 51 47
55 50 46
56 51 47
56 51 47
55 50 47
54 50 46
56 51 47
81 73 54
56 51 47
56 51 47
56 51 47
56 51 47
55 50 46
56 51 47
56 51 47
55 50 46
81 73 54
55 51 47
55 51 46
56 51 47
56 51 46
56 51 47
81 72 54
56 51 47
56 51 47
56 51 47
56 51 47
56 51 47
55 50 46
100 89 61
55 51 47
56 51 46
81 72 54
56 51 47
56 51 47
55 50 46
56 51 47
81 72 54
56 51 47
55 50 46
65 51 46
81 73 54
55 50 46
55 50 46
56 51 47
54 50 46
80 72 53
55 50 46
80 72 53
81 73 54
80 72 53
81 72 54
80 71 53
55 50 46
56 51 47
54 49 45
94 64 48
88 67 48
88 67 48
91 70 50
95 72 51
92 70 50
94 72 51
93 71 51
95 72 51
94 71 51
91 70 50
93 71 50
90 68 49
86 65 46
84 63 46
59 48 40
54 49 45
55 50 46
54 49 45
55 50 46
55 50 46
54 50 46
56 51 47
55 50 46
68 58 48
80 72 53
81 72 54
80 72 54
56 51 47
56 51 47
56 51 47
81 72 54
55 51 46
55 51 46
55 50 46
81 73 54
56 51 47
56 51 47
81 73 55
56 51 46
55 50 46
55 50 46
55 51 46
56 51 47
56 51 47
56 51 47
56 51 47
100 89 61
56 51 47
55 50 46
56 51 47
58 53 48
86 77 59
62 57 52
64 59 53
58 53 49
64 58 53
58 53 49
84 76 57
87 78 59
54 49 45
63 57 52
66 60 54
59 54 49
63 57 52
56 51 46
61 55 50
56 51 47
55 49 46
75 61 49
53 47 43
53 48 44
98 87 58
49 44 40
48 43 39
76 67 48
46 40 38
37 33 30
69 60 40
59 44 30
28 22 21
31 23 22
34 25 24
27 19 18
30 24 23
58 48 31
40 34 26
38 33 31
72 63 44
49 44 41
77 68 49
50 45 41
53 47 43
54 49 45
54 49 45
80 71 52
54 48 44
81 72 54
55 50 45
80 71 53
54 49 45
55 50 46
53 48 44
55 50 45
80 71 52
54 49 44
74 64 50
80 71 53
127 138 54
239 218 109
181 170 83
130 140 58
60 54 49
92 83 63
68 62 55
71 64 57
61 55 50
64 57 50
59 54 49
57 51 47
62 60 44
55 50 46
53 48 44
51 46 42
54 49 45
52 47 43
79 71 52
52 47 42
53 48 44
53 48 44
77 69 50
52 47 43
51 46 42
52 46 42
53 48 44
50 45 41
98 86 58
52 47 43
47 42 39
48 44 40
70 61 46
53 48 39
50 45 41
48 43 39
46 42 38
49 44 40
48 43 39
50 44 40
49 44 40
47 42 38
48 43 39
57 46 42
46 41 38
45 40 36
47 42 38
46 41 37
48 43 39
44 35 33
89 31 28
93 32 31
58 20 25
63 22 27
64 22 27
65 23 28
64 23 28
65 23 28
64 23 28
66 23 28
66 23 28
64 23 28
66 23 28
64 23 28
64 22 27
57 31 32
50 44 40
46 42 38
51 46 42
49 44 40
47 42 39
54 49 45
50 45 41
51 46 42
50 45 41
51 46 41
53 48 44
51 46 42
53 48 44
53 48 44
53 48 43
51 47 43
53 48 44
54 49 44
53 48 43
50 45 41
53 48 44
53 47 43
54 48 44
53 48 43
50 46 41
53 48 44
52 47 43
53 49 43
64 64 31
70 72 34
78 80 38
81 83 39
81 84 40
81 83 39
84 86 41
82 84 40
83 86 41
82 84 40
83 86 41
82 84 40
81 84 40
76 76 40
55 50 45
55 50 45
54 49 45
54 49 45
55 50 46
54 49 45
55 50 46
54 49 45
55 50 46
55 50 46
55 50 46
56 51 47
53 49 45
52 47 44
53 48 44
22 18 17
27 23 22
30 26 25
30 26 24
42 38 35
41 37 34
40 34 32
48 43 40
52 47 43
52 47 43
56 51 47
53 48 44
53 48 44
55 49 45
54 49 45
54 49 45
55 50 46
56 51 47
56 51 47
55 50 46
56 51 47
56 51 47
56 51 46
56 51 47
56 51 47
56 51 47
56 51 47
56 51 47
55 50 46
55 50 46
56 51 47
56 51 47
56 51 47
56 51 47
56 51 47
55 50 46
55 50 46
54 50 46
55 50 46
55 50 46
56 51 47
55 50 46
56 51 47
54 49 45
56 51 47
55 50 46
55 50 46
55 51 46
56 51 47
56 51 47
56 51 47
80 72 54
56 51 47
54 50 46
56 51 47
56 51 47
56 51 47
55 50 46
56 51 47
56 51 47
54 49 45
56 51 47
56 51 47
56 51 47
56 51 47
55 51 46
55 50 46
55 51 46
56 51 47
56 51 47
56 51 47
56 51 47
56 51 47
56 51 47
56 51 47
56 51 47
56 51 47
55 49 46
56 51 47
55 50 46
55 50 46
53 47 45
49 36 44
105 78 57
90 68 47
107 82 70
103 76 90
112 85 98
108 81 94
108 82 94
107 82 95
93 68 77
50 39 47
46 23 45
68 49 48
50 37 46
74 54 53
75 66 49
76 61 52
52 47 44
53 48 45
55 50 46
54 48 45
56 50 47
55 50 46
54 49 46
55 50 46
56 51 46
55 50 47
56 51 47
55 50 46
56 51 47
55 50 46
81 72 54
56 51 47
81 72 54
56 51 47
56 51 47
81 72 54
55 50 46
56 51 47
55 50 46
55 50 46
54 49 46
56 51 47
55 51 46
56 51 47
56 51 47
86 74 57
54 49 46
56 51 47
55 50 46
56 51 47
55 50 46
55 50 46
55 50 46
55 51 46
56 51 47
56 51 47
55 50 46
59 51 47
81 73 54
56 51 47
56 51 47
56 51 47
56 51 47
55 50 46
55 50 46
81 72 54
81 73 55
56 51 47
81 73 55
55 50 46
81 72 54
56 51 47
54 49 45
56 51 47
80 72 54
53 49 45
55 50 46
56 51 47
55 50 46
80 72 53
55 50 46
54 49 45
67 56 46
80 71 53
52 47 44
53 48 44
77 59 43
86 65 47
85 64 47
87 66 48
91 69 50
94 71 51
93 70 50
92 70 50
90 69 49
91 69 49
89 68 49
87 66 47
90 68 49
84 63 45
83 63 45
61 49 40
53 48 44
55 50 46
54 49 44
56 51 45
55 50 46
56 51 47
55 50 46
80 72 54
55 50 46
56 51 47
54 49 45
81 72 54
56 51 47
56 51 47
81 73 54
55 50 46
55 50 46
56 51 47
81 72 54
56 51 47
56 51 47
56 51 47
55 50 46
56 51 47
81 72 54
56 51 47
55 51 46
100 89 61
56 51 47
56 51 47
56 50 46
56 51 47
56 51 47
80 72 54
55 50 46
56 51 47
58 53 48
63 57 52
65 59 54
88 79 61
60 55 50
68 62 56
64 58 52
60 55 49
88 79 61
58 53 48
62 56 51
58 52 48
60 55 50
57 52 47
53 48 44
80 71 53
54 49 45
80 71 53
54 48 44
54 49 45
54 48 44
49 43 40
52 46 42
51 45 42
46 41 38
42 36 34
43 37 35
39 34 32
33 27 26
26 21 20
26 21 20
26 21 20
38 32 30
33 27 25
43 38 35
43 37 34
45 39 36
49 43 40
50 47 41
52 46 43
52 47 43
54 49 45
53 47 43
93 81 56
82 72 54
53 48 44
54 49 45
79 71 52
55 50 46
54 49 45
55 50 46
55 50 45
61 59 45
54 49 44
55 50 45
53 48 44
96 102 47
55 50 45
63 58 52
103 108 56
56 51 46
65 59 53
93 84 65
61 56 50
91 81 62
67 61 54
63 58 52
68 61 55
60 55 49
58 53 47
52 48 43
52 47 43
51 46 42
52 47 43
53 48 44
52 47 43
53 48 44
53 48 44
52 47 43
51 46 43
53 48 44
49 43 39
50 45 42
51 46 42
53 48 44
71 61 47
79 70 51
49 44 40
51 45 41
47 42 38
51 46 42
49 44 40
52 47 43
47 42 38
51 46 42
48 43 39
48 43 40
50 45 41
46 42 38
47 42 38
49 44 39
48 43 39
51 39 35
46 41 38
42 37 34
53 39 35
87 30 28
55 19 24
62 22 26
59 21 25
61 21 26
64 23 28
61 21 26
64 23 28
65 23 28
64 23 28
64 23 28
65 23 28
61 21 26
61 21 26
59 21 26
57 28 29
49 44 40
49 44 40
51 45 41
53 48 44
50 45 41
50 45 41
50 45 41
51 46 42
51 46 42
51 46 42
52 47 43
53 48 44
52 47 43
50 45 41
53 48 43
51 46 41
51 46 42
53 49 44
51 46 42
51 46 42
53 48 44
51 46 42
53 48 44
52 47 42
54 49 45
54 49 44
53 48 44
53 52 34
67 68 32
73 74 36
71 73 35
79 81 39
78 80 38
82 84 40
82 85 40
82 84 40
82 85 40
83 85 41
83 85 41
82 84 40
79 82 39
78 80 39
67 66 43
53 48 44
55 50 45
54 49 45
54 50 46
55 50 46
55 50 46
54 50 45
54 49 46
55 50 46
55 50 46
55 50 46
54 49 45
53 48 44
51 47 44
28 24 23
35 31 29
37 33 31
42 35 33
41 36 34
46 40 37
44 39 36
51 46 43
51 46 43
47 42 39
55 50 46
54 49 45
53 47 44
53 48 45
54 49 45
54 49 46
55 50 46
56 51 47
54 49 45
56 51 47
56 51 47
55 51 46
56 51 47
54 50 46
56 51 46
55 50 46
55 50 46
56 51 46
56 51 47
56 51 47
54 49 45
56 51 47
56 51 47
56 51 47
56 51 47
81 73 55
81 73 54
55 50 46
56 51 47
80 72 54
55 50 46
56 51 47
56 51 47
55 50 46
56 51 47
56 51 47
56 51 47
55 50 46
56 51 47
55 50 46
56 51 47
56 51 47
56 51 47
56 51 47
56 51 47
56 51 47
56 51 47
55 50 46
54 50 46
55 50 46
55 50 46
56 51 47
56 51 47
56 51 47
56 51 47
81 73 55
56 51 47
56 51 47
55 50 46
56 51 47
56 51 47
55 50 46
56 51 47
55 50 46
55 50 46
56 51 47
55 50 47
54 48 46
55 50 46
53 48 45
54 49 45
55 49 46
51 41 46
48 36 43
39 29 34
47 35 42
49 36 45
63 46 57
69 46 55
81 61 71
54 40 48
49 36 44
47 35 42
41 30 37
49 36 44
50 37 46
46 35 42
78 61 53
92 72 59
54 48 46
76 62 53
76 61 53
55 50 46
53 48 45
77 63 54
55 50 46
81 72 54
56 51 47
56 51 47
56 51 47
56 51 47
55 50 46
55 51 46
56 51 47
55 50 46
56 51 47
56 51 47
55 50 46
55 50 46
81 72 54
62 53 50
56 51 47
54 49 45
54 50 46
56 51 47
81 73 55
55 51 46
55 50 46
56 51 47
56 51 47
55 50 46
56 51 46
56 51 46
60 54 48
56 51 47
56 51 47
56 51 47
56 51 47
60 55 48
81 73 54
55 50 46
56 51 47
60 54 48
56 51 47
56 51 47
55 50 46
55 50 46
55 50 46
56 51 46
56 51 47
56 51 47
100 89 61
56 51 47
54 49 45
56 51 47
54 49 45
55 50 46
56 51 47
56 51 46
81 73 54
58 52 47
56 51 47
80 72 54
80 72 53
54 49 45
54 49 45
53 48 44
55 49 44
54 49 45
82 62 43
74 57 41
81 61 44
79 60 43
93 71 51
89 67 49
89 68 49
87 66 48
88 67 48
89 68 49
86 65 47
87 66 47
85 64 46
80 60 43
72 54 39
54 45 38
52 47 43
55 50 46
53 48 44
55 50 46
55 50 45
54 49 45
54 50 46
55 50 46
56 51 47
56 51 47
55 50 46
55 51 46
55 50 46
56 51 47
56 51 47
56 51 47
56 51 47
55 50 46
56 51 47
56 51 47
56 51 47
80 72 53
56 51 46
55 50 46
56 51 47
56 51 46
55 50 46
55 50 46
80 72 54
80 72 54
55 50 46
55 50 46
55 50 46
56 51 47
55 50 46
74 64 50
58 53 48
56 51 46
62 57 51
85 77 58
65 60 54
85 77 58
58 53 49
57 52 48
55 50 46
112 100 72
63 57 52
60 54 50
86 77 59
63 58 52
80 72 54
55 50 46
54 49 45
56 50 46
56 51 47
81 72 54
99 88 60
54 48 45
78 68 50
50 44 41
50 44 41
48 41 37
74 65 46
59 46 37
39 34 32
42 36 34
40 35 33
38 33 31
43 37 34
58 46 36
44 39 36
44 38 35
50 44 40
51 45 42
52 46 43
81 72 54
98 87 58
54 48 44
52 47 43
54 49 45
54 49 45
80 72 53
55 50 45
99 88 60
71 57 46
73 64 49
55 50 46
51 46 42
52 47 43
55 50 46
54 49 45
52 47 43
95 82 56
53 48 44
53 48 44
57 52 47
57 52 46
55 50 46
93 84 64
59 54 48
55 50 46
86 77 58
55 50 46
56 51 46
61 55 50
53 48 43
54 49 45
53 48 44
54 49 45
54 49 45
52 47 43
53 48 44
50 46 42
54 48 44
54 49 45
53 48 44
54 48 44
54 49 45
53 48 43
53 48 44
53 48 43
78 69 50
51 46 42
51 46 42
49 44 41
57 46 42
46 41 38
51 46 42
50 44 40
48 43 39
77 69 49
47 42 39
51 47 43
67 58 43
46 41 37
48 43 39
48 43 39
41 37 33
48 43 39
47 41 38
43 38 35
44 37 33
50 18 22
51 18 22
49 17 21
58 20 25
56 20 24
57 20 25
61 22 26
58 21 25
60 21 26
62 22 27
60 21 26
63 22 27
62 22 27
60 21 26
57 20 25
51 23 25
49 44 40
44 40 36
50 45 42
50 45 41
50 45 41
51 46 42
51 46 42
53 48 44
53 48 43
52 47 43
51 46 42
51 46 42
52 47 43
53 47 43
53 48 44
52 47 43
54 49 45
52 47 43
50 45 41
54 49 45
51 47 43
52 48 43
52 47 43
51 46 41
51 46 42
50 45 41
53 48 44
55 56 30
63 64 31
77 79 38
77 79 38
79 82 39
79 81 39
80 82 39
81 84 40
80 83 39
81 83 40
81 84 40
81 83 40
81 83 40
82 84 40
79 81 39
73 72 37
55 50 46
55 50 46
53 48 44
54 50 46
55 50 46
53 48 44
55 50 46
55 50 46
54 50 46
55 50 46
55 50 46
51 46 43
53 48 45
52 48 45
39 34 32
41 37 34
44 39 36
44 39 36
47 42 39
48 43 40
53 47 44
51 46 42
54 48 44
52 47 44
54 48 44
54 50 46
55 50 46
55 50 46
56 51 47
56 51 46
55 50 46
55 51 46
55 51 47
56 51 47
56 51 46
56 51 47
56 51 47
56 51 47
56 51 47
56 51 47
63 54 48
56 51 47
56 51 47
56 51 47
56 51 47
56 51 47
56 51 47
56 51 47
56 51 47
56 51 47
56 51 47
56 51 47
56 51 47
56 51 47
55 51 46
55 50 46
81 73 54
56 51 47
56 51 47
56 51 47
56 51 47
56 51 47
56 51 47
81 72 54
54 50 46
59 55 47
110 102 60
77 74 54
80 77 55
80 77 55
78 74 53
112 105 61
65 61 49
54 49 45
55 50 46
56 50 46
56 51 47
56 51 47
55 50 46
55 51 46
55 50 46
56 51 47
54 49 45
56 51 47
56 51 47
54 49 46
56 50 46
56 50 47
55 50 46
55 50 46
56 50 47
54 49 46
53 48 45
53 47 44
51 46 43
75 60 52
51 45 44
51 38 46
50 37 45
53 42 46
50 38 46
51 38 46
50 37 46
53 40 48
51 38 46
49 37 45
48 36 44
88 61 59
48 35 44
66 43 49
88 67 55
104 78 62
47 41 40
53 48 45
52 46 44
76 62 53
75 61 52
56 50 47
55 50 46
54 49 46
56 51 47
63 53 50
55 50 46
55 50 46
55 50 46
99 88 60
55 50 46
58 48 52
63 45 58
68 45 64
102 63 76
129 76 89
138 93 87
58 48 51
55 50 46
55 50 46
56 51 47
56 51 47
55 50 46
55 50 46
56 51 47
56 51 47
55 50 46
56 51 47
56 51 47
81 72 54
56 51 47
56 51 47
56 51 47
57 52 47
56 51 47
56 51 47
81 73 55
81 73 55
55 50 46
55 50 46
56 51 46
56 51 46
56 51 47
56 51 47
56 51 47
80 72 54
55 51 47
56 51 47
56 51 47
55 51 47
55 50 46
55 50 46
56 51 47
55 50 46
56 51 47
55 50 46
56 51 47
56 51 47
55 51 46
55 50 46
81 72 54
54 49 45
54 49 45
55 50 46
51 47 43
50 45 41
49 45 41
86 71 47
77 58 43
77 59 42
76 58 43
83 63 45
84 65 47
86 66 48
82 63 45
86 65 47
86 66 47
85 64 46
79 60 43
77 57 42
77 58 42
111 73 41
54 45 38
51 46 42
53 48 44
50 45 41
54 49 45
53 49 45
56 51 47
55 50 46
54 49 45
54 49 45
80 71 53
56 51 47
56 51 46
55 50 46
56 51 47
55 50 46
81 73 55
55 50 46
56 51 47
81 72 54
81 72 54
56 51 47
56 51 47
81 72 54
56 51 47
81 72 54
56 51 47
56 51 47
55 50 46
55 50 46
81 73 54
81 72 54
55 50 46
55 50 46
55 50 46
55 50 46
87 77 57
85 76 58
104 93 65
61 55 50
61 56 51
61 56 51
63 57 52
56 51 47
65 59 53
66 60 54
63 57 52
57 52 48
60 56 49
59 54 49
101 90 62
58 53 48
54 49 45
54 48 45
54 48 45
54 49 45
53 48 44
80 71 53
75 61 49
53 47 43
67 54 45
51 46 42
48 42 39
50 45 42
52 46 43
48 42 39
49 42 39
47 42 39
47 42 39
44 38 35
47 42 38
49 43 40
50 45 41
52 46 42
52 46 42
54 48 44
53 48 43
54 49 45
53 48 44
54 49 45
80 72 54
55 50 46
55 50 46
55 50 45
94 82 57
55 50 45
80 71 53
80 71 53
55 50 45
53 49 44
54 49 45
55 50 45
54 50 43
64 58 45
65 63 47
55 50 46
55 50 46
53 48 44
82 71 56
84 75 56
56 51 47
63 57 51
61 56 50
61 56 50
69 63 56
61 55 51
54 49 44
56 51 46
72 62 48
52 48 44
51 46 42
80 71 53
51 46 42
71 61 46
51 46 42
78 70 51
50 45 41
77 69 50
78 69 51
52 47 43
52 47 43
52 47 43
53 48 44
51 46 41
52 47 43
51 46 42
51 46 42
51 46 42
50 45 41
51 46 42
50 45 41
48 43 40
48 43 39
49 44 41
49 44 40
49 44 40
47 44 37
50 47 35
77 68 48
47 42 38
46 41 38
52 40 37
41 36 33
42 15 18
49 17 21
54 19 24
58 20 25
53 19 23
59 21 25
59 21 26
62 22 27
58 20 25
59 21 25
59 21 25
59 21 26
56 20 24
58 20 25
57 20 25
47 24 25
49 44 40
49 44 40
51 46 42
49 44 40
50 45 41
53 47 43
51 46 42
51 46 42
50 45 41
51 45 41
53 48 44
52 47 43
54 49 45
52 47 43
54 49 45
51 46 42
49 44 40
54 49 45
53 48 43
53 48 44
52 47 43
51 46 42
51 46 42
58 55 44
52 47 43
50 46 42
52 48 41
55 57 27
62 63 31
68 70 34
74 75 36
74 77 37
75 77 37
79 81 39
78 80 39
81 84 40
79 81 39
82 84 40
78 80 39
79 81 39
78 79 38
75 74 35
73 71 34
56 52 43
52 47 43
53 48 44
55 50 46
54 49 45
55 50 46
55 50 46
53 48 45
52 47 44
55 50 46
54 49 45
55 50 45
54 49 46
52 47 44
44 39 36
46 42 39
49 44 41
51 46 42
52 47 43
51 46 42
53 48 44
54 48 44
53 48 44
54 49 45
57 52 47
54 49 45
55 50 46
55 50 46
54 48 45
54 49 45
56 51 47
55 49 45
55 50 46
56 51 47
55 50 46
56 51 47
56 51 47
56 51 47
56 51 47
56 51 47
56 51 47
55 50 46
56 51 47
56 51 47
55 50 46
55 50 46
55 50 46
56 51 47
56 51 47
56 51 47
56 51 47
55 50 46
56 51 47
56 51 47
55 50 46
56 51 47
55 50 46
56 51 47
55 50 46
55 50 46
56 51 47
56 51 47
55 50 46
57 52 47
93 86 58
80 77 55
81 77 55
82 79 55
82 78 55
82 78 55
81 77 55
117 110 64
144 135 71
114 107 62
58 54 47
55 50 46
53 48 44
55 50 46
55 50 46
56 51 47
54 50 46
80 72 54
56 50 47
55 50 46
56 51 47
55 50 46
56 50 47
55 50 46
55 50 46
55 50 46
53 48 45
54 49 45
54 48 45
51 46 44
53 47 45
51 45 43
51 46 44
47 39 41
49 36 45
49 37 44
51 38 46
50 38 46
51 38 46
51 38 46
50 37 45
50 37 45
50 37 45
72 52 52
67 44 50
87 63 53
73 64 47
89 68 55
72 58 50
51 44 43
79 70 53
55 49 46
79 71 53
55 50 46
81 73 55
55 50 46
55 49 46
54 49 46
55 51 47
56 51 47
54 49 46
58 50 50
67 44 64
72 43 70
72 43 70
73 43 71
73 43 71
72 43 70
105 61 81
104 61 81
62 43 59
96 66 65
55 50 46
55 50 46
55 50 46
55 51 46
56 51 47
55 50 46
56 51 47
55 50 46
56 51 47
56 51 47
55 50 46
55 50 46
56 51 47
56 51 47
56 51 47
81 72 54
81 73 54
56 51 47
55 50 47
55 50 46
54 50 46
56 51 47
56 51 47
56 51 47
71 57 47
81 72 54
55 50 46
55 50 46
81 72 54
56 51 47
56 51 47
56 51 47
56 51 47
55 50 46
56 51 47
81 73 55
81 73 55
55 50 46
55 50 46
56 50 46
54 49 45
80 71 53
54 49 45
53 48 45
78 70 51
51 46 42
63 53 42
57 48 41
61 47 34
72 56 40
73 58 40
80 61 44
74 57 41
79 60 43
84 64 47
76 58 42
72 55 40
87 74 46
77 58 42
68 51 37
65 49 36
57 44 34
48 43 40
48 44 40
52 47 43
52 47 43
54 49 45
54 49 45
80 72 53
54 49 45
56 51 46
55 50 46
56 51 47
71 59 47
56 51 47
55 50 46
54 49 45
81 73 54
56 51 47
56 51 47
56 51 47
56 51 47
56 51 47
55 50 46
56 51 46
81 73 55
55 50 46
55 50 46
55 50 46
56 51 47
56 51 47
56 51 47
56 51 47
81 72 54
56 51 47
54 49 45
81 72 54
56 51 46
78 69 50
80 71 53
66 60 54
60 54 49
60 55 50
78 68 54
57 51 45
85 77 58
64 59 53
59 54 49
80 72 54
58 53 48
61 56 51
58 53 48
82 74 55
54 50 43
67 54 45
55 50 46
55 50 46
99 88 59
81 72 54
55 49 45
80 71 53
53 47 44
53 47 43
54 48 44
51 45 42
78 69 50
52 46 42
51 45 42
77 68 50
65 53 43
49 43 40
48 42 39
52 46 42
53 47 44
52 46 43
52 46 42
52 46 43
53 47 43
53 48 44
55 49 45
54 48 45
54 49 45
54 49 45
53 48 44
55 50 46
54 49 45
99 88 60
54 49 45
54 49 44
53 48 44
79 71 52
55 50 46
54 49 44
52 47 43
52 47 43
53 49 44
57 51 48
66 61 54
64 59 53
90 81 62
63 57 51
53 48 44
57 51 47
57 52 47
68 62 55
72 62 48
58 53 48
85 77 58
55 50 45
101 90 61
54 49 45
55 50 45
54 49 46
53 48 44
52 47 42
52 47 42
55 50 46
52 47 43
78 70 51
55 49 45
50 46 42
51 46 42
52 47 43
53 48 44
51 46 41
51 46 42
52 46 42
54 49 44
52 47 43
52 47 42
53 47 43
50 45 41
52 47 43
79 70 52
50 45 41
47 42 38
51 46 42
48 44 40
49 44 40
50 46 42
52 40 36
59 42 37
42 37 34
52 41 37
50 38 34
52 25 23
45 16 19
46 16 20
55 19 24
54 19 23
56 20 24
57 20 25
53 19 23
57 20 25
57 20 25
58 20 25
52 18 23
53 18 23
89 25 26
53 18 23
45 32 30
47 42 38
49 44 41
50 45 41
50 45 41
50 44 40
49 45 41
51 46 42
53 48 43
49 44 40
54 49 45
53 48 44
52 47 43
52 47 43
53 48 44
52 47 43
54 49 45
53 48 44
54 49 45
54 49 45
52 48 44
51 46 42
50 45 41
52 47 43
52 47 42
50 46 42
51 47 42
48 44 40
50 50 24
65 66 32
66 68 33
71 73 35
76 78 38
75 78 38
77 80 39
78 81 39
77 79 38
77 79 38
78 80 38
77 79 38
78 79 38
74 71 34
71 69 33
67 63 30
65 55 44
88 60 52
93 63 54
106 70 59
107 71 61
91 64 55
91 64 56
61 53 48
55 50 46
54 49 45
55 50 46
54 49 46
55 50 46
55 50 46
48 43 40
44 39 36
50 45 41
51 46 42
50 44 41
54 49 45
53 48 44
53 48 45
54 49 45
51 46 42
54 49 46
55 50 46
55 51 47
54 49 45
56 50 46
56 51 47
56 51 47
55 50 46
55 50 46
55 50 46
55 51 47
55 50 46
56 50 46
56 51 46
56 51 47
56 51 47
55 50 46
56 51 47
56 51 47
55 51 46
56 51 47
55 50 46
56 51 47
56 51 47
55 50 46
56 51 47
55 50 46
56 51 47
55 50 46
56 51 47
55 50 46
55 51 46
56 51 47
55 50 46
55 50 46
56 51 47
56 51 47
55 50 46
54 50 46
73 69 52
80 77 55
81 77 55
81 78 55
81 77 55
82 78 55
81 77 55
81 77 55
80 76 54
117 110 63
115 108 62
112 104 60
56 51 46
55 50 46
64 58 47
56 51 47
56 51 47
55 50 46
56 51 47
76 63 53
55 50 46
54 50 46
55 51 46
53 48 44
56 50 47
55 50 46
56 51 47
54 49 45
55 50 46
55 50 47
54 49 46
51 46 44
50 44 43
54 45 41
47 41 41
43 34 38
47 34 43
48 34 44
48 35 44
48 35 44
49 36 44
49 36 45
47 34 43
46 33 42
68 42 49
56 40 36
103 77 61
46 39 38
44 38 38
47 41 40
49 44 42
75 60 52
53 47 46
55 50 46
55 50 46
55 50 47
55 49 46
55 49 46
81 73 55
55 50 46
55 50 46
60 46 55
69 42 67
72 43 70
72 42 70
73 43 71
72 43 71
72 42 70
72 43 70
72 42 70
71 42 70
69 41 67
149 87 97
56 47 49
56 51 47
55 50 46
54 49 45
55 50 46
56 51 47
56 51 47
55 50 46
62 52 49
55 50 46
53 48 45
56 51 47
56 51 47
56 51 47
56 51 47
56 51 47
56 51 47
56 51 47
81 72 54
56 51 47
56 51 47
56 51 47
55 50 46
56 51 47
56 51 46
54 50 46
56 51 47
55 50 46
55 50 46
56 51 47
56 51 47
56 51 47
63 53 50
56 51 47
56 51 47
54 49 45
55 50 46
56 51 47
56 51 47
55 50 46
69 58 48
52 48 44
53 48 44
53 48 43
77 69 50
52 48 44
46 41 38
44 40 37
62 48 35
65 50 37
114 85 46
82 62 42
73 56 40
69 52 38
81 71 43
68 51 38
76 58 42
65 49 35
68 51 37
66 50 36
61 45 33
46 39 35
46 41 38
45 41 38
49 44 41
54 49 45
55 50 46
79 71 53
55 50 45
80 72 54
54 49 45
54 49 45
80 72 53
56 51 47
56 51 47
80 72 54
69 58 48
55 50 46
56 51 47
55 50 46
81 73 55
56 51 47
56 51 46
56 51 47
56 51 47
70 59 47
81 73 54
55 50 46
54 49 45
56 51 46
56 51 47
56 51 47
55 50 46
55 50 46
55 50 46
53 48 45
56 51 47
55 50 46
57 50 46
74 64 52
61 55 49
86 77 58
58 53 48
60 54 49
57 52 47
59 53 48
65 58 53
54 49 45
64 59 53
58 53 48
64 59 53
62 56 50
58 52 46
58 53 48
55 50 46
54 49 46
56 51 47
56 51 47
55 50 46
53 48 44
79 70 52
56 51 47
52 48 44
53 48 44
55 50 46
52 47 43
55 49 45
51 45 42
53 47 43
52 46 43
52 46 43
51 46 42
50 44 41
53 47 43
54 49 45
54 49 45
52 47 43
53 48 44
54 49 44
55 50 46
53 48 44
55 50 46
55 49 45
55 50 46
55 50 45
55 50 46
53 49 45
54 49 45
56 51 47
54 49 45
55 50 46
55 50 46
54 49 45
53 48 44
66 60 54
64 58 52
80 70 55
63 57 52
61 56 50
63 58 52
56 51 47
83 74 55
59 54 48
60 54 49
57 52 47
63 57 51
54 50 45
54 48 44
69 63 56
58 53 48
52 47 43
53 49 44
55 50 46
52 47 43
52 47 43
52 48 43
81 72 54
52 47 43
53 48 44
53 48 44
53 48 44
53 47 43
53 48 44
54 49 45
115 102 66
52 47 43
78 69 50
51 46 43
49 45 41
52 47 43
51 46 42
51 46 42
52 47 42
52 47 43
57 46 41
53 48 44
49 45 41
57 46 42
48 44 40
49 44 40
47 42 38
73 65 45
53 42 38
50 38 34
38 33 30
36 29 27
42 15 18
45 16 20
50 18 22
48 17 21
48 17 21
49 17 22
56 20 25
55 19 24
55 19 24
69 20 23
54 19 24
50 17 22
53 18 23
45 16 20
43 36 34
46 41 38
47 41 38
50 45 41
48 43 39
52 47 43
53 48 43
51 46 42
53 48 44
53 48 43
53 47 43
53 48 44
54 49 45
50 45 42
53 48 44
53 48 44
50 46 42
51 46 42
51 46 42
53 48 44
50 46 41
53 48 43
49 45 41
50 46 42
47 43 38
49 44 40
51 47 43
44 41 35
56 56 28
54 56 28
64 66 32
67 69 33
70 71 35
76 78 37
75 77 37
72 74 36
77 79 38
78 81 39
76 77 37
75 75 36
75 75 36
75 73 35
66 59 29
97 64 51
111 71 60
112 72 61
118 76 64
116 75 63
119 77 65
120 78 65
118 76 65
112 73 63
81 60 53
54 49 45
54 49 45
55 50 46
53 48 45
52 47 43
51 45 42
50 45 41
52 47 44
52 47 43
52 47 43
55 49 46
55 50 45
52 47 43
54 49 45
56 51 47
56 51 47
56 50 46
55 50 46
55 50 46
55 50 46
56 51 47
55 50 47
56 51 47
56 51 47
56 51 47
56 51 47
56 51 47
56 51 47
56 51 47
55 50 46
56 51 47
55 50 46
55 51 46
56 51 47
56 51 47
55 50 46
56 51 47
56 51 47
56 51 47
56 51 47
55 51 47
56 51 47
55 50 46
56 51 47
55 50 46
56 51 47
56 51 47
55 50 46
56 51 47
55 50 46
54 49 45
55 51 46
55 51 46
82 73 52
79 75 54
80 77 55
81 77 55
81 77 55
81 77 55
81 78 55
81 78 55
81 77 55
79 76 54
77 74 53
79 76 54
142 132 69
163 152 74
56 51 46
55 50 46
53 49 45
55 50 46
79 70 52
55 50 46
56 51 47
65 59 49
55 50 46
55 49 46
54 49 46
55 50 46
55 50 46
55 50 46
64 58 48
56 51 47
55 50 46
62 57 47
51 45 43
53 47 45
47 42 41
49 43 42
39 33 35
38 32 34
39 30 36
40 29 37
42 30 39
42 30 38
41 29 37
38 28 36
32 24 29
27 22 25
37 28 29
38 32 33
50 40 41
45 38 40
73 58 50
52 47 44
53 47 45
54 49 45
77 63 54
54 49 46
54 49 46
81 72 54
56 50 47
81 72 54
55 50 46
57 50 50
67 40 66
71 42 69
71 42 70
72 43 70
73 43 71
73 43 71
72 43 70
72 43 70
72 43 70
129 75 91
104 60 80
66 39 65
127 74 88
53 47 45
55 50 46
55 50 46
56 51 47
56 51 47
56 51 47
55 50 46
55 50 46
54 49 45
55 50 47
62 53 49
56 51 47
55 51 46
56 51 47
55 50 46
56 51 47
55 51 46
57 52 47
56 51 47
56 51 47
56 51 47
56 51 47
55 50 46
55 50 46
55 50 46
56 51 47
56 51 47
56 51 47
55 51 46
56 51 47
55 50 46
56 51 47
100 89 61
56 51 47
55 50 46
56 51 47
54 49 45
80 71 53
80 72 54
80 71 53
55 50 46
54 49 44
53 48 44
50 45 41
78 70 51
45 41 37
46 42 38
71 63 43
47 36 27
84 77 39
65 50 36
86 82 43
56 44 32
62 47 34
64 49 36
61 46 33
63 48 35
59 44 33
53 40 29
48 37 29
42 38 34
41 37 34
46 42 38
51 46 42
53 49 45
52 47 43
52 47 43
80 72 53
80 72 54
80 72 53
80 72 53
99 88 59
55 50 46
56 51 47
56 51 47
55 50 46
56 51 47
55 50 46
56 51 47
81 73 55
56 51 47
81 73 55
56 51 47
55 50 46
55 50 46
56 51 47
100 89 61
56 51 47
56 51 47
56 51 47
81 73 54
55 50 46
55 50 46
55 50 46
80 72 54
81 72 54
55 50 46
58 53 48
89 74 59
137 86 61
70 64 55
85 76 57
76 67 52
60 54 48
80 72 54
58 53 49
64 58 52
58 53 48
61 55 50
61 55 50
208 157 86
95 84 62
79 71 52
53 48 45
53 48 45
54 49 45
56 51 47
55 50 46
53 48 44
54 49 45
56 50 46
55 50 46
54 49 45
56 49 45
54 48 44
52 47 43
54 49 45
54 49 45
53 48 44
52 47 43
55 50 45
52 46 42
53 48 44
54 48 44
55 50 45
54 49 45
55 49 45
54 48 44
56 51 46
55 49 45
54 48 44
55 50 46
55 50 45
56 50 46
54 49 45
54 49 45
54 49 45
74 64 50
55 50 46
73 63 49
55 50 46
57 51 45
64 56 51
75 65 50
59 53 48
56 51 46
81 72 54
54 48 44
79 70 52
59 53 49
62 56 51
87 78 60
59 54 49
53 49 44
56 52 46
62 57 50
55 52 44
60 60 41
65 71 36
103 115 42
60 63 39
63 66 39
55 53 43
50 45 42
53 48 44
54 49 45
55 50 45
52 47 43
54 49 45
54 49 45
55 49 45
52 47 43
51 46 42
54 49 45
52 47 43
55 49 45
53 48 44
79 70 51
52 47 43
77 69 50
53 48 44
51 46 42
50 45 41
49 44 40
50 44 40
51 46 42
67 57 42
51 46 42
46 41 38
48 43 39
48 43 39
41 36 33
43 39 35
35 30 27
43 30 27
34 21 20
38 13 17
41 14 18
47 16 20
47 16 21
48 17 21
49 17 21
51 18 22
49 17 21
48 17 21
48 17 21
46 16 20
45 16 20
45 33 31
48 43 39
49 44 40
48 43 39
50 45 41
51 46 42
48 42 39
52 47 43
50 45 41
51 46 42
53 48 44
52 47 43
51 46 42
53 48 44
53 48 43
53 48 44
53 49 44
54 49 45
53 48 44
54 49 45
53 48 44
50 45 41
49 44 41
55 49 43
51 46 42
48 43 39
47 42 39
51 47 42
45 41 37
47 47 25
52 53 26
64 66 32
66 68 33
67 69 34
67 68 33
74 76 37
71 72 35
71 73 36
73 75 36
71 74 36
70 69 33
71 68 32
62 53 28
98 66 52
111 72 61
113 73 61
118 76 64
118 76 65
120 78 65
120 78 65
120 77 65
118 76 64
119 77 65
117 75 64
102 69 60
55 49 46
56 51 46
54 50 45
54 49 45
52 47 43
52 46 43
53 47 43
55 50 46
56 51 46
53 48 44
55 50 46
53 48 44
55 50 46
55 50 46
56 51 47
54 49 45
56 51 47
55 50 46
56 51 47
56 51 47
55 50 46
55 50 46
56 51 47
56 51 47
55 50 46
55 50 46
56 51 47
57 52 47
55 51 46
56 51 47
55 50 46
56 51 47
56 51 47
55 50 46
56 51 47
55 50 46
61 52 48
66 52 48
105 76 57
104 76 56
66 52 48
64 52 48
56 50 46
55 50 46
55 50 46
55 50 46
56 51 47
55 50 46
55 50 46
56 51 47
55 50 46
60 55 47
76 72 52
79 76 54
80 77 55
81 77 55
79 76 54
81 77 55
80 77 54
80 76 54
81 77 55
78 75 54
143 134 70
78 74 53
73 70 51
140 131 67
101 94 54
56 51 47
55 50 46
55 50 46
55 50 46
55 50 45
55 50 46
55 50 46
55 50 47
55 50 46
55 50 46
55 50 46
56 50 47
54 48 46
56 51 47
53 47 45
56 50 47
53 47 45
54 48 45
49 44 42
48 43 41
47 41 41
45 39 39
39 34 34
32 27 29
35 29 31
25 21 22
32 27 28
24 20 22
27 23 25
27 23 25
69 61 42
34 28 30
43 38 38
47 41 41
72 58 49
51 46 43
53 48 45
52 47 44
75 61 52
56 51 47
55 49 46
54 49 45
56 51 47
55 50 46
55 50 46
55 50 46
64 44 61
69 41 68
71 42 69
72 42 70
71 42 70
71 42 69
72 42 70
72 43 70
70 42 69
71 42 69
71 42 69
69 41 67
69 41 68
105 61 78
105 70 73
55 50 46
55 50 46
54 49 45
54 49 45
63 53 50
53 48 45
56 51 47
56 51 47
55 50 46
81 72 54
55 50 46
56 50 47
56 51 47
55 50 46
55 50 46
56 51 47
55 51 46
57 52 47
81 72 54
56 51 47
56 51 47
81 73 54
55 50 47
56 51 47
81 72 54
57 52 47
56 51 47
55 51 47
56 51 47
56 51 47
81 72 54
55 50 46
55 50 46
55 50 46
56 51 47
55 50 46
81 73 54
54 49 45
54 49 45
54 49 45
54 49 45
79 71 52
51 47 43
50 46 42
75 67 47
41 36 33
70 62 42
39 33 30
49 38 29
52 40 29
59 44 33
61 46 34
84 77 39
62 48 35
56 50 31
53 39 29
54 40 30
83 48 28
32 28 26
39 34 31
46 42 38
42 38 34
49 44 40
51 46 42
53 48 44
55 50 46
79 71 52
80 71 53
80 72 53
80 72 53
55 50 46
56 51 47
56 51 47
56 51 47
54 50 45
56 50 46
100 89 61
55 50 46
92 78 54
81 73 54
81 73 55
56 51 47
56 51 47
56 51 47
81 73 55
55 50 46
56 51 47
55 50 46
56 51 47
56 51 47
54 49 45
81 72 54
74 64 50
80 71 53
80 72 54
55 50 46
80 72 54
56 51 46
93 75 68
68 50 47
71 61 53
83 75 56
62 56 51
61 55 50
103 92 64
64 58 52
60 54 48
101 87 57
151 71 55
82 72 65
80 72 54
55 50 46
81 72 54
55 50 46
80 71 53
55 50 46
55 50 46
54 49 45
56 51 47
54 49 45
53 48 44
55 49 45
54 49 45
54 49 45
55 49 45
55 50 46
55 50 46
54 49 45
55 49 45
54 49 45
54 49 45
54 48 44
55 49 45
54 49 45
54 49 45
55 49 45
56 51 46
56 51 46
55 50 46
55 50 46
54 49 45
54 49 45
55 50 46
54 49 45
55 50 46
55 50 46
54 49 45
54 49 45
53 48 45
54 49 45
54 49 45
83 75 56
70 63 55
61 55 49
53 48 44
53 48 45
78 70 51
62 56 50
97 85 59
87 77 59
56 53 45
56 51 46
59 54 48
63 59 51
141 151 54
106 121 37
74 86 31
110 126 37
109 125 37
75 87 32
73 84 31
73 84 31
65 71 36
54 51 43
53 48 44
54 49 45
51 46 42
54 49 45
54 49 45
54 49 45
51 46 42
54 49 45
53 48 44
51 46 42
53 48 43
54 49 45
52 47 43
53 48 44
53 48 44
50 45 41
56 45 41
50 46 42
49 44 40
52 47 42
58 47 42
49 44 40
60 51 40
61 43 39
54 42 39
77 68 49
43 38 35
49 37 34
37 33 30
42 29 27
64 56 34
32 16 17
38 13 17
38 13 17
42 15 19
42 14 18
82 22 21
44 15 19
45 16 20
41 14 18
44 15 19
47 16 20
39 23 23
39 35 32
44 39 36
48 43 39
49 44 40
51 46 42
53 48 44
48 43 40
53 48 44
52 47 42
52 47 43
79 70 51
53 48 44
55 49 45
53 48 44
51 46 42
55 50 46
54 48 44
53 47 43
53 48 45
53 48 44
49 45 41
53 48 44
52 48 44
52 47 42
49 45 41
46 42 38
45 41 37
49 44 40
41 38 34
39 37 25
47 48 24
54 55 27
57 58 28
63 64 32
66 67 33
67 68 33
68 68 33
72 75 36
69 70 34
62 61 29
69 67 32
69 66 32
92 60 48
102 66 55
108 70 60
115 74 63
117 76 64
119 77 65
119 77 65
119 77 65
120 78 66
119 77 65
119 77 65
118 77 65
118 76 65
94 66 57
55 50 46
54 49 45
55 50 45
54 49 45
54 49 45
54 49 45
54 49 45
54 49 45
56 51 47
54 48 44
55 50 46
55 50 46
56 51 46
55 50 46
54 48 45
56 51 47
56 50 46
55 50 46
54 49 45
56 51 47
55 51 46
56 51 47
56 51 47
56 51 47
56 51 47
56 51 47
56 51 47
56 51 47
56 51 47
56 51 47
56 51 47
56 51 47
56 51 47
61 50 46
72 53 50
75 54 50
75 54 50
75 54 50
96 61 50
74 53 50
74 53 50
174 122 77
62 51 47
56 51 47
54 49 45
56 51 47
56 51 47
54 49 46
55 50 46
56 51 47
67 63 48
87 78 53
77 74 53
78 74 53
80 77 55
80 77 55
80 77 55
79 76 54
79 76 54
77 74 53
116 109 63
114 107 62
78 75 54
73 69 50
70 66 49
107 99 57
55 51 46
52 48 44
55 50 46
54 49 45
54 49 45
54 49 45
56 51 47
54 49 46
55 50 46
56 51 47
55 50 47
55 50 45
54 49 45
55 50 46
53 48 45
53 47 45
73 48 45
53 47 45
53 47 44
50 44 43
47 42 40
48 42 41
40 34 36
42 36 37
38 33 33
35 29 31
37 31 33
34 29 30
32 28 29
40 34 35
42 36 36
44 38 39
47 42 40
48 41 41
52 46 45
70 56 49
55 49 46
79 70 52
55 50 46
56 50 47
55 50 46
55 50 46
56 50 47
75 61 52
54 49 46
54 48 46
67 39 66
67 40 67
69 41 68
69 41 68
71 42 69
71 42 69
72 43 70
73 43 71
71 42 70
70 42 69
69 41 67
68 40 67
68 41 67
64 38 64
59 36 58
60 50 48
54 49 46
51 47 43
54 49 45
55 50 46
55 50 46
55 50 46
55 50 46
56 51 47
55 50 46
55 50 46
56 51 47
54 49 45
55 50 46
81 73 54
55 51 47
56 51 47
56 51 47
55 50 46
56 51 47
56 51 47
56 51 47
55 50 46
56 51 47
56 51 47
80 72 54
81 72 54
56 51 47
56 51 47
56 51 47
54 50 46
56 51 47
56 51 46
81 72 54
81 72 54
80 71 53
54 49 45
55 50 46
52 47 44
80 71 53
53 48 45
52 47 43
54 49 45
76 68 49
49 44 41
43 39 36
39 35 32
36 32 30
36 33 30
33 27 21
35 27 20
52 39 29
46 36 27
45 34 25
45 34 26
37 28 21
31 26 24
32 27 23
37 34 31
44 40 37
42 38 34
77 68 50
51 47 43
49 45 41
52 47 44
51 46 42
55 50 46
54 49 45
67 57 46
55 50 46
81 73 55
81 73 55
75 65 51
56 51 47
81 73 55
56 51 47
55 50 46
56 51 46
56 51 47
56 50 46
56 51 47
56 51 47
81 72 54
56 51 47
81 72 54
56 51 47
55 50 46
54 49 45
56 51 47
55 50 46
55 50 46
54 49 45
100 89 60
80 72 53
55 50 46
53 49 45
54 49 45
53 48 45
62 56 51
103 88 78
172 96 84
145 135 67
208 170 97
91 82 62
48 43 36
60 46 41
162 140 75
255 255 230
185 124 65
54 50 46
54 50 46
53 48 45
55 50 46
54 49 45
54 49 45
56 51 46
81 72 54
71 61 47
55 50 46
55 50 46
55 50 46
55 50 45
55 50 46
55 50 46
56 50 46
56 50 46
55 50 46
51 46 42
73 63 49
55 49 45
56 50 46
55 50 45
55 49 45
55 50 46
74 64 50
55 50 46
56 50 46
55 50 45
54 48 44
53 48 44
54 49 45
55 50 46
55 50 46
54 49 44
55 50 46
53 49 45
54 49 45
81 72 54
80 72 53
55 50 46
55 50 46
73 63 49
55 50 44
51 46 40
55 50 45
55 49 45
68 62 55
61 55 49
59 54 48
53 48 45
78 70 51
59 54 48
67 62 53
65 71 37
108 123 37
135 153 42
75 87 32
75 87 32
76 88 32
75 86 31
76 89 32
75 87 32
73 85 31
69 79 31
59 58 41
53 48 43
56 51 46
61 59 45
51 46 42
53 48 44
54 49 45
54 49 45
51 46 42
54 50 45
55 50 46
53 47 43
54 49 44
52 47 43
53 48 44
53 48 44
54 49 45
51 46 42
51 46 42
50 45 41
51 46 42
52 47 43
76 68 49
48 43 39
48 43 39
46 41 37
47 42 38
50 38 35
37 33 30
38 33 31
33 30 28
25 22 21
30 17 15
29 10 13
37 13 16
36 12 16
41 14 18
46 16 20
42 14 18
76 19 17
47 18 20
40 28 27
72 64 44
45 41 37
45 41 37
46 42 38
48 44 40
49 45 41
52 47 43
50 45 41
52 47 43
54 49 44
52 47 42
52 47 43
55 50 45
52 47 43
55 50 46
54 49 44
55 49 45
53 48 44
53 48 44
52 47 43
53 48 44
53 48 43
53 48 44
53 48 44
51 47 43
51 47 43
42 39 35
44 40 36
43 39 35
45 40 37
39 36 32
48 49 24
52 53 26
56 58 28
61 62 30
59 58 29
63 64 31
60 60 30
62 62 30
64 64 31
64 61 29
59 55 26
63 49 30
99 64 54
105 68 58
107 70 59
116 75 64
115 74 64
117 76 64
117 76 65
119 77 65
120 77 66
119 77 65
119 77 65
119 77 65
117 76 65
116 74 63
91 64 56
55 50 46
54 49 45
55 50 46
55 50 46
56 51 47
55 50 46
54 49 45
56 51 46
55 50 46
55 50 46
56 51 47
56 51 47
56 51 47
55 50 46
55 50 46
56 51 47
56 51 47
56 50 46
55 50 46
56 51 47
55 50 46
55 50 46
56 51 47
55 50 46
56 51 47
57 52 47
56 51 47
56 50 46
55 50 46
63 54 48
57 51 47
66 50 47
74 54 50
75 54 50
75 54 50
75 54 50
76 54 50
110 78 59
74 54 50
75 54 50
73 53 49
155 109 71
101 74 55
54 49 45
55 50 46
56 51 47
55 50 46
54 50 45
57 52 47
72 69 49
71 68 49
78 75 54
78 75 53
79 76 54
79 75 54
78 75 54
77 74 53
78 75 54
79 76 54
75 72 52
75 72 52
75 72 52
111 104 59
66 63 46
62 59 44
51 47 43
54 49 45
52 47 43
55 50 46
55 50 46
56 51 47
54 49 46
55 50 46
54 49 45
55 50 46
55 50 47
54 49 46
56 51 47
54 48 45
55 50 46
62 54 48
55 50 46
54 49 46
51 46 44
53 47 44
49 42 42
48 43 41
45 39 39
44 38 38
46 40 39
43 38 37
42 35 37
37 32 33
42 37 37
44 38 38
48 42 42
48 42 41
50 45 43
54 48 46
53 47 45
52 45 44
95 80 59
57 49 47
80 71 53
54 49 46
54 49 46
55 49 46
55 49 45
54 49 45
80 72 53
56 44 52
67 40 67
67 40 67
70 42 69
69 41 67
103 60 80
69 41 69
71 42 70
69 41 68
71 42 69
68 40 67
69 41 68
69 41 68
66 39 65
62 37 61
60 35 60
55 47 49
53 48 45
54 49 45
78 70 51
54 49 45
62 52 49
55 50 46
55 50 46
54 49 45
80 72 54
55 50 46
55 50 46
56 51 47
81 73 54
55 51 46
81 73 55
56 51 47
56 51 47
56 51 47
56 51 47
56 51 47
56 51 47
55 50 46
56 51 47
56 51 47
56 51 47
56 51 47
56 51 47
56 51 47
55 50 46
81 73 55
56 51 46
56 51 47
55 50 46
55 50 46
55 50 45
80 71 53
54 50 46
54 49 45
55 50 46
51 46 43
53 48 44
54 49 45
52 47 43
49 45 41
47 43 39
71 63 43
33 29 27
32 28 26
24 21 19
26 23 22
22 18 15
23 19 16
42 38 24
23 20 19
24 22 20
33 30 28
36 32 30
40 36 33
42 38 35
43 38 35
52 47 44
50 45 41
83 71 50
53 48 44
79 70 52
56 51 46
79 71 52
55 50 46
55 50 46
80 72 54
69 58 48
55 50 46
56 51 47
55 50 46
56 51 47
81 73 54
56 51 47
55 50 46
55 50 46
56 51 47
55 50 46
55 50 46
56 51 46
55 50 46
100 89 61
55 50 46
56 51 46
55 50 46
54 49 45
55 50 46
70 59 47
80 72 54
55 50 46
54 50 46
54 50 46
54 50 46
81 72 54
54 49 45
53 48 44
83 76 67
108 99 86
119 110 95
255 255 255
255 255 255
255 255 255
255 255 220
224 198 106
55 50 46
54 49 46
55 50 46
80 72 53
99 88 60
55 50 45
55 50 46
56 51 47
55 50 46
69 59 46
53 49 45
81 72 54
54 49 45
53 47 43
54 49 45
56 50 46
55 50 46
55 50 46
53 48 44
56 50 46
55 50 46
54 49 45
54 50 45
55 49 45
55 50 45
54 49 45
55 50 45
56 51 47
55 50 46
56 50 47
55 50 46
74 64 49
54 49 45
56 51 47
55 51 46
55 50 46
55 50 46
54 50 46
53 48 45
55 50 46
55 50 46
55 51 47
53 49 45
54 49 45
55 50 46
49 44 39
44 39 35
77 67 52
58 52 48
55 50 45
84 75 56
77 68 52
59 53 48
68 62 54
64 72 33
107 122 36
108 123 37
135 153 41
74 87 32
76 88 32
76 88 32
75 87 32
75 87 32
75 87 32
74 86 31
99 110 34
68 78 28
54 50 43
53 48 44
54 50 45
50 46 42
50 45 41
53 48 44
52 48 44
54 49 45
52 48 43
52 47 43
53 48 44
54 49 45
53 48 44
55 50 46
50 44 40
53 48 43
78 70 51
55 50 45
51 46 42
50 45 41
51 46 42
49 44 40
50 45 41
47 42 39
48 43 40
57 46 42
75 67 47
42 38 34
43 38 35
42 37 34
67 59 38
25 22 21
18 15 15
62 53 30
28 11 13
28 10 13
28 11 14
32 15 17
30 20 20
36 32 30
39 35 32
36 32 30
42 38 35
44 39 36
49 45 41
52 47 43
50 45 41
49 44 41
52 47 42
51 46 42
53 47 43
53 48 44
53 48 44
52 47 43
51 46 42
52 47 43
52 47 43
52 47 43
52 48 43
52 47 43
51 46 42
52 47 43
50 46 42
53 48 44
50 46 41
49 45 41
53 45 39
48 44 40
45 41 37
45 41 37
40 36 33
31 28 25
36 35 25
49 49 24
50 52 26
54 54 27
54 55 27
58 57 28
62 62 31
58 59 29
57 56 27
54 49 23
54 51 24
86 56 47
100 65 55
101 65 56
111 71 61
113 73 63
116 75 64
116 75 64
117 76 65
118 76 65
118 76 64
117 75 64
118 77 65
117 75 64
115 75 64
114 74 63
107 70 61
56 49 45
54 49 45
56 51 47
54 49 45
56 51 47
55 50 46
55 50 46
56 51 47
55 50 46
55 50 46
56 51 47
56 51 47
56 51 47
56 51 47
55 50 46
56 51 47
55 51 46
56 51 47
56 51 47
55 50 46
56 51 47
56 51 47
56 51 47
56 51 47
56 51 47
55 50 46
56 51 47
56 51 47
54 50 46
56 51 47
68 52 49
73 52 49
75 54 50
75 54 50
74 53 50
75 54 50
75 54 50
74 54 50
73 53 49
75 54 50
71 51 47
106 75 56
155 108 71
126 91 60
54 50 46
54 49 45
55 50 46
53 48 44
67 56 44
67 63 45
73 70 50
74 71 51
76 73 53
74 71 51
77 74 53
76 73 52
73 71 51
78 75 54
76 73 52
77 74 53
74 71 51
69 66 48
66 64 46
67 64 47
59 56 41
51 47 42
52 48 44
50 45 42
54 50 46
62 56 46
53 48 44
63 57 47
54 49 45
55 50 46
53 49 45
55 50 46
63 58 48
54 49 46
55 49 46
55 50 46
55 50 46
55 50 46
54 49 46
55 49 47
53 47 45
52 46 44
51 45 43
53 48 45
48 42 42
47 42 41
50 45 43
49 43 42
49 44 42
52 46 44
48 43 42
50 44 43
53 48 45
54 48 45
75 62 52
54 49 46
76 62 53
55 49 46
76 62 53
54 49 46
55 50 46
56 50 47
55 50 46
54 49 45
54 49 45
54 49 46
57 41 55
63 38 63
66 39 66
68 40 67
70 41 69
68 40 67
68 40 67
69 41 67
69 41 68
66 40 66
68 41 67
66 39 65
64 38 64
62 37 61
60 36 60
55 32 54
53 41 49
55 50 46
85 74 56
51 47 43
55 50 46
80 72 53
55 50 46
56 51 47
56 51 47
54 50 46
54 50 46
55 50 46
56 51 47
56 51 47
56 51 47
56 51 47
82 73 55
56 51 47
56 51 47
56 51 47
55 50 46
55 51 46
81 73 54
54 49 46
55 50 46
56 51 47
56 51 47
56 51 47
56 51 47
81 73 54
55 50 46
56 51 47
55 50 46
56 51 47
56 51 47
81 72 54
56 51 47
55 50 46
55 50 46
54 49 45
99 88 60
55 50 46
54 49 45
52 47 43
51 46 42
44 40 36
46 42 39
39 36 33
39 35 32
36 33 30
30 27 25
21 19 17
31 28 26
28 25 23
30 27 24
31 27 25
37 33 30
42 38 35
38 34 31
75 67 47
48 44 40
52 47 43
78 69 50
51 46 43
52 47 43
54 49 45
55 50 46
55 50 46
55 50 46
56 51 46
81 73 55
56 51 47
55 51 46
81 73 55
55 51 46
56 51 47
81 73 54
55 50 46
55 50 46
56 51 47
55 50 46
56 51 47
81 73 55
80 72 54
72 62 48
53 49 45
55 50 46
55 50 46
55 50 46
56 51 47
55 50 46
80 72 53
80 72 54
55 50 46
55 50 46
54 49 45
54 49 45
54 49 45
54 49 45
80 71 53
53 48 44
53 48 45
56 51 46
64 58 52
61 56 50
55 50 46
54 49 45
53 48 45
54 50 46
54 49 45
55 50 46
54 49 45
54 50 46
54 50 46
55 50 46
55 50 46
81 72 54
55 50 45
55 50 46
55 50 46
55 50 46
80 71 53
56 50 46
71 62 48
81 73 55
55 50 46
55 50 46
56 50 46
56 51 47
56 51 47
56 51 47
55 49 45
55 50 46
54 49 45
56 50 46
54 49 45
54 49 45
56 51 47
56 51 47
55 50 46
55 50 46
55 50 46
55 50 46
55 50 46
81 72 54
55 50 46
54 49 45
55 50 46
55 50 46
55 50 46
54 49 45
54 50 46
53 49 45
54 49 45
56 50 42
57 46 32
59 53 47
114 96 58
79 69 52
90 77 54
53 49 44
80 76 47
102 117 33
71 83 30
73 84 31
74 86 31
73 85 31
75 87 32
75 87 32
76 88 32
76 88 32
75 87 32
74 86 32
73 85 31
72 84 31
61 68 34
53 48 44
53 48 44
54 49 45
52 47 43
52 47 43
51 46 42
54 49 45
54 49 44
54 49 45
52 47 43
54 49 45
51 46 42
52 47 43
54 49 45
53 48 44
54 49 45
52 47 43
54 49 45
98 82 56
52 47 43
51 46 42
54 49 45
77 69 50
51 46 42
50 45 41
53 42 38
44 39 36
42 38 35
41 36 33
40 35 32
39 34 32
30 27 25
24 22 20
24 22 20
19 17 16
26 23 21
23 21 19
25 22 21
27 23 22
38 34 32
44 39 36
41 37 34
45 40 37
47 42 39
49 44 40
52 47 43
49 44 41
54 49 45
51 46 42
53 48 44
51 47 42
54 48 44
53 48 44
54 49 44
53 49 44
54 48 44
54 49 45
54 49 45
52 47 43
53 48 44
53 47 43
53 48 44
53 48 44
53 48 44
52 47 43
50 45 41
45 41 37
42 39 35
45 40 37
41 37 33
37 34 31
26 24 21
29 29 20
41 42 21
44 45 22
48 50 25
47 48 24
52 53 26
53 51 25
53 53 26
50 45 22
44 38 21
91 59 50
103 66 54
102 66 58
109 71 61
109 70 61
109 70 60
110 71 60
112 72 62
112 72 62
116 75 64
115 74 63
117 76 65
118 76 65
116 75 64
116 75 64
109 70 60
69 54 48
54 49 45
55 50 46
54 49 45
56 51 47
56 51 47
55 50 46
56 51 47
55 50 46
56 51 47
56 51 47
57 51 47
55 51 47
56 51 47
55 50 46
56 51 47
56 51 47
55 50 46
56 51 47
56 51 47
56 51 47
56 51 47
56 51 47
55 50 46
54 49 45
55 50 46
56 51 47
56 51 47
56 51 47
60 50 46
72 52 49
73 53 49
75 54 50
74 53 50
75 54 50
74 54 50
74 53 50
74 53 50
73 53 49
73 53 49
70 51 47
70 51 47
104 74 55
101 71 51
54 48 44
54 49 45
55 50 45
62 53 47
54 50 43
64 60 43
69 66 48
69 66 47
73 70 50
72 69 50
74 71 51
74 71 51
75 72 51
77 74 53
74 71 51
72 70 50
71 69 50
71 68 49
65 63 45
65 62 45
55 53 39
50 46 42
52 48 44
50 46 42
52 48 44
53 48 44
54 49 46
54 49 45
53 48 45
55 50 46
54 48 45
55 50 46
56 51 47
55 50 46
55 50 46
55 50 46
56 50 47
53 48 45
54 49 45
54 48 46
51 46 43
54 49 46
54 48 46
53 47 45
53 48 44
50 44 43
51 45 43
50 44 43
54 48 46
51 45 44
79 69 53
52 46 44
51 45 43
54 48 45
80 71 53
53 47 44
54 49 45
54 49 46
54 49 45
56 50 47
55 50 47
55 49 46
55 49 46
53 48 45
54 49 46
54 49 45
57 43 53
60 35 60
67 40 67
66 39 66
62 37 62
67 40 66
68 40 67
66 39 66
65 39 64
66 39 66
67 40 67
64 38 63
66 39 66
62 37 62
58 35 58
57 34 52
50 39 46
49 44 41
51 46 43
51 46 43
60 50 47
55 50 46
52 47 44
54 49 46
55 50 46
81 72 54
55 50 46
81 72 54
56 51 47
59 54 48
55 50 46
56 51 47
55 51 47
55 50 46
55 51 46
56 51 47
56 51 47
55 51 47
55 50 46
55 51 46
56 51 47
81 73 55
56 51 47
56 51 47
56 51 47
56 51 46
56 51 47
56 51 47
55 50 46
55 50 46
55 50 46
56 51 47
55 50 46
55 50 46
80 71 53
99 88 59
52 47 43
50 45 42
53 48 44
54 49 45
51 46 42
50 45 41
49 44 41
46 42 38
45 40 37
44 40 36
39 36 33
40 36 34
37 33 31
35 32 29
40 36 33
39 35 32
46 42 39
47 42 37
44 40 37
50 45 41
49 45 41
49 45 41
53 49 44
54 49 45
54 49 45
52 48 44
53 48 44
56 51 47
56 51 47
100 89 61
55 51 46
55 50 46
54 49 45
63 54 46
80 72 54
80 71 53
56 51 47
56 51 47
55 50 46
80 72 53
55 50 46
80 72 54
55 50 46
55 50 46
55 50 46
56 51 47
56 51 47
79 71 53
55 50 46
55 50 46
55 50 45
54 49 45
80 72 53
54 49 44
55 50 46
56 51 46
61 51 44
55 50 46
54 50 46
80 71 53
55 50 46
53 49 45
55 50 46
54 49 46
54 49 45
54 49 45
55 50 46
53 49 45
55 50 46
53 49 45
55 50 47
53 49 45
54 49 46
55 50 46
55 50 46
55 50 46
55 50 46
56 51 47
55 50 46
54 49 45
55 50 46
80 71 53
55 50 46
56 51 47
55 50 46
81 73 54
55 50 45
56 51 46
56 51 47
56 51 46
55 50 46
55 50 46
55 50 46
54 49 45
55 50 46
54 49 45
56 51 47
55 50 46
54 49 45
56 51 47
55 50 46
56 51 46
54 49 45
74 64 50
81 72 54
54 49 45
54 49 45
54 50 45
55 50 46
55 50 46
54 49 46
55 50 46
99 88 60
54 49 45
54 49 45
69 58 45
88 70 45
108 63 53
104 134 79
93 87 74
92 85 74
64 72 26
106 121 35
69 81 30
71 82 30
72 84 31
74 86 32
74 86 32
75 87 32
75 87 32
75 87 32
74 87 32
76 88 32
71 83 31
71 81 30
67 77 28
55 54 42
54 49 45
53 48 44
52 47 43
54 49 45
53 48 44
53 48 43
54 49 45
54 48 44
50 46 41
53 48 44
54 49 45
54 50 45
79 70 52
53 48 44
51 46 42
54 49 44
54 49 45
52 47 43
52 47 43
53 48 44
49 44 41
53 48 44
51 46 42
48 43 40
48 43 39
44 39 36
45 41 37
45 40 37
41 37 35
37 33 30
33 30 28
31 28 26
34 30 28
31 27 25
28 25 24
34 30 28
40 36 33
34 30 28
39 35 33
44 40 37
42 38 35
47 42 39
48 43 40
50 45 41
51 46 42
56 45 41
53 48 44
53 48 44
53 47 44
54 48 44
54 49 45
54 49 45
54 49 45
51 46 42
54 49 45
53 48 44
51 46 42
53 48 44
53 48 44
52 47 43
54 49 45
54 49 45
55 50 45
51 46 42
50 45 41
52 47 43
45 40 37
43 40 36
42 38 34
36 32 29
25 23 20
21 19 16
24 23 16
35 36 18
41 42 21
36 36 18
44 43 21
43 43 21
43 38 19
36 33 16
40 31 20
88 58 49
92 60 52
102 66 56
109 70 60
107 69 59
110 71 61
113 73 62
114 72 62
113 73 62
113 73 62
113 72 62
113 73 62
112 72 62
115 74 63
112 73 63
107 69 60
79 57 51
54 49 44
55 50 46
56 51 47
55 50 46
55 51 47
56 51 47
56 51 47
56 51 46
55 50 46
55 50 46
56 51 47
56 51 47
56 51 47
55 50 46
55 50 46
56 51 47
55 51 46
56 51 47
56 51 47
55 50 46
56 51 47
56 51 47
55 50 46
55 51 46
55 50 46
55 50 46
55 50 46
56 50 46
67 49 46
71 51 48
72 52 49
75 54 50
75 54 50
75 54 50
75 54 50
73 53 49
73 52 49
73 52 49
72 52 48
69 50 47
70 50 48
104 74 55
63 46 42
53 43 39
52 47 43
53 48 44
78 70 52
52 48 43
55 52 37
71 68 49
70 67 49
62 60 43
73 70 51
74 71 51
68 65 47
71 68 49
72 69 50
72 69 50
71 68 49
66 63 46
65 62 45
63 61 44
56 54 40
48 46 34
62 58 45
60 55 44
50 45 41
60 55 44
53 48 44
54 49 45
52 48 44
53 48 44
54 49 45
55 50 47
54 49 46
56 51 47
55 50 46
54 49 45
55 50 46
56 51 47
55 49 46
55 50 47
55 49 46
55 49 46
55 49 46
53 47 45
52 47 44
52 46 45
52 46 44
50 44 42
52 46 44
54 48 46
53 47 45
55 50 46
53 48 45
53 48 45
55 49 46
56 50 47
55 49 46
54 49 46
56 50 46
55 50 46
80 72 54
54 48 45
53 48 45
80 72 54
55 49 46
53 48 45
53 48 45
54 37 52
59 35 59
64 38 63
65 39 65
65 39 65
65 39 65
63 38 63
66 38 63
67 40 66
65 39 65
65 38 64
61 37 61
69 41 64
54 32 54
52 31 51
52 31 52
49 42 42
51 46 43
51 46 43
51 47 43
52 47 43
61 51 48
55 50 46
53 48 45
65 53 49
55 51 46
55 50 47
56 51 47
56 51 47
55 51 47
56 51 47
56 51 47
56 51 47
55 50 46
56 51 47
56 51 47
56 51 47
56 51 47
80 72 54
56 51 47
55 50 46
81 73 54
56 51 47
56 51 47
56 51 47
56 51 47
55 50 46
81 72 54
55 50 46
55 50 46
55 50 46
56 50 46
56 51 47
55 50 46
53 48 44
54 49 45
80 71 53
55 50 46
54 49 45
79 70 52
52 47 43
50 45 41
49 45 41
48 43 40
47 42 39
45 41 37
42 38 35
52 55 37
41 37 34
45 41 37
43 39 36
48 43 40
50 46 42
49 45 41
48 43 40
48 43 40
52 48 44
53 48 44
52 47 43
79 71 53
80 72 54
54 49 45
55 50 46
56 51 46
55 50 46
56 51 47
57 52 47
56 51 47
81 73 55
56 51 47
55 50 46
55 50 46
55 50 46
56 51 47
55 50 46
56 51 47
55 50 45
56 51 47
55 50 46
70 58 46
100 89 61
55 50 46
99 88 60
56 51 47
54 50 46
56 51 47
54 49 45
55 50 46
55 50 46
54 49 44
81 72 53
55 50 46
54 49 45
91 80 54
80 71 53
54 49 45
54 50 46
54 49 45
54 49 46
54 50 46
54 49 45
55 50 46
53 48 44
55 50 46
54 50 46
80 71 53
76 62 50
55 50 46
55 50 46
55 50 46
55 50 46
81 72 54
99 88 60
81 72 54
55 50 46
55 50 46
81 72 54
55 50 46
56 51 47
55 50 46
56 51 46
55 50 46
55 50 46
99 88 60
56 50 46
55 50 46
54 49 45
55 50 46
55 50 46
54 49 45
54 49 45
55 50 46
56 51 47
55 50 46
56 51 47
56 51 46
56 51 47
55 50 46
56 51 47
54 49 45
56 51 47
55 50 46
55 50 46
54 49 45
55 51 46
54 49 45
54 49 46
52 47 43
54 49 45
54 49 45
80 71 53
54 50 46
56 51 46
102 81 56
255 255 131
101 93 81
99 93 78
101 115 33
66 77 28
66 77 29
70 81 30
72 83 30
71 83 30
73 85 31
74 86 32
75 87 32
74 86 32
74 87 32
73 85 31
73 85 31
71 83 31
69 80 29
58 64 34
55 50 46
53 48 44
54 49 45
53 48 44
54 49 45
53 48 44
53 48 44
53 48 44
54 49 45
55 50 46
53 48 44
79 70 52
55 50 46
53 48 44
52 47 43
52 47 43
55 49 45
54 48 44
52 47 42
52 47 43
53 48 44
53 48 44
51 46 42
51 46 42
59 48 44
52 47 43
49 44 41
46 41 38
49 44 40
42 38 35
44 40 37
35 31 29
39 36 33
41 37 34
41 37 34
33 29 27
45 40 37
44 40 37
45 40 37
48 43 40
47 43 39
49 43 40
48 43 40
48 44 40
51 47 43
52 47 43
51 46 43
53 48 44
53 48 44
51 46 42
51 46 42
51 46 42
55 50 45
54 49 45
54 49 45
54 50 45
53 48 44
53 48 43
54 49 44
53 48 44
55 50 45
53 48 44
52 48 44
53 48 44
50 46 42
49 44 40
50 45 41
48 44 40
41 37 33
42 38 34
41 38 34
33 31 27
28 25 23
18 17 15
19 19 11
22 22 14
28 29 14
23 22 11
28 27 14
21 19 13
33 25 21
87 57 49
89 57 50
95 61 54
98 63 55
103 67 58
108 70 61
107 68 59
113 72 62
112 73 62
112 71 61
112 71 61
108 70 60
110 70 61
110 70 60
109 71 61
104 67 58
73 55 50
54 49 45
56 51 47
56 51 47
55 51 46
56 51 47
56 51 47
55 50 46
56 51 47
56 51 47
56 51 47
54 49 45
56 51 47
55 50 46
56 51 47
55 50 46
55 51 46
55 50 46
55 50 46
55 50 46
59 52 46
55 50 46
55 50 46
56 51 47
53 48 45
55 49 46
55 50 46
55 50 46
58 49 45
69 50 47
71 51 48
73 53 49
73 53 49
73 52 49
71 51 48
74 53 50
73 52 49
72 52 49
73 53 49
69 50 47
71 51 48
68 49 47
103 72 54
62 45 42
53 38 33
52 47 43
51 46 42
52 47 43
53 48 44
52 48 35
65 63 45
70 68 49
69 66 47
67 63 46
70 67 48
64 62 45
69 66 48
67 64 47
68 65 48
59 57 42
66 63 46
65 63 45
58 56 41
54 52 38
50 47 36
52 48 37
49 45 42
61 56 45
49 45 41
53 48 44
54 49 45
51 46 43
53 48 44
53 48 45
54 49 45
56 51 47
56 51 47
55 50 46
55 50 46
55 50 46
56 50 47
54 49 46
55 49 46
55 50 47
55 50 46
55 50 46
52 47 45
54 49 46
54 48 46
54 49 46
52 47 44
56 50 47
53 47 45
54 48 45
55 50 46
54 49 46
54 49 46
54 49 46
56 50 47
56 50 47
55 50 46
55 50 46
54 49 46
55 50 46
54 49 46
54 49 45
52 47 44
53 48 45
53 48 45
53 48 44
50 40 46
55 33 55
56 33 57
62 37 62
61 36 61
63 37 63
63 37 62
62 37 62
62 37 61
63 37 63
55 33 55
56 34 56
56 34 57
56 34 56
57 34 57
48 29 49
48 44 41
44 39 37
49 45 42
53 48 44
80 71 53
55 50 46
54 49 45
61 52 49
55 50 46
55 50 46
53 48 45
55 51 46
55 50 46
56 51 47
55 50 46
55 50 46
55 50 46
56 51 47
55 50 46
56 51 47
56 51 47
55 50 46
55 51 47
56 51 47
56 51 47
56 51 47
56 51 47
56 51 47
55 50 46
56 51 47
83 78 55
55 50 46
56 51 47
54 49 45
56 51 47
56 51 47
55 50 46
54 49 45
81 72 54
54 49 45
54 49 45
55 50 46
55 50 46
54 49 45
52 47 44
53 48 44
51 46 42
50 45 42
52 47 43
51 46 43
47 42 39
46 42 38
49 44 40
48 43 40
48 43 40
50 45 41
47 42 39
78 70 51
51 46 43
78 70 51
79 70 52
53 48 44
50 45 42
79 70 52
80 71 52
54 50 46
55 50 46
56 51 47
55 50 46
55 50 46
55 50 46
56 51 47
56 51 46
56 51 47
55 51 47
55 50 46
55 50 46
81 72 54
56 51 47
80 72 54
55 50 46
55 50 46
56 51 46
55 50 46
56 51 47
81 73 54
56 51 46
55 50 46
54 49 45
54 49 45
67 55 43
91 66 39
99 72 36
104 76 34
106 76 33
104 75 34
98 72 36
86 65 41
80 71 53
54 50 46
55 50 46
55 50 46
55 50 46
99 88 60
53 49 45
80 72 54
78 69 51
116 103 67
100 89 61
55 50 46
54 49 45
55 50 46
55 50 46
55 50 46
55 50 46
56 51 47
55 50 46
55 50 46
55 50 46
55 50 46
53 49 45
54 49 45
81 72 54
81 72 54
56 51 47
55 50 46
55 50 46
54 49 45
56 51 47
56 50 45
55 50 46
55 50 46
56 51 47
56 51 47
55 50 46
56 50 46
56 51 46
56 51 47
55 50 46
56 51 47
55 50 46
55 50 46
55 50 46
54 49 45
55 50 46
52 48 44
55 50 46
54 49 45
53 48 44
52 47 43
51 46 42
72 62 46
51 46 42
52 46 42
52 47 42
55 50 46
55 50 46
52 48 44
51 47 42
53 48 44
61 64 39
63 73 27
67 78 29
66 76 28
71 83 31
70 82 30
70 82 30
72 84 31
72 84 31
72 84 31
73 85 31
74 86 31
72 84 31
72 83 31
70 82 30
70 78 29
57 63 31
50 46 42
71 62 47
55 49 45
94 82 56
53 48 44
54 49 45
52 47 42
54 49 45
53 48 44
54 49 45
53 48 44
80 72 54
53 48 44
73 63 49
54 49 45
54 49 45
80 71 53
78 70 51
54 49 45
63 46 42
52 47 43
52 47 43
51 46 42
51 46 42
52 47 43
77 69 50
48 43 40
48 43 39
48 43 40
49 44 41
46 42 38
47 43 39
45 40 37
43 39 36
75 66 47
74 59 46
46 41 38
47 43 39
45 40 37
47 42 39
50 45 41
51 46 42
53 48 44
50 45 41
52 47 43
51 46 43
53 48 44
52 47 43
54 49 45
52 47 43
52 47 43
54 49 45
54 49 45
55 50 46
51 46 42
54 49 45
54 49 45
52 47 43
55 50 46
55 50 46
53 49 44
53 48 44
52 47 43
51 47 42
53 48 44
52 47 43
49 45 41
48 44 39
41 37 33
44 40 36
40 37 33
37 33 30
30 27 24
22 20 17
25 23 21
16 14 13
20 17 16
17 16 14
19 17 15
21 19 17
29 23 21
68 44 39
106 65 56
94 61 53
97 63 54
98 63 55
105 67 58
106 68 59
106 67 58
106 68 58
105 67 58
111 71 61
105 66 57
107 68 59
104 67 58
107 68 59
98 63 55
73 54 48
54 49 45
56 51 47
56 51 47
56 51 47
56 51 47
55 51 47
56 51 47
56 51 47
55 51 46
56 51 47
56 51 47
56 51 47
56 50 46
56 51 47
55 50 46
55 50 46
56 51 47
56 51 46
55 50 46
56 51 47
55 50 46
56 51 47
55 50 46
56 51 47
56 51 47
55 50 46
54 49 45
60 48 45
65 47 44
68 50 47
71 51 48
71 51 48
71 51 48
72 52 49
70 51 48
71 51 48
71 51 48
72 52 48
70 50 47
66 48 45
62 45 43
63 46 43
59 43 40
53 38 36
48 43 40
49 45 41
50 45 41
47 43 40
50 47 37
55 52 38
59 57 42
64 62 45
63 61 44
66 63 46
63 60 44
64 62 45
60 58 42
59 57 42
67 64 47
57 55 40
55 53 39
53 51 37
49 47 34
41 38 34
44 40 37
45 41 38
49 44 40
49 45 41
51 47 43
52 47 43
54 49 45
55 50 46
55 49 46
55 50 45
55 50 46
64 58 48
54 49 46
56 51 47
55 50 46
64 58 48
55 50 47
55 50 47
54 49 46
56 50 47
55 50 46
55 49 46
53 47 45
55 50 46
53 48 45
55 49 46
54 48 46
55 50 46
55 49 46
54 49 46
55 50 46
53 48 45
54 49 46
54 49 46
55 50 46
53 48 45
54 49 45
54 49 46
53 48 45
56 51 47
52 47 44
53 48 45
53 48 44
52 48 44
53 48 44
48 42 42
52 31 52
51 30 52
59 35 59
95 55 70
60 36 61
59 35 59
61 36 60
57 34 57
63 37 62
56 33 57
86 44 58
70 48 61
49 29 49
48 28 48
44 33 42
45 40 38
75 67 49
50 45 42
51 46 43
61 51 48
55 50 46
53 48 45
53 49 45
56 51 47
55 51 46
56 51 47
55 50 46
55 50 46
54 49 46
82 73 55
81 72 54
55 50 46
56 51 46
55 50 46
55 51 46
55 51 46
55 51 46
56 51 47
81 73 54
55 50 46
56 51 47
56 51 47
55 51 47
56 51 47
56 51 47
55 50 46
81 72 54
55 50 46
56 51 47
81 72 54
55 50 46
54 49 45
54 49 45
56 51 47
55 50 46
59 54 47
54 49 44
55 50 46
54 49 45
55 50 46
53 48 44
51 46 43
52 47 43
50 46 42
54 49 45
52 47 43
48 44 40
49 44 40
48 44 40
49 44 41
50 46 42
51 47 43
51 46 43
53 48 44
51 46 42
55 50 46
54 49 45
80 71 53
52 48 44
55 50 46
55 50 46
55 51 46
56 51 46
56 51 47
56 51 47
56 51 47
71 59 47
56 51 47
56 51 47
56 51 47
55 50 46
54 49 45
56 51 47
81 73 54
55 50 46
55 50 46
81 73 55
71 59 47
55 50 46
55 50 46
56 51 47
56 51 46
55 50 46
55 50 46
137 100 46
103 74 33
155 110 39
155 110 39
108 78 34
108 78 34
107 77 33
106 76 33
107 77 33
92 68 37
59 51 44
54 49 45
54 49 46
54 49 45
79 71 52
116 103 66
54 49 46
54 49 45
80 72 54
99 88 60
81 72 54
79 71 53
81 72 54
56 51 47
55 50 46
63 50 47
56 51 46
55 50 46
55 50 45
55 50 46
81 72 54
55 51 47
56 51 47
80 72 53
55 50 46
55 50 46
55 50 46
55 50 46
56 51 47
55 50 46
54 49 45
55 50 46
55 49 45
81 72 54
55 50 46
54 50 45
56 51 47
56 51 47
55 50 46
56 51 46
55 50 46
56 51 47
54 49 45
54 49 45
53 49 45
55 50 46
54 49 45
55 50 46
53 48 44
53 48 44
53 48 44
52 47 43
79 70 51
51 46 42
51 45 40
51 45 40
62 59 43
51 46 42
62 60 46
60 58 43
66 67 42
61 63 38
95 105 29
60 69 25
62 73 27
69 81 30
65 75 28
72 84 31
69 81 30
69 80 30
72 83 31
71 82 30
70 81 30
72 84 31
70 81 30
66 77 29
65 75 28
60 66 30
51 46 42
53 48 44
52 47 43
53 48 44
54 49 44
55 50 46
54 49 45
71 62 47
53 48 43
54 49 45
55 51 46
54 49 45
54 49 45
54 49 44
53 48 44
54 49 45
54 49 45
54 49 45
53 48 44
53 48 44
55 50 46
52 47 42
55 50 46
53 48 44
48 43 40
52 47 43
49 44 40
51 46 42
50 45 41
49 45 41
45 41 37
47 42 39
47 42 39
47 42 39
51 46 42
44 39 36
49 45 41
50 46 42
52 47 43
50 45 42
52 47 43
52 47 43
50 45 41
50 45 42
49 44 40
53 49 45
52 47 43
53 48 44
53 48 44
52 47 43
54 50 46
54 49 45
52 47 43
52 47 43
54 49 45
55 50 45
55 50 46
53 48 43
56 50 46
55 50 46
55 50 45
52 47 43
52 47 43
55 50 45
54 49 45
48 44 40
54 49 45
49 45 40
47 42 38
50 46 42
44 40 36
37 34 30
37 33 30
35 32 29
32 29 27
29 26 23
25 23 21
17 15 13
25 23 21
24 22 20
18 16 15
64 43 37
83 54 47
88 57 49
97 62 54
96 62 54
95 61 53
103 64 56
96 60 52
106 67 57
100 62 54
104 65 56
103 62 54
102 64 55
108 69 60
100 63 54
93 59 52
58 47 43
54 49 45
56 51 47
56 51 47
56 51 47
56 51 47
56 51 47
56 51 47
55 50 46
56 51 47
55 50 46
56 51 47
56 51 47
55 50 46
56 51 47
56 51 47
56 51 47
56 51 47
56 51 47
56 51 47
55 51 47
56 51 47
55 50 46
54 49 45
54 50 46
56 51 46
55 50 46
55 50 46
60 47 44
67 49 46
70 50 47
67 48 45
70 50 47
70 51 48
71 52 48
73 53 49
68 49 46
68 49 46
65 48 45
67 49 46
65 47 44
63 45 43
62 45 42
56 40 38
47 34 32
43 39 36
48 44 40
47 43 39
49 45 41
47 43 39
49 47 35
60 58 42
61 58 42
63 61 45
58 55 40
61 59 43
58 56 41
56 54 40
57 55 40
59 57 42
53 50 37
52 51 37
51 50 36
37 34 29
46 42 30
42 38 35
44 40 37
75 67 48
49 45 41
50 46 42
54 49 45
51 47 43
54 49 45
52 47 44
56 51 46
54 49 45
54 49 45
63 55 48
54 49 45
55 50 46
55 49 46
56 50 46
56 51 47
55 50 46
56 50 47
56 51 47
55 49 46
55 50 47
54 49 46
55 50 47
56 50 47
55 50 47
55 49 46
55 50 47
55 49 46
81 73 54
55 50 46
54 49 46
56 51 47
56 50 47
55 50 46
54 49 45
81 72 54
55 50 46
53 48 45
55 50 46
52 47 44
50 45 42
46 42 39
50 45 42
51 47 43
49 36 47
53 31 53
55 32 55
49 29 50
57 34 57
54 32 55
58 34 58
72 38 58
57 34 57
51 30 52
54 33 54
47 29 48
44 27 45
74 41 48
39 33 34
56 46 44
44 40 37
50 45 42
51 46 43
52 47 44
52 48 44
62 52 49
54 49 45
80 72 54
55 51 46
62 53 49
54 49 46
55 50 46
55 50 46
56 51 47
56 51 47
56 51 47
56 51 47
56 51 47
56 51 47
56 51 47
56 51 47
56 51 47
56 51 47
56 51 47
56 51 47
56 51 47
54 49 45
56 51 47
56 51 47
55 51 46
55 50 46
81 73 55
55 50 46
56 51 47
55 50 46
56 51 47
55 50 46
56 51 47
55 50 46
55 50 46
55 50 46
54 50 46
53 48 44
54 49 45
54 49 45
55 50 46
52 47 44
54 49 45
53 48 44
53 48 44
54 49 45
53 49 45
53 49 43
52 47 43
55 50 46
51 47 43
54 49 45
55 50 46
53 48 44
54 49 45
79 70 52
56 51 47
55 50 46
55 50 46
55 51 46
55 50 46
81 73 54
55 50 46
56 51 47
56 51 47
81 73 54
80 72 53
54 50 46
55 50 46
56 51 47
54 49 45
55 50 46
56 51 47
56 51 47
55 50 46
55 50 46
55 50 46
56 51 46
55 50 46
56 51 46
56 51 47
56 51 47
86 65 39
102 74 32
107 77 33
106 76 33
108 78 33
107 77 33
108 78 34
108 78 34
107 77 33
107 77 33
152 107 37
97 70 33
66 55 43
80 72 54
54 49 45
80 72 54
115 102 66
92 78 55
117 104 67
55 50 46
80 72 54
80 72 54
54 50 46
55 50 46
54 49 45
78 69 51
54 50 46
56 51 47
55 50 46
55 50 46
55 50 46
55 50 46
54 49 45
56 51 47
56 51 46
56 51 47
54 49 45
55 50 46
54 50 45
56 51 47
56 51 46
55 50 46
55 50 46
54 49 45
56 51 46
56 51 47
55 50 45
56 51 47
55 51 46
56 51 46
55 50 46
55 50 46
54 49 45
63 51 46
55 50 45
54 49 45
55 50 46
54 49 45
55 50 46
55 50 46
52 48 44
80 72 53
54 49 45
49 45 41
52 47 43
52 47 43
59 57 41
56 54 38
60 58 42
60 58 44
58 56 41
65 66 41
56 56 37
49 57 21
58 68 25
64 73 26
61 72 27
66 77 28
66 78 28
69 80 30
73 81 30
67 78 29
71 82 30
67 78 29
70 81 30
68 79 29
65 75 28
68 80 30
60 68 29
50 45 41
53 49 44
50 46 42
53 48 43
54 49 45
53 48 44
54 49 45
53 48 44
54 49 45
53 48 44
55 50 46
55 50 46
53 48 44
59 48 44
55 50 46
53 48 44
55 49 45
54 49 45
53 48 44
54 49 45
53 48 44
54 49 45
98 87 58
53 48 44
53 48 44
78 70 51
52 47 43
53 48 44
53 48 44
53 48 44
52 47 43
51 47 43
50 46 42
53 48 44
52 47 43
52 47 43
50 45 42
50 45 42
51 46 42
52 47 43
51 46 42
51 46 42
54 49 44
51 45 42
55 49 45
50 45 41
61 55 50
63 57 51
61 56 51
78 70 51
53 49 44
55 50 45
54 48 44
55 49 45
55 50 46
55 50 46
55 50 46
56 51 46
55 50 46
54 49 45
51 47 42
54 49 45
53 48 44
54 49 45
49 44 40
53 48 44
51 46 42
52 48 43
49 44 40
48 43 39
47 43 39
43 39 35
42 38 34
41 37 33
40 37 33
32 29 26
33 30 27
33 30 27
31 28 25
27 24 22
23 21 19
42 28 25
94 56 46
149 94 59
83 53 47
86 55 47
89 57 49
86 54 47
96 61 53
99 61 54
91 57 50
101 62 54
99 61 54
98 61 54
95 60 52
96 61 53
80 52 46
53 47 44
54 49 45
56 51 47
56 51 47
55 50 46
56 51 47
81 73 55
56 51 47
55 50 46
55 50 46
55 50 46
56 51 47
55 50 46
55 50 46
56 51 47
56 51 47
56 51 47
55 50 46
55 50 46
56 51 47
56 51 47
55 50 46
56 51 46
56 51 47
55 50 46
56 51 47
54 49 45
54 49 45
61 48 45
64 46 44
65 47 44
65 47 45
66 48 45
68 49 46
68 49 46
69 50 47
68 49 47
68 49 47
69 50 47
95 61 47
61 44 42
61 44 42
59 43 41
52 38 35
45 33 31
46 41 38
45 41 38
45 41 37
54 46 39
50 42 36
40 35 31
40 38 28
50 48 35
57 55 40
53 50 38
49 47 35
59 56 41
57 55 40
53 51 38
48 46 35
65 76 37
47 46 33
36 34 28
32 29 27
36 33 30
40 36 33
46 42 39
47 43 40
47 43 39
52 47 44
52 47 43
52 47 43
52 48 44
55 50 46
54 50 46
55 50 46
55 50 46
56 51 46
55 50 47
55 50 46
55 50 47
53 48 45
55 50 46
54 49 46
56 51 47
56 51 47
56 50 47
56 50 47
55 50 46
55 50 47
55 50 46
56 51 47
55 50 46
55 50 46
54 49 46
55 50 47
80 72 54
55 50 46
55 50 47
55 50 46
55 50 46
55 50 46
54 50 46
53 48 45
54 48 45
52 47 44
53 48 45
53 48 44
48 43 41
50 46 42
43 39 37
45 41 39
46 30 46
50 30 51
45 26 45
45 26 45
49 29 48
53 32 54
98 62 66
51 30 51
46 27 47
46 28 46
42 26 43
41 24 42
33 27 30
71 63 44
43 39 36
42 38 36
50 46 42
49 45 42
53 47 44
79 71 53
54 50 46
54 49 46
54 49 46
80 72 54
55 50 46
55 50 46
55 50 46
54 49 46
55 50 46
56 51 47
54 50 46
55 50 46
56 51 47
56 51 47
56 51 47
56 51 47
56 51 47
56 51 47
55 50 46
56 51 47
56 51 47
56 51 47
81 73 54
56 51 47
55 50 46
56 51 47
56 51 47
55 50 46
56 51 47
55 50 46
55 50 46
55 51 46
56 51 46
56 51 47
55 50 46
54 49 45
55 50 46
55 50 46
57 53 46
55 50 46
53 49 45
54 49 45
55 50 45
56 51 47
54 49 45
52 47 43
53 48 44
53 49 44
54 49 45
56 51 47
53 48 44
54 49 45
55 50 46
54 49 45
55 50 46
55 50 46
56 51 47
56 51 47
56 51 47
55 50 46
55 50 46
55 50 46
56 51 47
56 51 47
56 51 47
56 51 47
55 50 46
56 51 46
80 72 53
56 51 47
71 59 47
56 51 47
56 51 47
56 51 47
56 51 47
76 62 50
79 71 52
56 51 46
55 50 46
55 50 46
56 51 47
69 55 40
151 107 38
100 72 31
105 76 33
104 75 33
106 77 33
108 78 34
107 77 33
107 77 33
107 77 33
107 77 33
105 75 32
105 76 33
96 69 30
83 73 53
55 50 46
99 89 60
55 50 46
57 51 45
99 89 60
53 48 44
115 102 66
81 73 54
55 50 46
55 50 46
72 58 47
81 73 55
56 51 47
55 50 46
56 51 47
55 50 46
55 50 46
56 51 47
56 51 47
56 51 47
55 50 46
56 50 46
56 50 46
56 51 46
56 51 47
71 62 48
56 51 47
57 52 47
55 50 45
56 51 47
70 61 47
56 51 47
55 50 46
55 50 46
55 50 46
55 50 46
55 50 46
54 49 45
55 50 46
54 49 45
54 50 46
54 49 45
55 50 46
80 71 53
56 51 47
55 50 46
53 49 44
79 71 53
60 58 43
51 46 42
54 49 44
61 59 44
51 46 42
56 54 38
46 42 38
77 68 49
49 45 41
70 73 39
57 58 39
45 52 19
55 64 24
58 67 25
62 71 26
62 72 27
66 77 28
66 77 29
66 76 28
64 75 28
68 79 29
68 79 29
62 72 27
66 76 28
64 74 27
61 71 27
52 58 29
50 45 41
78 70 51
54 49 45
81 72 54
79 71 52
54 49 45
54 49 45
53 48 44
53 48 44
54 49 44
55 50 46
54 49 44
54 49 45
53 48 44
55 50 46
54 49 45
54 49 45
54 49 45
80 71 53
54 49 45
54 49 45
54 49 45
54 49 45
54 49 45
53 48 44
53 47 44
53 48 44
53 48 44
52 47 43
52 47 43
53 48 44
57 47 42
52 47 44
52 47 43
54 49 45
50 45 42
52 46 43
52 47 44
53 48 44
49 44 41
54 49 45
52 46 43
81 71 52
53 47 43
66 58 52
57 52 47
64 58 52
64 58 52
74 68 61
74 68 61
59 52 46
55 50 46
54 49 45
55 50 46
52 48 44
53 48 44
53 48 44
55 50 46
54 49 45
55 50 46
54 49 45
53 48 44
53 48 44
54 49 45
54 49 45
54 49 44
52 47 43
51 46 42
49 45 41
50 45 41
49 44 40
45 40 36
42 39 35
46 42 38
37 33 30
41 36 33
40 36 33
34 30 28
32 29 26
31 28 25
25 23 21
21 19 17
53 34 31
64 41 36
79 51 44
82 51 45
85 53 46
89 54 48
88 53 47
86 52 45
91 56 49
88 54 47
89 52 46
81 49 44
89 56 49
86 54 48
65 46 42
50 45 41
54 49 44
55 50 46
55 50 46
55 50 46
56 51 47
55 50 46
56 51 47
56 51 47
56 51 47
56 51 47
56 51 47
56 51 47
56 51 47
56 51 47
55 50 46
55 50 46
56 51 47
55 51 46
55 50 46
55 50 46
56 51 47
55 50 46
55 50 46
55 50 46
55 50 46
54 49 45
52 48 44
55 46 43
63 45 43
63 46 43
77 57 45
62 45 43
64 47 44
66 48 45
65 47 45
63 46 44
67 49 46
61 44 42
61 44 42
60 43 41
53 38 36
56 40 39
48 35 33
70 59 39
49 41 35
43 39 36
44 40 37
41 37 34
36 33 30
37 33 31
37 34 30
46 44 33
45 44 33
46 44 33
80 72 36
49 47 35
48 46 34
42 40 30
48 47 34
38 36 27
34 32 25
26 23 21
31 29 26
39 36 33
43 37 34
45 41 38
48 44 40
50 45 41
50 46 42
52 47 43
55 51 46
55 50 46
53 48 44
55 50 46
53 49 45
54 50 46
71 57 46
55 50 46
56 51 47
56 50 47
55 50 46
55 50 46
56 51 47
55 50 46
55 50 46
55 50 46
56 51 47
55 50 46
56 51 47
56 50 47
55 49 46
56 51 47
55 50 46
56 51 47
56 50 47
55 50 46
56 51 47
53 48 45
54 49 46
53 48 45
56 51 47
54 49 45
80 72 54
54 49 45
53 48 45
79 71 52
50 46 42
48 44 41
50 46 43
46 41 38
41 37 35
38 33 33
39 26 40
84 25 43
45 27 47
50 28 46
44 26 45
48 29 49
42 25 43
41 24 40
41 24 41
36 20 35
27 19 26
33 30 29
36 33 31
42 38 36
47 42 40
48 43 40
53 48 44
50 45 42
54 49 45
53 48 44
55 50 46
56 51 47
53 48 45
54 49 45
81 72 54
56 51 47
55 50 46
56 51 47
55 50 46
81 73 55
81 73 55
56 51 47
56 51 47
56 51 47
55 50 46
56 51 47
81 73 55
56 51 47
56 51 47
54 49 46
56 51 47
81 72 54
56 51 47
56 51 47
55 50 46
56 51 47
55 50 46
56 51 47
100 89 61
56 51 47
56 51 47
80 72 54
55 50 46
55 50 46
55 50 46
55 50 46
59 59 48
55 50 46
56 51 47
55 50 46
55 50 46
55 50 46
54 49 45
55 50 46
55 50 46
55 50 45
52 48 44
55 50 46
54 49 45
54 50 46
54 49 45
54 49 45
80 72 54
55 50 46
55 50 46
55 51 46
56 51 47
80 72 53
56 51 47
56 51 46
81 73 55
81 72 54
55 50 46
56 51 47
56 51 47
56 51 47
55 50 46
55 50 46
56 51 47
55 50 46
55 50 46
56 51 46
55 50 46
55 50 46
56 51 46
55 50 45
81 72 54
56 51 47
55 50 46
58 51 45
91 66 31
101 73 32
103 74 32
101 73 32
105 76 33
105 76 33
107 77 33
107 77 33
107 77 33
108 77 33
104 75 33
105 76 33
101 72 32
98 71 31
103 81 44
80 71 53
54 49 45
100 89 60
81 72 54
129 114 71
81 72 54
81 72 53
116 103 67
55 50 46
56 51 46
55 50 46
55 50 46
55 50 46
56 51 46
54 49 45
55 50 45
56 51 47
56 51 46
56 51 47
55 50 46
81 72 54
56 51 46
56 51 47
56 51 47
55 50 46
55 50 46
55 49 45
56 51 47
55 50 46
55 50 46
55 50 45
134 109 54
76 65 48
76 65 48
66 58 47
55 50 46
55 50 46
55 50 46
56 51 47
55 51 46
54 49 45
55 50 46
56 51 46
55 50 46
54 49 44
55 50 46
55 50 46
53 48 44
54 50 46
53 49 44
52 47 43
50 46 42
53 48 43
49 45 41
48 43 39
45 41 36
67 58 43
90 79 52
46 42 38
42 48 23
50 58 21
53 62 23
57 66 25
54 63 23
61 71 27
61 72 27
62 72 27
64 74 28
60 70 26
62 72 27
63 72 27
63 73 27
59 69 26
63 72 27
52 52 38
48 44 40
49 45 41
72 63 49
54 49 45
79 70 51
53 48 44
53 48 44
54 49 45
54 49 45
54 49 45
53 48 44
55 50 46
55 50 46
55 50 45
57 52 46
54 49 44
52 47 43
53 48 44
54 49 45
55 50 46
54 49 45
53 48 44
54 49 45
55 50 45
53 48 44
52 47 43
55 50 46
54 49 45
53 48 44
52 47 44
52 47 43
55 50 46
53 48 44
53 48 44
54 49 45
53 48 44
53 48 44
54 49 45
51 46 43
52 47 43
55 49 45
53 47 43
56 50 46
54 49 45
60 54 49
58 53 48
65 58 51
64 58 52
65 59 53
75 69 61
85 76 58
57 52 47
53 48 44
55 50 45
54 49 45
55 50 46
53 48 44
55 50 46
54 49 45
51 47 43
53 48 44
54 49 45
54 49 45
54 49 45
54 49 45
55 49 45
52 47 43
58 49 45
52 47 43
51 46 41
53 48 44
50 46 42
48 44 40
49 45 40
50 45 41
44 40 37
42 38 34
41 37 34
40 36 33
33 29 27
27 24 22
27 24 22
18 13 11
49 31 28
64 40 36
62 38 33
73 45 40
63 38 34
80 47 43
79 44 40
83 50 44
84 51 45
81 46 41
74 42 38
75 46 41
58 39 36
46 41 38
50 45 42
52 47 43
56 51 47
55 51 47
56 51 47
55 50 46
55 50 46
56 51 47
55 51 47
56 51 47
56 51 46
56 51 47
56 51 47
55 50 46
56 51 47
56 51 47
56 51 47
56 51 47
56 51 47
56 51 47
55 50 46
54 49 45
54 50 46
55 50 46
56 51 47
53 48 45
51 47 43
52 47 44
52 46 42
57 41 39
63 43 40
58 43 40
55 40 38
60 44 41
63 46 43
79 58 46
62 45 43
64 46 44
67 48 43
60 43 41
56 41 39
50 36 35
53 38 37
45 33 31
29 24 23
38 34 31
41 37 34
51 43 37
43 39 36
40 36 33
32 29 27
38 34 31
30 27 25
34 32 26
28 26 20
37 36 27
40 38 29
38 36 28
31 30 23
29 28 21
25 23 21
21 19 18
65 58 37
39 35 32
37 34 31
41 37 34
48 44 40
49 44 41
54 49 45
52 48 44
54 49 45
55 51 46
54 49 45
55 50 46
54 49 45
54 50 46
56 51 47
55 50 46
56 51 47
55 51 46
56 51 47
56 51 47
55 50 46
56 51 47
56 51 47
56 51 47
56 51 47
56 51 47
55 50 46
56 51 47
55 49 46
56 51 47
55 50 47
55 50 47
55 50 46
56 51 47
54 49 45
56 50 47
56 51 47
54 49 45
99 88 59
56 51 47
54 49 45
81 72 54
54 49 45
54 49 45
53 48 44
53 49 45
50 45 42
48 43 41
45 40 38
42 38 36
30 27 26
28 26 25
33 25 31
36 22 37
39 24 41
39 23 40
39 23 40
35 21 36
30 18 31
27 18 28
22 18 20
29 26 26
35 31 30
39 35 33
39 35 34
47 43 40
46 41 39
49 45 41
50 46 43
53 48 44
52 47 44
53 48 44
55 50 46
55 50 46
55 50 46
55 50 46
56 51 47
56 51 47
56 51 47
55 50 46
56 51 47
56 51 47
56 51 47
56 51 47
57 52 47
56 51 47
56 51 47
56 51 47
56 51 47
81 72 54
56 51 47
56 51 47
55 51 46
56 51 47
55 50 46
56 51 47
81 73 54
55 50 46
56 51 46
56 51 47
81 72 54
56 51 47
56 51 47
56 51 46
54 49 45
55 50 46
54 50 46
55 50 46
55 50 46
54 49 45
54 50 46
57 53 46
55 50 46
56 51 47
56 51 47
54 49 45
53 48 44
55 50 46
54 49 45
55 50 46
55 50 45
56 51 47
55 50 45
55 50 46
56 51 47
56 51 47
54 49 45
56 51 47
56 51 47
55 50 46
55 50 46
55 50 46
56 51 47
55 50 46
57 51 47
55 50 46
55 50 46
55 50 46
56 51 47
81 72 54
81 73 55
54 49 45
55 51 46
55 50 46
55 50 46
56 51 47
55 50 46
70 58 46
79 71 52
53 48 44
82 63 39
93 67 29
98 71 31
102 74 32
101 73 32
106 76 33
105 75 33
106 76 33
106 76 33
106 77 33
107 77 33
104 75 33
102 73 32
101 73 32
100 72 31
91 67 32
81 72 53
80 71 53
55 49 45
54 49 45
55 50 46
81 72 54
100 89 61
55 50 46
55 50 46
55 50 46
55 51 46
55 50 46
80 71 53
72 58 47
55 50 46
81 72 54
55 50 46
55 50 46
56 51 47
54 49 45
55 50 46
55 50 46
54 49 45
54 50 45
94 82 57
55 50 46
81 72 54
56 50 45
135 111 56
188 153 65
105 87 50
159 130 59
110 91 51
108 90 51
108 90 50
101 84 49
86 72 47
56 51 45
54 49 45
54 50 46
55 50 46
55 50 45
55 50 46
54 49 45
56 51 47
53 48 44
53 48 44
54 49 45
71 61 47
54 49 45
51 47 43
53 48 44
79 73 48
48 44 39
52 47 43
49 45 40
49 45 40
47 43 40
42 39 34
71 66 41
66 65 28
46 52 19
50 58 22
56 65 24
54 63 24
52 61 23
57 66 25
60 70 26
57 66 25
64 74 27
57 66 25
58 67 25
50 58 22
49 55 25
50 45 41
46 42 38
52 47 43
70 60 45
80 71 53
54 49 45
55 50 46
53 48 44
52 48 44
53 48 44
55 50 46
53 48 44
55 50 46
55 50 46
55 50 46
55 50 46
55 50 46
54 49 45
53 48 44
54 49 45
54 49 45
56 51 47
55 50 46
55 50 46
55 50 46
54 49 45
54 49 45
53 48 44
54 49 45
53 48 44
54 49 45
54 49 45
54 48 45
55 50 46
55 50 46
78 70 52
53 48 44
54 49 45
52 47 43
54 49 44
52 47 44
54 49 45
169 150 89
225 199 108
69 63 56
72 66 58
71 65 57
68 62 55
66 60 54
62 56 51
66 60 54
61 56 50
73 67 60
62 57 51
53 48 44
54 49 44
54 49 44
54 49 45
55 50 46
55 50 46
53 48 44
55 50 45
55 50 46
55 50 46
54 49 45
54 49 45
52 48 43
53 48 44
53 48 44
55 50 45
51 47 42
47 42 38
48 43 39
48 44 39
50 45 41
48 44 40
43 39 35
46 41 37
42 38 35
44 39 36
34 30 27
37 33 30
32 28 26
22 18 17
23 20 18
47 31 27
56 35 32
59 37 33
67 42 37
61 34 32
62 35 31
69 39 35
67 37 34
65 37 34
68 40 37
58 37 33
46 41 38
47 42 38
49 45 41
53 47 44
55 50 46
56 51 47
56 51 47
56 51 47
56 51 47
56 51 47
56 51 47
56 51 47
56 51 47
56 51 47
55 50 46
55 50 46
55 50 46
55 50 46
55 50 47
56 51 47
80 72 54
55 50 46
55 50 46
55 50 46
56 51 47
53 49 45
52 47 43
55 50 46
53 49 45
52 47 43
51 46 42
46 36 35
54 39 37
53 38 36
61 44 42
58 42 40
58 42 40
58 42 40
49 36 34
55 40 39
53 38 37
52 38 36
53 38 37
50 36 35
52 38 36
33 24 23
32 29 27
37 34 31
36 33 30
37 34 31
43 39 36
38 35 32
41 37 34
38 34 31
46 44 32
21 19 18
22 20 18
23 21 20
17 15 14
14 13 12
19 17 16
28 25 24
22 20 18
35 32 30
32 29 27
42 38 35
44 40 37
44 40 37
45 41 38
50 46 42
52 47 44
55 50 46
53 48 44
54 49 45
54 49 45
55 50 46
54 49 45
56 51 47
55 50 46
55 50 46
56 51 47
56 51 47
56 51 47
55 50 46
55 50 46
55 50 46
55 50 46
56 50 47
56 51 47
81 73 54
56 51 47
55 51 47
81 72 54
56 50 47
55 50 46
55 50 46
56 51 47
55 50 46
56 51 47
55 50 46
56 51 46
55 50 46
54 50 46
55 50 47
55 50 46
54 49 46
54 50 46
53 48 45
54 50 46
52 47 44
51 46 43
48 43 40
48 44 41
44 40 38
40 36 34
32 28 28
30 27 26
27 24 23
25 19 24
29 23 27
25 18 25
23 17 23
28 25 24
28 25 24
34 31 29
33 28 28
35 32 30
44 40 38
43 39 36
50 46 42
47 42 40
55 47 43
53 48 44
52 48 44
53 48 45
55 50 46
56 51 47
55 50 46
55 50 47
56 51 47
80 72 53
55 51 46
56 51 47
56 51 47
56 51 47
81 73 55
81 73 54
56 51 47
55 50 46
56 51 47
81 73 54
55 50 46
55 50 46
56 51 47
56 51 47
56 51 47
56 51 47
55 50 46
55 50 46
56 51 47
55 50 46
56 51 47
56 51 47
56 51 47
56 51 47
55 50 46
55 50 46
56 51 47
55 50 46
55 50 46
56 51 47
55 50 46
56 51 47
55 50 46
55 50 46
55 50 46
55 50 46
56 51 47
55 50 46
55 51 47
55 50 46
56 51 47
56 51 47
55 50 46
55 50 46
56 51 47
54 49 45
56 51 47
55 50 46
56 51 47
55 50 46
56 51 47
55 50 46
56 51 46
56 51 47
56 51 47
56 51 47
55 50 46
56 51 47
56 51 47
56 51 47
56 51 47
56 51 47
56 51 47
55 50 46
56 51 47
55 50 46
56 51 47
55 50 46
54 49 44
55 50 46
90 76 52
54 49 45
53 49 45
85 63 33
92 66 29
97 70 31
102 74 32
104 75 33
104 75 33
102 74 32
122 76 34
104 75 33
104 75 33
105 76 33
104 75 32
99 71 31
100 72 31
97 70 30
93 67 29
59 50 41
81 73 54
52 47 43
80 72 54
81 73 54
100 89 61
55 50 46
115 102 66
59 54 47
82 73 55
55 50 46
55 50 46
56 51 47
71 61 47
80 72 54
55 51 46
54 49 45
56 51 47
80 72 54
54 49 45
56 50 46
54 49 45
55 50 46
54 50 46
55 50 46
81 72 54
55 50 45
76 65 46
105 88 50
108 90 51
108 90 50
109 91 51
109 91 51
158 129 59
110 91 51
111 92 52
108 90 51
101 84 49
62 55 45
55 50 46
56 51 47
54 49 45
53 49 44
54 49 45
52 48 43
54 49 45
55 50 45
54 50 45
53 48 44
54 49 45
51 47 42
50 46 42
77 69 50
50 46 42
60 58 43
51 47 43
44 40 36
47 43 39
42 39 35
36 34 30
48 52 24
49 57 22
47 55 21
53 63 23
50 59 22
84 71 26
83 70 25
52 59 22
55 64 24
52 60 23
55 65 24
53 61 23
48 56 22
47 46 35
48 43 39
47 43 39
49 45 40
51 47 43
53 49 45
53 48 44
54 49 45
53 48 44
54 49 45
55 50 46
54 49 45
54 49 45
54 49 45
80 71 53
54 50 45
52 47 43
67 54 45
55 50 46
55 50 46
54 49 45
55 50 46
54 49 45
55 50 46
80 72 53
54 49 45
56 51 47
54 49 45
53 48 44
55 50 45
52 47 43
55 50 46
54 48 44
54 49 45
53 48 44
55 50 46
54 49 45
55 50 46
80 71 53
53 48 44
55 50 46
52 47 43
57 52 47
255 241 128
71 65 58
65 59 53
70 64 57
57 51 47
66 60 54
57 52 47
74 68 59
64 58 52
72 66 59
70 64 57
69 63 57
59 54 48
54 49 45
55 50 46
55 50 46
54 49 45
53 48 44
54 49 45
54 49 45
53 49 44
55 50 45
55 50 45
54 49 44
55 50 46
54 49 45
54 49 44
55 50 45
52 47 43
53 48 44
53 48 43
49 45 41
51 47 42
50 46 41
49 44 40
49 45 41
40 36 33
41 36 33
42 37 34
40 35 32
32 28 25
30 27 25
28 25 23
21 18 17
24 17 16
47 31 28
54 33 29
55 32 29
50 28 26
50 30 27
44 24 23
54 33 31
39 30 28
42 37 34
45 40 36
51 46 43
50 45 41
52 47 43
56 51 47
56 51 46
56 51 47
56 50 46
56 51 47
56 51 47
56 51 47
55 51 47
55 50 46
56 51 47
56 51 47
56 51 47
55 50 46
56 51 47
56 51 47
55 50 46
55 50 46
55 50 46
55 50 46
55 50 46
54 49 45
53 49 45
55 50 46
53 48 44
51 46 43
52 47 43
46 41 38
48 43 39
49 37 35
46 33 32
54 39 37
52 38 36
52 37 36
53 38 37
53 38 37
50 36 35
54 38 37
52 37 36
49 36 35
42 31 30
34 25 25
29 26 24
27 25 23
35 31 29
43 39 36
39 36 33
44 40 37
43 39 36
33 30 28
39 35 32
36 32 30
33 30 28
25 23 21
35 32 29
32 29 27
16 15 14
30 28 25
26 23 21
36 33 30
38 34 31
44 40 37
43 39 35
48 43 40
49 45 41
53 49 45
49 45 41
53 49 45
53 48 44
52 48 44
52 47 43
54 49 46
55 51 47
55 50 46
56 51 47
55 50 46
55 50 46
56 51 47
56 51 47
55 50 46
55 51 46
55 50 46
55 50 46
56 51 47
56 51 47
55 50 46
55 50 46
56 51 47
56 51 47
55 50 46
56 50 47
56 51 47
56 51 47
55 50 46
56 51 47
55 50 46
55 50 46
56 51 47
54 49 45
55 50 46
56 51 47
55 50 46
54 49 45
52 47 44
54 49 45
99 88 60
53 48 45
53 49 45
52 47 44
47 43 40
48 44 40
43 39 37
40 36 35
40 36 35
25 22 22
28 25 24
26 23 23
23 20 20
30 27 26
29 26 26
30 27 26
33 29 28
36 32 31
38 35 33
42 38 36
47 43 40
49 44 41
52 47 44
50 46 43
53 48 44
55 50 46
53 48 45
55 50 46
79 71 53
54 50 46
55 50 46
55 50 46
55 50 46
55 50 46
100 89 61
56 51 47
55 50 46
56 51 47
56 51 47
56 51 47
57 52 47
81 73 55
55 51 47
56 51 47
56 51 47
56 51 47
56 51 47
56 51 47
55 50 46
56 51 47
56 51 47
56 51 47
56 51 47
56 51 47
55 50 46
56 51 47
55 50 46
56 51 47
56 51 47
56 51 47
54 50 45
55 51 46
55 50 46
55 50 46
56 51 47
56 51 47
56 51 47
55 50 46
55 51 46
56 51 47
56 51 47
55 50 46
56 51 46
55 50 46
56 51 47
55 50 46
56 51 47
54 49 45
56 51 47
55 50 46
55 50 46
55 50 46
56 51 47
56 51 47
56 51 47
56 51 47
80 72 53
56 51 47
56 51 47
56 51 47
81 73 55
56 51 47
56 51 47
57 51 47
56 51 47
81 73 55
55 50 46
56 51 47
56 51 47
55 50 46
55 50 45
54 49 45
53 48 44
54 49 45
53 48 44
53 48 44
76 56 30
84 61 27
90 66 29
95 69 30
98 71 31
102 73 32
102 73 32
101 73 32
99 70 31
103 74 32
102 73 32
101 73 32
99 71 31
96 69 30
83 60 26
85 61 27
63 52 40
69 57 45
80 71 53
100 89 61
80 71 53
54 50 45
54 49 45
100 89 60
100 89 61
54 50 46
81 72 54
69 57 45
55 50 45
56 51 47
80 72 54
56 51 47
80 71 53
56 51 47
55 50 46
55 50 46
56 51 47
55 50 46
56 51 46
79 71 53
55 50 46
56 51 47
74 64 46
101 84 48
106 88 50
109 91 51
108 90 51
110 92 51
110 91 51
111 92 52
110 92 51
110 92 51
108 90 51
107 89 50
97 81 47
60 53 45
54 49 45
54 49 45
56 51 47
70 61 47
54 49 45
54 50 45
55 50 46
54 49 45
53 49 45
55 50 44
53 48 44
62 60 45
54 49 45
53 49 44
72 62 48
49 45 40
50 46 40
42 38 35
41 38 34
61 52 35
29 27 23
41 56 23
44 50 19
40 47 18
48 55 21
46 54 20
47 55 21
46 53 20
51 58 22
47 55 21
41 48 18
45 53 20
41 43 25
46 42 36
44 40 36
47 43 39
45 41 37
50 46 42
48 44 40
51 47 43
54 49 45
55 50 45
55 50 46
54 49 45
56 51 46
55 50 46
80 72 54
55 50 46
54 49 45
55 50 46
55 50 46
55 50 46
54 49 45
56 51 46
54 49 45
54 49 44
55 50 46
53 48 44
54 49 45
55 50 46
80 71 53
56 51 47
53 48 45
54 49 45
54 49 45
54 50 46
54 49 45
52 47 43
54 49 45
53 48 44
54 49 45
55 50 46
54 49 45
53 49 44
57 52 47
64 57 51
63 57 52
61 56 51
60 54 49
63 57 52
70 63 56
65 59 52
57 52 47
65 60 53
62 57 51
68 62 55
66 60 53
60 55 50
58 53 46
58 53 48
54 49 45
53 48 44
54 49 45
54 49 45
53 48 44
55 50 46
55 50 46
55 50 46
56 51 47
53 48 44
55 50 46
55 49 45
55 50 45
54 49 45
55 50 46
56 51 47
51 46 42
54 49 45
52 47 43
50 46 41
52 47 43
50 45 41
50 45 41
49 44 40
46 41 38
42 36 32
43 38 35
37 33 31
31 26 25
28 25 23
21 18 17
27 24 23
18 13 13
28 23 22
27 22 21
26 18 17
29 24 23
35 30 28
37 33 30
40 36 33
45 40 37
48 43 40
49 44 40
54 49 45
56 51 47
56 51 47
55 50 46
56 51 47
56 51 47
56 51 47
55 51 46
56 51 47
55 50 47
56 51 47
55 50 46
56 51 47
56 51 47
55 51 46
55 51 46
55 50 46
55 50 46
54 49 45
55 50 46
54 50 46
53 48 44
55 50 46
53 48 45
51 47 43
50 46 42
52 47 43
75 67 48
51 46 43
45 40 37
43 32 31
41 30 29
47 34 32
51 36 35
44 32 31
58 39 32
49 35 34
50 36 34
43 31 30
38 27 27
32 23 23
26 22 21
23 20 19
37 33 31
37 33 31
40 37 34
40 37 34
39 36 33
39 36 33
43 39 36
39 36 33
38 34 32
37 34 31
40 36 33
35 32 30
35 32 29
33 30 28
37 33 31
38 34 31
40 37 34
41 38 34
48 43 40
47 43 39
48 43 40
51 46 42
53 48 44
52 47 43
53 49 45
54 49 45
54 49 45
54 49 45
56 51 47
56 51 47
54 50 46
55 50 46
56 51 47
55 50 46
56 51 47
55 51 46
55 50 46
55 50 46
56 51 47
56 51 47
57 52 47
56 51 47
56 51 47
55 50 46
55 50 46
56 51 47
56 51 47
56 51 47
56 51 47
55 50 47
55 50 46
56 51 47
55 50 46
81 73 54
56 50 47
56 51 47
55 50 46
55 50 46
54 49 46
54 49 45
55 50 46
54 49 45
52 48 44
80 71 53
52 47 44
53 48 45
49 44 41
46 42 39
47 42 40
46 40 38
45 41 38
38 34 32
33 30 28
38 34 33
36 33 31
38 34 32
32 29 28
34 31 29
44 40 38
48 44 41
46 42 39
43 39 37
49 44 41
48 44 41
51 46 43
52 47 44
54 49 45
56 51 47
55 50 46
55 50 46
54 50 46
56 51 47
54 50 46
56 51 47
56 51 47
55 50 46
63 64 48
55 50 47
56 51 47
56 51 47
55 50 46
56 51 47
56 51 47
56 51 47
55 50 46
56 51 47
81 72 54
81 73 54
81 73 55
55 51 46
56 51 47
55 50 47
56 51 47
56 51 47
56 51 47
56 51 47
56 51 47
55 50 46
55 51 47
55 50 46
56 51 47
55 50 46
56 51 47
55 50 46
56 51 47
56 51 47
56 51 47
55 50 46
56 51 47
56 51 47
54 50 46
55 50 46
55 51 46
55 50 46
56 51 47
56 51 47
55 50 46
55 50 46
55 50 46
55 50 46
55 50 46
55 50 46
56 51 47
56 51 47
55 50 46
56 51 47
74 64 50
55 50 46
56 51 47
81 72 54
59 59 48
56 51 47
56 51 47
56 51 47
55 51 47
56 51 47
55 50 46
55 49 45
56 51 47
56 51 47
55 51 46
80 71 53
55 50 46
56 51 46
54 48 44
54 49 45
53 48 44
67 55 43
71 52 25
91 66 29
85 62 27
98 70 31
95 68 30
97 70 31
115 69 31
98 70 30
98 69 30
96 68 30
116 70 32
99 71 31
98 71 31
95 68 30
99 70 29
79 57 25
59 49 39
53 48 44
52 47 43
78 70 51
81 72 54
90 77 52
58 51 46
54 49 45
54 49 44
56 51 47
81 72 54
55 50 46
81 73 55
81 73 54
56 51 46
53 47 43
56 51 47
54 49 45
56 51 46
54 49 45
54 49 45
55 50 46
64 61 47
55 50 46
55 50 46
62 55 46
97 80 46
154 126 57
105 87 49
108 90 51
107 89 51
109 91 51
110 91 51
108 90 51
110 91 51
109 91 51
109 91 51
108 90 51
105 88 50
94 79 47
55 50 45
55 50 46
80 71 53
56 51 46
55 50 46
55 50 46
81 72 54
55 50 46
55 50 46
53 49 44
58 53 46
51 47 43
79 71 52
79 71 51
51 46 42
48 45 39
47 43 39
66 57 42
41 38 34
42 38 35
37 34 30
28 26 24
55 47 24
31 36 16
41 48 18
46 54 20
36 42 16
84 89 24
42 48 19
41 47 18
36 41 19
36 35 26
38 35 32
35 33 29
43 39 36
48 44 40
47 43 38
54 49 45
51 46 42
52 48 43
79 71 52
52 47 43
54 49 45
54 49 45
54 49 45
54 49 45
56 51 46
54 49 45
54 49 45
54 49 45
55 50 46
73 64 50
55 50 46
55 50 46
57 52 47
55 50 46
56 51 46
56 51 47
55 51 46
54 49 44
54 49 44
56 51 46
55 49 45
55 50 46
55 50 46
53 48 44
55 50 46
55 50 46
79 70 51
53 48 44
55 50 46
54 49 45
53 48 44
55 50 46
54 49 45
70 63 56
62 56 51
63 57 52
68 62 56
64 58 52
54 49 45
58 53 48
68 62 55
67 61 55
63 57 51
52 47 43
67 61 55
68 62 56
66 59 53
55 50 45
54 49 45
56 51 46
54 49 45
55 50 45
54 49 45
55 50 45
55 50 46
52 47 43
53 48 44
54 49 45
54 49 45
55 50 46
54 49 45
54 49 45
53 48 44
54 49 45
53 48 43
54 49 44
55 50 46
54 49 45
50 45 41
52 47 43
49 44 41
46 41 38
44 39 36
48 43 39
41 36 33
42 37 34
40 35 33
30 26 24
30 27 25
26 22 21
25 21 20
24 20 19
31 28 26
51 33 33
63 33 35
69 37 39
57 34 34
44 37 34
47 42 39
48 43 40
48 43 39
51 46 42
56 51 47
56 51 47
56 51 47
55 50 46
56 51 47
56 51 47
56 51 47
55 50 46
56 51 47
56 51 47
55 50 47
56 51 47
55 50 46
55 50 46
55 50 46
56 51 47
56 51 47
56 51 47
54 49 45
55 50 46
55 50 46
52 48 44
54 49 45
52 48 44
52 47 43
47 43 39
46 41 38
75 67 48
46 42 39
41 37 34
35 27 26
38 27 27
39 29 28
37 27 26
66 44 33
38 27 27
35 25 25
35 25 25
21 16 16
24 21 20
18 16 15
26 23 21
37 34 31
43 39 36
45 38 34
46 42 39
42 38 35
45 40 37
44 40 37
40 36 33
38 35 32
43 40 36
42 38 35
40 36 33
36 32 30
41 38 34
42 38 35
48 44 40
49 45 41
44 40 37
48 44 40
49 45 42
51 46 42
52 47 43
51 47 43
55 50 46
51 47 43
53 48 44
55 50 46
56 51 47
55 50 46
55 50 46
55 50 46
54 50 46
56 51 47
56 51 47
55 50 46
56 51 47
56 51 47
56 51 47
56 51 47
56 51 47
56 51 47
56 51 47
55 50 46
56 51 47
55 51 47
56 51 47
56 51 47
55 50 46
55 50 46
55 50 46
54 49 46
55 51 47
56 51 47
56 51 47
55 50 46
80 72 54
54 50 46
54 49 45
80 72 53
54 49 46
55 50 46
55 50 46
53 48 45
50 45 42
51 47 43
52 47 44
51 46 43
47 43 40
50 45 42
43 39 37
48 43 40
45 41 38
47 42 39
40 36 34
42 37 36
40 36 34
41 37 35
41 37 35
47 42 39
47 42 40
48 44 41
50 46 42
49 45 41
52 47 44
54 49 46
52 48 44
53 49 45
54 49 45
54 49 45
55 50 46
56 51 47
80 71 53
63 64 48
56 51 47
55 50 46
56 51 47
86 82 56
56 51 47
56 51 47
56 51 47
81 73 55
55 50 46
56 51 47
56 51 47
56 51 47
56 51 46
56 51 47
56 51 47
56 51 47
56 51 47
56 51 47
56 51 47
56 51 47
81 72 54
56 51 47
56 51 47
55 50 46
55 50 46
55 51 47
56 51 47
55 50 46
56 51 47
55 50 46
55 50 46
56 51 47
56 51 47
56 51 47
55 50 46
56 51 47
55 50 46
55 50 46
56 51 47
56 51 47
55 50 46
54 49 45
55 50 46
56 51 47
55 51 46
55 50 46
56 51 47
55 50 46
58 58 47
55 50 46
56 50 46
56 51 47
54 50 46
55 51 46
80 72 53
56 51 47
56 50 46
56 51 47
56 51 47
81 73 54
81 72 54
56 51 47
59 49 45
55 50 46
55 51 46
56 51 46
54 49 45
56 51 47
81 72 54
53 48 44
80 72 53
54 49 45
68 56 43
52 47 43
50 46 41
57 43 24
81 59 26
90 65 29
92 66 29
91 65 29
92 66 29
95 67 30
95 68 30
93 65 29
97 65 29
96 67 30
97 69 31
90 64 28
91 65 29
88 63 28
122 87 27
105 74 39
77 68 49
52 47 43
54 49 45
54 49 45
79 71 52
54 49 45
53 48 44
54 49 45
80 72 54
81 73 54
56 51 47
55 50 46
55 49 45
80 72 53
80 72 53
70 61 47
80 72 53
55 50 46
55 50 46
55 50 46
72 62 46
56 51 46
56 51 46
55 50 45
77 65 45
97 81 46
103 86 49
105 87 49
107 89 50
108 90 51
108 90 51
108 90 51
109 91 51
109 91 51
108 90 51
106 88 50
105 88 50
106 88 50
100 83 47
96 83 54
55 50 46
53 48 44
55 50 45
54 49 45
55 50 46
56 51 47
54 49 45
55 50 46
56 51 46
53 48 44
54 49 45
54 49 45
56 51 44
51 47 43
49 45 41
46 43 39
47 43 39
42 39 35
73 65 46
42 39 35
30 28 25
26 24 22
20 17 15
22 23 15
23 25 13
26 30 13
27 31 13
29 31 17
22 23 13
31 29 26
33 30 27
39 36 33
42 39 35
45 41 36
44 40 36
50 46 41
50 46 41
53 48 44
80 71 53
54 50 44
53 48 44
55 50 46
53 48 44
54 49 44
55 50 46
54 49 45
55 50 46
56 51 46
55 50 46
54 49 45
80 72 54
55 50 46
54 49 45
55 50 46
81 73 55
56 51 47
55 50 46
55 50 46
55 50 46
56 51 47
55 50 46
55 50 46
55 50 46
53 48 44
55 50 46
54 49 45
54 49 45
54 49 46
56 51 47
80 71 52
55 50 46
54 50 46
53 48 44
54 49 45
60 55 49
58 53 48
59 54 49
64 58 52
62 56 51
59 54 49
60 55 50
60 54 49
63 57 51
55 50 46
60 55 50
64 58 53
64 59 53
63 57 52
55 51 46
54 49 45
53 48 44
54 49 45
54 49 45
54 49 45
54 49 45
53 48 44
55 50 46
56 51 47
55 50 45
54 50 45
54 49 44
54 49 45
54 49 45
53 48 43
55 50 46
51 46 42
53 48 44
53 49 44
51 47 43
52 47 43
52 47 42
53 48 44
51 46 42
53 48 44
44 39 36
47 42 39
48 43 39
45 40 37
43 38 35
39 35 32
33 28 26
38 33 31
73 36 39
98 41 48
103 43 50
107 44 51
110 46 53
110 45 53
108 46 53
94 43 48
78 45 46
53 48 44
51 46 42
55 50 46
55 50 47
56 51 47
56 51 47
56 51 47
56 51 47
81 73 54
56 51 47
55 51 47
55 50 46
55 51 46
81 73 54
56 51 47
55 50 46
55 50 46
56 51 47
56 51 47
56 51 47
54 50 46
55 51 46
54 49 45
53 49 45
52 47 44
54 49 45
51 47 43
47 43 40
52 47 43
46 41 38
39 35 33
39 35 33
31 28 26
25 23 21
23 18 18
24 18 18
30 22 22
28 22 21
22 19 18
18 16 15
19 17 16
22 20 18
32 29 27
38 34 32
41 37 34
41 37 34
43 39 36
45 41 38
45 41 37
50 46 42
46 42 38
48 44 40
44 40 36
45 41 38
47 43 40
43 39 36
45 41 37
50 45 42
49 44 41
51 46 42
50 45 41
49 44 41
50 46 42
53 49 45
54 49 45
54 49 45
53 49 44
54 49 45
55 50 46
55 50 46
56 51 47
55 50 46
54 49 45
55 51 46
56 51 47
55 50 46
55 50 46
56 51 47
56 51 47
56 51 47
55 50 46
56 51 47
55 50 46
56 51 47
55 50 46
56 51 47
55 50 46
55 50 47
56 51 47
80 72 54
55 50 47
56 51 47
55 51 47
56 51 47
81 73 55
56 51 47
56 51 47
55 50 46
80 71 53
80 71 53
56 51 47
54 49 46
54 49 45
54 49 46
54 49 45
53 48 44
53 48 45
54 49 45
50 46 42
52 47 44
52 47 44
50 45 42
50 45 42
50 45 42
49 45 42
48 43 40
49 44 41
47 42 40
47 42 40
51 46 43
48 43 40
49 44 41
48 44 41
51 47 43
54 49 45
50 45 42
54 49 45
52 47 44
53 49 45
53 49 45
80 71 53
54 49 45
56 51 47
56 51 47
55 50 46
54 49 46
56 51 47
54 50 46
55 50 46
55 50 46
55 50 46
55 50 46
56 51 47
56 51 47
56 51 47
56 51 47
56 51 47
55 50 46
81 73 54
55 50 46
56 51 47
56 51 47
56 51 47
56 51 47
55 50 46
55 50 46
56 51 47
55 50 46
55 50 46
56 51 47
81 72 54
55 51 46
56 51 47
55 51 46
56 51 47
81 73 55
56 51 47
56 51 47
56 51 47
55 50 46
54 49 45
55 50 46
56 51 47
55 50 46
54 50 46
56 51 47
56 51 47
55 50 46
56 51 47
56 51 47
56 51 47
55 50 46
56 51 47
55 50 46
55 50 46
55 51 46
56 51 47
56 51 47
56 51 47
81 72 54
55 50 46
56 51 47
80 72 54
55 50 46
81 73 55
55 51 47
81 72 54
56 51 47
56 51 47
56 51 46
55 50 46
55 50 46
100 89 61
54 49 45
55 50 46
54 49 45
54 49 45
54 49 44
53 48 44
50 45 41
49 44 40
79 70 50
63 49 32
71 52 23
83 60 26
89 64 28
95 68 30
85 62 27
85 60 27
84 58 26
94 67 30
88 60 27
91 64 28
88 62 28
85 59 27
81 58 26
80 58 25
70 51 23
55 48 41
78 70 51
48 44 40
53 48 44
79 70 52
79 70 51
53 48 44
54 49 44
55 50 46
80 72 53
81 73 54
55 50 46
55 50 46
56 51 47
56 51 47
55 50 46
55 50 46
53 48 44
54 49 45
54 49 45
53 48 44
70 61 46
54 49 45
54 49 45
80 71 53
85 71 42
99 82 47
104 87 49
105 88 50
107 89 50
106 88 50
107 89 51
109 90 51
106 88 50
107 89 50
108 90 51
108 90 51
102 85 48
104 87 49
100 83 47
80 67 40
53 49 44
54 49 45
54 49 45
55 50 46
53 49 44
52 47 43
53 48 44
54 49 45
54 49 45
56 51 47
52 47 43
51 47 42
54 49 45
54 49 45
69 60 44
52 47 43
49 45 41
43 39 35
39 36 33
38 35 31
36 33 30
35 32 29
33 30 28
25 23 20
20 19 16
25 23 21
24 23 20
30 28 25
31 29 26
34 32 28
36 34 30
42 39 35
45 41 37
46 42 38
50 45 41
48 44 40
50 46 41
51 46 42
54 49 45
55 50 46
73 63 49
54 50 45
56 51 47
53 49 44
54 49 45
54 49 45
53 49 44
55 50 45
54 49 45
55 50 46
54 50 46
55 50 46
54 50 46
81 72 54
55 49 45
54 49 45
55 50 46
54 49 45
53 48 44
54 49 46
55 50 46
54 49 45
55 51 46
55 50 46
55 50 45
54 49 45
55 50 46
53 48 44
55 50 46
54 49 45
54 50 46
54 49 45
63 58 53
57 52 47
55 50 46
53 48 44
58 53 48
61 56 51
57 52 47
57 52 48
66 60 53
60 55 49
53 48 45
65 59 53
56 51 47
67 61 54
59 54 49
61 53 49
84 75 56
60 55 49
55 50 45
56 51 47
54 49 45
55 50 46
55 50 46
56 51 47
54 49 45
54 49 45
55 50 46
54 49 45
55 49 45
55 50 46
55 50 46
54 49 45
53 49 44
54 49 45
54 48 44
54 49 45
54 49 45
54 49 45
51 46 42
50 45 41
49 44 40
51 46 42
51 46 42
45 40 37
48 43 39
48 43 40
46 41 38
42 38 35
55 39 38
91 39 45
157 64 59
107 44 51
107 44 51
109 45 53
112 46 54
112 46 54
112 46 54
112 46 54
110 45 53
88 42 46
55 48 45
56 51 47
55 50 46
56 51 47
56 51 47
56 51 47
56 51 47
56 51 47
56 51 47
56 51 47
56 51 47
55 50 46
55 50 46
55 50 46
55 50 46
55 50 46
55 50 46
56 51 47
55 50 46
56 51 46
55 50 46
54 49 45
54 49 45
53 48 44
53 48 45
50 45 42
50 46 42
50 46 42
46 42 39
44 40 37
38 34 32
44 40 37
32 29 27
27 25 23
24 21 20
22 20 19
19 17 16
25 23 22
21 19 18
30 27 25
37 33 31
37 33 31
42 38 35
40 37 34
45 40 37
46 42 38
50 46 42
48 43 40
49 44 41
48 43 40
49 45 41
45 41 38
51 46 42
45 41 38
47 43 39
52 47 43
47 43 40
49 45 41
51 46 43
50 46 42
53 48 44
53 48 44
52 47 43
53 49 44
55 50 46
54 49 45
54 49 45
54 49 45
53 49 45
54 49 46
54 49 45
56 51 47
55 50 46
53 49 45
56 51 47
56 51 47
55 50 46
56 51 47
56 50 47
55 50 46
56 51 47
56 51 47
55 50 46
55 50 47
56 51 47
56 51 47
81 73 54
56 51 47
56 51 47
56 51 47
55 50 46
56 51 47
56 51 47
55 50 46
54 49 45
55 50 46
56 51 47
56 51 47
56 51 47
55 50 46
55 50 46
55 50 46
54 49 46
56 51 47
56 51 46
54 49 45
55 50 46
55 50 46
50 45 42
52 47 44
51 47 43
53 48 45
51 46 43
53 48 44
47 43 40
50 45 42
47 43 40
50 45 42
51 47 43
52 47 43
51 47 43
52 47 44
51 46 43
53 48 45
52 47 44
51 46 43
53 49 45
54 49 45
55 50 46
53 48 45
53 48 45
56 51 47
55 50 46
55 50 46
56 51 47
56 51 47
56 51 47
55 51 46
55 51 46
56 51 47
81 72 54
56 51 47
55 50 46
56 51 47
55 50 46
56 51 47
81 72 54
55 50 46
56 51 47
55 50 46
56 51 47
55 50 46
55 51 47
55 50 46
56 51 47
56 51 47
55 50 46
56 51 47
81 73 55
56 51 47
56 51 47
59 58 48
56 51 47
55 50 46
56 51 47
56 51 47
56 51 47
56 51 47
56 51 47
56 51 47
55 50 46
55 50 46
55 50 46
56 51 46
55 50 46
56 51 47
55 50 46
55 50 46
55 51 46
55 50 46
56 51 47
54 49 45
56 51 47
56 51 47
55 50 46
55 50 46
56 51 47
55 50 46
56 51 47
56 51 47
55 50 46
56 51 47
56 51 47
56 51 47
55 50 46
56 51 47
56 51 47
56 51 47
55 50 46
55 50 46
80 71 53
56 51 47
54 49 45
55 50 46
53 48 44
54 49 45
55 50 45
53 48 44
52 47 43
51 46 42
49 44 40
87 73 45
69 49 22
76 55 24
85 61 27
88 61 27
81 56 25
84 58 26
81 56 25
89 62 27
122 58 28
104 57 26
87 60 27
79 53 24
70 49 22
76 54 24
73 61 27
47 42 39
52 47 43
51 46 42
69 57 45
55 50 46
80 72 53
53 48 44
55 50 46
55 50 46
55 50 46
54 49 45
55 50 46
55 50 46
56 51 47
80 72 53
81 73 55
55 50 46
55 50 46
55 50 46
55 50 45
55 50 46
56 50 46
54 49 45
53 48 43
65 57 44
146 118 52
92 76 44
103 85 47
102 84 48
99 82 47
103 86 49
106 88 50
103 86 49
106 88 50
106 89 50
105 88 50
106 88 50
105 88 50
101 84 47
101 85 49
96 80 46
53 48 43
81 72 54
53 48 44
55 50 46
55 50 46
54 49 45
54 49 44
56 51 47
55 50 46
55 50 46
54 49 45
54 50 45
54 49 45
53 48 44
52 47 43
51 47 42
49 45 41
47 43 39
49 45 41
43 40 36
43 39 36
39 36 32
39 36 32
36 34 30
29 27 24
34 32 29
34 32 28
32 30 27
34 31 28
33 31 28
39 36 32
40 37 33
46 42 38
47 43 38
50 46 42
51 47 43
52 47 43
51 47 42
54 49 45
54 49 45
53 48 44
54 49 45
80 72 54
55 50 45
54 49 44
54 49 45
56 51 47
55 50 46
55 50 46
55 50 45
56 51 46
54 49 45
54 50 45
55 50 46
56 51 46
55 50 46
54 49 45
56 51 46
55 50 46
56 51 47
54 49 45
55 49 45
55 50 46
56 51 46
56 51 47
55 50 46
53 48 44
54 49 46
54 49 45
53 48 44
54 49 45
54 49 45
55 49 45
54 49 45
64 58 52
58 52 47
53 48 44
55 50 46
69 63 56
60 54 49
82 74 55
63 58 52
62 57 51
56 51 46
65 59 53
73 67 59
59 50 47
55 50 45
57 52 47
55 50 46
54 49 45
55 50 46
54 49 45
55 50 46
55 50 46
53 48 44
54 49 45
54 49 45
55 50 46
56 51 47
54 49 45
55 50 46
53 48 44
55 50 46
55 50 46
55 50 45
55 50 46
56 51 46
53 48 44
53 48 44
53 48 44
55 49 45
53 48 44
53 48 44
50 45 41
50 44 41
51 45 42
50 44 41
49 44 41
54 42 40
150 61 56
102 42 49
102 42 49
106 44 51
110 46 53
110 46 53
112 46 54
112 46 54
112 46 54
112 46 54
112 46 54
111 46 53
99 44 50
